; generated by Slic3r 1.3.0 on 2024-10-25 at 15:45:33

; Printer Config Notes: 
; No Retraction
; 
; external perimeters extrusion width = 0.33mm (0.80mm^3/s)
; perimeters extrusion width = 0.40mm (2.86mm^3/s)
; infill extrusion width = 0.80mm (9.08mm^3/s)
; solid infill extrusion width = 0.40mm (2.14mm^3/s)
; top infill extrusion width = 0.30mm (0.77mm^3/s)

M107
M190 S55 ; set bed temperature and wait for it to be reached
M104 S205 ; set temperature
G28 ; home all axes
G1 Z5 F5000 ; lift nozzle

; Filament gcode

M109 S205 ; set temperature and wait for it to be reached
G21 ; set units to millimeters
G90 ; use absolute coordinates
M82 ; use absolute distances for extrusion
G92 E0
G1 Z0.300 F24000.000
G1 E-4.00000 F2400.00000
G92 E0
G1 X112.200 Y100.330 F24000.000
G1 E4.00000 F2400.00000
G1 F2100
G1 X112.830 Y99.700 E4.05860
G1 X113.418 Y99.198 E4.10943
G1 X114.138 Y98.674 E4.16803
G1 X114.797 Y98.271 E4.21885
G1 X115.591 Y97.866 E4.27745
G1 X116.305 Y97.570 E4.32829
G1 X117.153 Y97.295 E4.38688
G1 X117.904 Y97.115 E4.43771
G1 X118.784 Y96.975 E4.49629
G1 X119.554 Y96.915 E4.54713
G1 X120.446 Y96.915 E4.60573
G1 X121.216 Y96.975 E4.65656
G1 X122.096 Y97.115 E4.71516
G1 X122.815 Y97.287 E4.76379
G1 X123.695 Y97.570 E4.82457
G1 X124.409 Y97.866 E4.87540
G1 X125.203 Y98.271 E4.93400
G1 X125.862 Y98.674 E4.98483
G1 X126.582 Y99.198 E5.04343
G1 X127.170 Y99.700 E5.09425
G1 X127.800 Y100.330 E5.15285
G1 X128.302 Y100.918 E5.20368
G1 X128.826 Y101.639 E5.26228
G1 X129.229 Y102.297 E5.31310
G1 X129.634 Y103.091 E5.37170
G1 X129.930 Y103.805 E5.42253
G1 X130.205 Y104.653 E5.48113
G1 X130.385 Y105.404 E5.53196
G1 X130.525 Y106.284 E5.59056
G1 X130.603 Y107.503 E5.67088
G1 X130.603 Y132.497 E7.31473
G1 X130.525 Y133.716 E7.39506
G1 X130.385 Y134.596 E7.45366
G1 X130.205 Y135.347 E7.50448
G1 X129.930 Y136.195 E7.56308
G1 X129.634 Y136.909 E7.61392
G1 X129.229 Y137.703 E7.67251
G1 X128.826 Y138.361 E7.72333
G1 X128.302 Y139.082 E7.78194
G1 X127.800 Y139.670 E7.83277
G1 X127.170 Y140.300 E7.89136
G1 X126.582 Y140.802 E7.94220
G1 X125.862 Y141.326 E8.00079
G1 X125.231 Y141.712 E8.04942
G1 X124.409 Y142.134 E8.11021
G1 X123.695 Y142.430 E8.16103
G1 X122.847 Y142.705 E8.21963
G1 X122.096 Y142.885 E8.27046
G1 X121.216 Y143.025 E8.32906
G1 X120.479 Y143.083 E8.37769
G1 X119.554 Y143.085 E8.43848
G1 X118.784 Y143.025 E8.48931
G1 X117.904 Y142.885 E8.54790
G1 X117.153 Y142.705 E8.59873
G1 X116.305 Y142.430 E8.65733
G1 X115.591 Y142.134 E8.70816
G1 X114.797 Y141.729 E8.76676
G1 X114.138 Y141.326 E8.81758
G1 X113.418 Y140.802 E8.87618
G1 X112.830 Y140.300 E8.92701
G1 X112.200 Y139.670 E8.98561
G1 X111.698 Y139.082 E9.03643
G1 X111.174 Y138.361 E9.09503
G1 X110.771 Y137.703 E9.14586
G1 X110.366 Y136.909 E9.20446
G1 X110.083 Y136.226 E9.25309
G1 X109.795 Y135.347 E9.31388
G1 X109.615 Y134.596 E9.36472
G1 X109.475 Y133.716 E9.42330
G1 X109.397 Y132.497 E9.50363
G1 X109.397 Y107.503 E11.14748
G1 X109.414 Y107.057 E11.17680
G1 X109.475 Y106.284 E11.22783
G1 X109.615 Y105.404 E11.28642
G1 X109.795 Y104.653 E11.33725
G1 X110.070 Y103.805 E11.39585
G1 X110.366 Y103.091 E11.44667
G1 X110.771 Y102.297 E11.50527
G1 X111.174 Y101.638 E11.55611
G1 X111.698 Y100.918 E11.61470
G1 X112.171 Y100.364 E11.66256
G1 X112.607 Y100.678 F24000.000
G1 F2100
G1 X113.178 Y100.107 E11.71564
G1 X113.766 Y99.605 E11.76646
G1 X114.418 Y99.131 E11.81954
G1 X115.077 Y98.727 E11.87036
G1 X115.796 Y98.361 E11.92343
G1 X116.510 Y98.065 E11.97427
G1 X117.278 Y97.816 E12.02733
G1 X118.029 Y97.635 E12.07816
G1 X118.826 Y97.509 E12.13122
G1 X119.597 Y97.449 E12.18205
G1 X120.403 Y97.449 E12.23513
G1 X121.174 Y97.509 E12.28595
G1 X121.971 Y97.635 E12.33903
G1 X122.722 Y97.816 E12.38986
G1 X123.490 Y98.065 E12.44292
G1 X124.204 Y98.361 E12.49375
G1 X124.923 Y98.727 E12.54682
G1 X125.582 Y99.131 E12.59765
G1 X126.234 Y99.605 E12.65072
G1 X126.822 Y100.107 E12.70154
G1 X127.393 Y100.678 E12.75462
G1 X127.895 Y101.266 E12.80544
G1 X128.369 Y101.918 E12.85852
G1 X128.773 Y102.577 E12.90934
G1 X129.139 Y103.296 E12.96241
G1 X129.435 Y104.010 E13.01324
G1 X129.684 Y104.778 E13.06631
G1 X129.865 Y105.529 E13.11714
G1 X129.991 Y106.326 E13.17021
G1 X130.067 Y107.503 E13.24777
G1 X130.067 Y132.497 E14.89162
G1 X129.991 Y133.674 E14.96919
G1 X129.865 Y134.471 E15.02225
G1 X129.684 Y135.222 E15.07308
G1 X129.435 Y135.990 E15.12615
G1 X129.139 Y136.704 E15.17698
G1 X128.773 Y137.423 E15.23005
G1 X128.369 Y138.082 E15.28087
G1 X127.895 Y138.734 E15.33395
G1 X127.393 Y139.322 E15.38478
G1 X126.822 Y139.893 E15.43785
G1 X126.234 Y140.395 E15.48869
G1 X125.582 Y140.869 E15.54174
G1 X124.923 Y141.273 E15.59258
G1 X124.204 Y141.639 E15.64564
G1 X123.490 Y141.935 E15.69647
G1 X122.722 Y142.184 E15.74954
G1 X121.971 Y142.365 E15.80037
G1 X121.174 Y142.491 E15.85344
G1 X120.403 Y142.551 E15.90427
G1 X119.597 Y142.551 E15.95734
G1 X118.826 Y142.491 E16.00816
G1 X118.029 Y142.365 E16.06124
G1 X117.278 Y142.184 E16.11206
G1 X116.510 Y141.935 E16.16513
G1 X115.796 Y141.639 E16.21596
G1 X115.077 Y141.273 E16.26903
G1 X114.418 Y140.869 E16.31986
G1 X113.766 Y140.395 E16.37293
G1 X113.178 Y139.893 E16.42375
G1 X112.607 Y139.322 E16.47683
G1 X112.105 Y138.734 E16.52765
G1 X111.631 Y138.082 E16.58073
G1 X111.227 Y137.423 E16.63155
G1 X110.861 Y136.704 E16.68462
G1 X110.578 Y136.021 E16.73326
G1 X110.316 Y135.222 E16.78851
G1 X110.135 Y134.471 E16.83935
G1 X110.009 Y133.674 E16.89241
G1 X109.933 Y132.497 E16.96998
G1 X109.933 Y107.503 E18.61382
G1 X109.948 Y107.099 E18.64038
G1 X110.009 Y106.326 E18.69141
G1 X110.135 Y105.529 E18.74447
G1 X110.316 Y104.778 E18.79530
G1 X110.565 Y104.010 E18.84837
G1 X110.861 Y103.296 E18.89920
G1 X111.227 Y102.577 E18.95227
G1 X111.631 Y101.918 E19.00310
G1 X112.105 Y101.266 E19.05616
G1 X112.578 Y100.712 E19.10403
G1 X113.015 Y101.026 F24000.000
G1 F2100
G1 X113.526 Y100.515 E19.15158
G1 X114.113 Y100.013 E19.20240
G1 X114.698 Y99.588 E19.24995
G1 X115.357 Y99.184 E19.30077
G1 X116.001 Y98.856 E19.34832
G1 X116.715 Y98.560 E19.39915
G1 X117.403 Y98.337 E19.44669
G1 X118.154 Y98.156 E19.49751
G1 X118.868 Y98.043 E19.54505
G1 X119.639 Y97.983 E19.59588
G1 X120.361 Y97.983 E19.64343
G1 X121.132 Y98.043 E19.69425
G1 X121.846 Y98.156 E19.74180
G1 X122.597 Y98.337 E19.79263
G1 X123.285 Y98.560 E19.84017
G1 X123.999 Y98.856 E19.89099
G1 X124.643 Y99.184 E19.93854
G1 X125.302 Y99.588 E19.98936
G1 X125.887 Y100.013 E20.03691
G1 X126.474 Y100.515 E20.08773
G1 X126.985 Y101.026 E20.13528
G1 X127.487 Y101.613 E20.18610
G1 X127.912 Y102.198 E20.23365
G1 X128.316 Y102.857 E20.28447
G1 X128.644 Y103.501 E20.33202
G1 X128.940 Y104.215 E20.38284
G1 X129.163 Y104.903 E20.43039
G1 X129.344 Y105.654 E20.48121
G1 X129.457 Y106.368 E20.52876
G1 X129.532 Y107.503 E20.60356
G1 X129.532 Y132.497 E22.24740
G1 X129.457 Y133.632 E22.32220
G1 X129.344 Y134.346 E22.36975
G1 X129.163 Y135.097 E22.42057
G1 X128.940 Y135.785 E22.46812
G1 X128.644 Y136.499 E22.51895
G1 X128.316 Y137.143 E22.56648
G1 X127.912 Y137.802 E22.61731
G1 X127.487 Y138.387 E22.66486
G1 X126.985 Y138.974 E22.71569
G1 X126.474 Y139.485 E22.76323
G1 X125.886 Y139.987 E22.81407
G1 X125.302 Y140.412 E22.86159
G1 X124.643 Y140.816 E22.91243
G1 X123.999 Y141.144 E22.95997
G1 X123.285 Y141.440 E23.01079
G1 X122.597 Y141.663 E23.05834
G1 X121.846 Y141.844 E23.10917
G1 X121.132 Y141.957 E23.15671
G1 X120.361 Y142.017 E23.20754
G1 X119.639 Y142.017 E23.25508
G1 X118.868 Y141.957 E23.30590
G1 X118.154 Y141.844 E23.35345
G1 X117.403 Y141.663 E23.40427
G1 X116.715 Y141.440 E23.45182
G1 X116.001 Y141.144 E23.50264
G1 X115.357 Y140.816 E23.55019
G1 X114.698 Y140.412 E23.60101
G1 X114.113 Y139.987 E23.64856
G1 X113.526 Y139.485 E23.69938
G1 X113.015 Y138.974 E23.74693
G1 X112.513 Y138.387 E23.79775
G1 X112.088 Y137.802 E23.84530
G1 X111.684 Y137.143 E23.89613
G1 X111.356 Y136.499 E23.94367
G1 X111.073 Y135.816 E23.99230
G1 X110.837 Y135.097 E24.04203
G1 X110.656 Y134.346 E24.09287
G1 X110.543 Y133.632 E24.14040
G1 X110.468 Y132.497 E24.21520
G1 X110.468 Y107.503 E25.85905
G1 X110.482 Y107.142 E25.88284
G1 X110.543 Y106.368 E25.93387
G1 X110.656 Y105.654 E25.98140
G1 X110.837 Y104.903 E26.03223
G1 X111.060 Y104.215 E26.07977
G1 X111.356 Y103.501 E26.13060
G1 X111.684 Y102.857 E26.17814
G1 X112.088 Y102.198 E26.22897
G1 X112.513 Y101.613 E26.27651
G1 X112.985 Y101.060 E26.32438
G1 X113.422 Y101.374 F24000.000
G1 F2100
G1 X113.874 Y100.922 E26.36640
G1 X114.461 Y100.420 E26.41722
G1 X114.978 Y100.044 E26.45924
G1 X115.637 Y99.641 E26.51006
G1 X116.206 Y99.351 E26.55208
G1 X116.920 Y99.055 E26.60291
G1 X117.528 Y98.858 E26.64492
G1 X118.279 Y98.677 E26.69575
G1 X118.910 Y98.577 E26.73776
G1 X119.681 Y98.517 E26.78859
G1 X120.319 Y98.517 E26.83061
G1 X121.090 Y98.577 E26.88143
G1 X121.721 Y98.677 E26.92345
G1 X122.472 Y98.858 E26.97428
G1 X123.080 Y99.055 E27.01629
G1 X123.794 Y99.351 E27.06712
G1 X124.363 Y99.641 E27.10914
G1 X125.022 Y100.044 E27.15996
G1 X125.539 Y100.420 E27.20198
G1 X126.126 Y100.922 E27.25280
G1 X126.578 Y101.374 E27.29482
G1 X127.080 Y101.961 E27.34565
G1 X127.456 Y102.478 E27.38766
G1 X127.859 Y103.137 E27.43849
G1 X128.149 Y103.706 E27.48050
G1 X128.445 Y104.420 E27.53133
G1 X128.642 Y105.028 E27.57335
G1 X128.823 Y105.779 E27.62417
G1 X128.923 Y106.410 E27.66619
G1 X128.996 Y107.503 E27.73822
G1 X128.996 Y132.497 E29.38207
G1 X128.923 Y133.590 E29.45410
G1 X128.823 Y134.221 E29.49612
G1 X128.642 Y134.972 E29.54694
G1 X128.445 Y135.580 E29.58896
G1 X128.149 Y136.294 E29.63979
G1 X127.859 Y136.863 E29.68180
G1 X127.456 Y137.522 E29.73263
G1 X127.080 Y138.039 E29.77465
G1 X126.578 Y138.626 E29.82548
G1 X126.126 Y139.078 E29.86749
G1 X125.539 Y139.580 E29.91833
G1 X125.022 Y139.956 E29.96033
G1 X124.363 Y140.359 E30.01117
G1 X123.794 Y140.649 E30.05317
G1 X123.080 Y140.945 E30.10400
G1 X122.472 Y141.142 E30.14601
G1 X121.721 Y141.323 E30.19684
G1 X121.090 Y141.423 E30.23886
G1 X120.319 Y141.483 E30.28969
G1 X119.681 Y141.483 E30.33170
G1 X118.910 Y141.423 E30.38253
G1 X118.279 Y141.323 E30.42454
G1 X117.528 Y141.142 E30.47537
G1 X116.920 Y140.945 E30.51738
G1 X116.206 Y140.649 E30.56821
G1 X115.637 Y140.359 E30.61023
G1 X114.978 Y139.956 E30.66105
G1 X114.461 Y139.580 E30.70307
G1 X113.874 Y139.078 E30.75390
G1 X113.422 Y138.626 E30.79591
G1 X112.920 Y138.039 E30.84674
G1 X112.544 Y137.522 E30.88876
G1 X112.141 Y136.863 E30.93958
G1 X111.851 Y136.294 E30.98160
G1 X111.568 Y135.611 E31.03023
G1 X111.358 Y134.972 E31.07443
G1 X111.177 Y134.221 E31.12527
G1 X111.077 Y133.590 E31.16728
G1 X111.004 Y132.497 E31.23931
G1 X111.016 Y107.184 E32.90416
G1 X111.077 Y106.410 E32.95519
G1 X111.177 Y105.779 E32.99720
G1 X111.358 Y105.028 E33.04802
G1 X111.555 Y104.420 E33.09004
G1 X111.851 Y103.706 E33.14087
G1 X112.141 Y103.137 E33.18288
G1 X112.545 Y102.478 E33.23371
G1 X112.920 Y101.961 E33.27573
G1 X113.393 Y101.408 E33.32359
G1 X113.829 Y101.721 F24000.000
G1 F2100
G1 X114.221 Y101.329 E33.36008
G1 X114.809 Y100.827 E33.41091
G1 X115.258 Y100.501 E33.44740
G1 X115.917 Y100.097 E33.49822
G1 X116.411 Y99.846 E33.53471
G1 X117.125 Y99.550 E33.58554
G1 X117.653 Y99.378 E33.62203
G1 X118.404 Y99.198 E33.67285
G1 X118.952 Y99.111 E33.70933
G1 X119.723 Y99.051 E33.76017
G1 X120.277 Y99.051 E33.79666
G1 X121.048 Y99.111 E33.84748
G1 X121.596 Y99.198 E33.88397
G1 X122.347 Y99.378 E33.93480
G1 X122.875 Y99.550 E33.97128
G1 X123.589 Y99.846 E34.02211
G1 X124.083 Y100.097 E34.05860
G1 X124.742 Y100.501 E34.10942
G1 X125.191 Y100.827 E34.14591
G1 X125.779 Y101.329 E34.19674
G1 X126.171 Y101.721 E34.23323
G1 X126.673 Y102.309 E34.28405
G1 X126.999 Y102.758 E34.32054
G1 X127.403 Y103.417 E34.37137
G1 X127.654 Y103.911 E34.40786
G1 X127.950 Y104.625 E34.45868
G1 X128.122 Y105.153 E34.49517
G1 X128.302 Y105.904 E34.54600
G1 X128.389 Y106.452 E34.58249
G1 X128.461 Y107.503 E34.65175
G1 X128.461 Y132.497 E36.29560
G1 X128.389 Y133.548 E36.36487
G1 X128.302 Y134.096 E36.40136
G1 X128.122 Y134.847 E36.45218
G1 X127.950 Y135.375 E36.48867
G1 X127.654 Y136.089 E36.53950
G1 X127.403 Y136.583 E36.57599
G1 X126.999 Y137.242 E36.62681
G1 X126.673 Y137.691 E36.66330
G1 X126.171 Y138.279 E36.71413
G1 X125.779 Y138.671 E36.75062
G1 X125.191 Y139.173 E36.80145
G1 X124.742 Y139.499 E36.83793
G1 X124.083 Y139.903 E36.88876
G1 X123.589 Y140.154 E36.92524
G1 X122.875 Y140.450 E36.97607
G1 X122.347 Y140.622 E37.01256
G1 X121.596 Y140.802 E37.06339
G1 X121.048 Y140.889 E37.09987
G1 X120.277 Y140.949 E37.15071
G1 X119.723 Y140.949 E37.18719
G1 X118.952 Y140.889 E37.23802
G1 X118.404 Y140.802 E37.27450
G1 X117.653 Y140.622 E37.32533
G1 X117.125 Y140.450 E37.36182
G1 X116.411 Y140.154 E37.41264
G1 X115.917 Y139.903 E37.44913
G1 X115.258 Y139.499 E37.49996
G1 X114.809 Y139.173 E37.53645
G1 X114.221 Y138.671 E37.58727
G1 X113.829 Y138.279 E37.62376
G1 X113.327 Y137.691 E37.67459
G1 X113.001 Y137.242 E37.71108
G1 X112.597 Y136.583 E37.76190
G1 X112.346 Y136.089 E37.79839
G1 X112.063 Y135.406 E37.84702
G1 X111.878 Y134.847 E37.88570
G1 X111.698 Y134.096 E37.93653
G1 X111.611 Y133.548 E37.97301
G1 X111.539 Y132.497 E38.04228
G1 X111.550 Y107.226 E39.70437
G1 X111.611 Y106.452 E39.75540
G1 X111.698 Y105.904 E39.79188
G1 X111.878 Y105.153 E39.84271
G1 X112.050 Y104.625 E39.87920
G1 X112.346 Y103.911 E39.93002
G1 X112.597 Y103.417 E39.96651
G1 X113.001 Y102.758 E40.01734
G1 X113.327 Y102.309 E40.05382
G1 X113.800 Y101.756 E40.10169
G1 X114.427 Y102.232 F24000.000
G1 F2100
G1 X114.650 Y101.997 E40.12555
G1 X115.402 Y101.355 E40.19840
G1 X115.577 Y101.228 E40.21432
G1 X116.420 Y100.711 E40.28717
G1 X116.612 Y100.613 E40.30309
G1 X117.526 Y100.235 E40.37594
G1 X117.731 Y100.168 E40.39186
G1 X118.693 Y99.937 E40.46471
G1 X118.906 Y99.903 E40.48062
G1 X119.892 Y99.826 E40.55348
G1 X120.108 Y99.826 E40.56940
G1 X121.094 Y99.903 E40.64225
G1 X121.307 Y99.937 E40.65817
G1 X122.269 Y100.168 E40.73102
G1 X122.474 Y100.235 E40.74694
G1 X123.388 Y100.613 E40.81979
G1 X123.580 Y100.711 E40.83570
G1 X124.423 Y101.228 E40.90855
G1 X124.598 Y101.355 E40.92447
G1 X125.350 Y101.997 E40.99732
G1 X125.503 Y102.150 E41.01324
G1 X126.145 Y102.902 E41.08609
G1 X126.272 Y103.077 E41.10201
G1 X126.789 Y103.920 E41.17486
G1 X126.887 Y104.112 E41.19078
G1 X127.265 Y105.026 E41.26363
G1 X127.332 Y105.231 E41.27955
G1 X127.563 Y106.193 E41.35240
G1 X127.597 Y106.406 E41.36832
G1 X127.674 Y107.449 E41.44536
G1 X127.674 Y132.551 E43.29475
G1 X127.597 Y133.594 E43.37179
G1 X127.563 Y133.807 E43.38770
G1 X127.332 Y134.769 E43.46055
G1 X127.265 Y134.974 E43.47647
G1 X126.887 Y135.888 E43.54932
G1 X126.789 Y136.080 E43.56524
G1 X126.272 Y136.923 E43.63809
G1 X126.145 Y137.098 E43.65401
G1 X125.503 Y137.850 E43.72686
G1 X125.350 Y138.003 E43.74278
G1 X124.598 Y138.645 E43.81564
G1 X124.423 Y138.772 E43.83155
G1 X123.580 Y139.289 E43.90440
G1 X123.388 Y139.387 E43.92032
G1 X122.474 Y139.765 E43.99317
G1 X122.269 Y139.832 E44.00909
G1 X121.307 Y140.063 E44.08194
G1 X121.094 Y140.097 E44.09785
G1 X120.108 Y140.174 E44.17071
G1 X119.892 Y140.174 E44.18663
G1 X118.906 Y140.097 E44.25947
G1 X118.693 Y140.063 E44.27539
G1 X117.731 Y139.832 E44.34823
G1 X117.526 Y139.765 E44.36416
G1 X116.612 Y139.387 E44.43701
G1 X116.420 Y139.289 E44.45293
G1 X115.577 Y138.772 E44.52578
G1 X115.402 Y138.645 E44.54170
G1 X114.650 Y138.003 E44.61455
G1 X114.497 Y137.850 E44.63047
G1 X113.947 Y137.206 E44.69291
G1 X113.728 Y136.923 E44.71922
G1 X113.211 Y136.080 E44.79207
G1 X113.113 Y135.888 E44.80799
G1 X112.735 Y134.974 E44.88084
G1 X112.668 Y134.769 E44.89676
G1 X112.437 Y133.807 E44.96961
G1 X112.403 Y133.594 E44.98553
G1 X112.326 Y132.551 E45.06257
G1 X112.330 Y107.341 E46.91990
G1 X112.403 Y106.406 E46.98900
G1 X112.437 Y106.193 E47.00491
G1 X112.668 Y105.231 E47.07776
G1 X112.735 Y105.026 E47.09368
G1 X113.113 Y104.112 E47.16653
G1 X113.211 Y103.920 E47.18245
G1 X113.728 Y103.077 E47.25530
G1 X113.855 Y102.902 E47.27122
G1 X114.398 Y102.266 E47.33279
G1 X114.883 Y102.622 F24000.000
G1 F2100
G1 X115.058 Y102.438 E47.35145
G1 X115.910 Y101.727 E47.43324
G1 X116.864 Y101.159 E47.51503
G1 X117.894 Y100.746 E47.59682
