; generated by Slic3r 1.3.0 on 2024-10-26 at 15:12:03

; Printer Config Notes: 
; No Retraction
; 
; external perimeters extrusion width = 0.33mm (0.80mm^3/s)
; perimeters extrusion width = 0.40mm (2.86mm^3/s)
; infill extrusion width = 0.80mm (9.08mm^3/s)
; solid infill extrusion width = 0.40mm (2.14mm^3/s)
; top infill extrusion width = 0.30mm (0.77mm^3/s)

M107
M190 S55 ; set bed temperature and wait for it to be reached
M104 S205 ; set temperature
G28 ; home all axes
G1 Z5 F5000 ; lift nozzle

; Filament gcode

M109 S205 ; set temperature and wait for it to be reached
G21 ; set units to millimeters
G90 ; use absolute coordinates
M82 ; use absolute distances for extrusion
G92 E0
G1 Z0.300 F24000.000
G1 E-4.00000 F2400.00000
G92 E0
G1 X102.609 Y97.570 F24000.000
G1 E4.00000 F2400.00000
G1 F2100
G1 X103.149 Y97.055 E4.04909
G1 X103.718 Y96.589 E4.09750
G1 X104.328 Y96.159 E4.14657
G1 X104.960 Y95.781 E4.19498
G1 X105.626 Y95.445 E4.24405
G1 X106.306 Y95.164 E4.29244
G1 X107.240 Y94.867 E4.35692
G1 X107.976 Y94.701 E4.40650
G1 X108.955 Y94.569 E4.47147
G1 X109.692 Y94.533 E4.52001
G1 X115.815 Y94.531 E4.92271
G1 X116.690 Y94.570 E4.98035
G1 X117.190 Y94.626 E5.01341
G1 X117.685 Y94.707 E5.04640
G1 X118.424 Y94.876 E5.09625
G1 X119.370 Y95.180 E5.16165
G1 X133.801 Y100.814 E6.18048
G1 X134.320 Y101.051 E6.21804
G1 X135.371 Y101.603 E6.29612
G1 X136.392 Y102.307 E6.37766
G1 X137.280 Y103.094 E6.45574
G1 X138.102 Y104.022 E6.53727
G1 X138.777 Y104.999 E6.61535
G1 X139.353 Y106.097 E6.69688
G1 X139.774 Y107.207 E6.77496
G1 X140.071 Y108.410 E6.85650
G1 X140.214 Y109.594 E6.93488
G1 X140.252 Y110.213 E6.97572
G1 X140.252 Y135.205 E8.61938
G1 X140.219 Y135.780 E8.65731
G1 X140.071 Y137.004 E8.73836
G1 X139.820 Y138.083 E8.81121
G1 X139.356 Y139.315 E8.89780
G1 X138.902 Y140.227 E8.96482
G1 X138.109 Y141.388 E9.05725
G1 X137.514 Y142.103 E9.11847
G1 X136.403 Y143.102 E9.21673
G1 X135.729 Y143.608 E9.27214
G1 X135.343 Y143.832 E9.30148
G1 X134.337 Y144.360 E9.37624
G1 X133.645 Y144.660 E9.42583
G1 X133.133 Y144.815 E9.46100
G1 X132.030 Y145.087 E9.53576
G1 X131.328 Y145.209 E9.58258
G1 X130.862 Y145.241 E9.61332
G1 X120.148 Y145.468 E10.31813
G1 X119.345 Y145.435 E10.37102
G1 X118.548 Y145.322 E10.42392
G1 X117.908 Y145.170 E10.46721
G1 X117.523 Y145.052 E10.49369
G1 X117.013 Y144.863 E10.52946
G1 X116.641 Y144.699 E10.55618
G1 X116.058 Y144.394 E10.59946
G1 X115.594 Y144.106 E10.63538
G1 X115.264 Y143.873 E10.66197
G1 X114.752 Y143.458 E10.70526
G1 X114.457 Y143.185 E10.73175
G1 X114.077 Y142.790 E10.76779
G1 X112.302 Y140.656 E10.95032
G1 X110.634 Y138.445 E11.13249
G1 X109.074 Y136.156 E11.31466
G1 X107.624 Y133.796 E11.49683
G1 X106.289 Y131.369 E11.67900
G1 X104.969 Y128.659 E11.87729
G1 X103.882 Y126.111 E12.05946
G1 X102.998 Y123.747 E12.22551
G1 X102.175 Y121.199 E12.40155
G1 X101.423 Y118.437 E12.58984
G1 X100.827 Y115.732 E12.77201
G1 X100.361 Y113.002 E12.95417
G1 X100.002 Y110.008 E13.15247
G1 X99.810 Y107.245 E13.33464
G1 X99.750 Y104.721 E13.50068
G1 X99.786 Y103.737 E13.56544
G1 X99.877 Y102.997 E13.61452
G1 X100.082 Y102.030 E13.67949
G1 X100.296 Y101.325 E13.72794
G1 X100.662 Y100.409 E13.79284
G1 X100.998 Y99.742 E13.84193
G1 X101.516 Y98.901 E13.90690
G1 X101.955 Y98.310 E13.95531
G1 X102.578 Y97.603 E14.01731
G1 X102.997 Y97.939 F24000.000
G1 F2100
G1 X103.499 Y97.461 E14.06294
G1 X104.048 Y97.011 E14.10962
G1 X104.615 Y96.611 E14.15524
G1 X105.224 Y96.247 E14.20191
G1 X105.843 Y95.935 E14.24753
G1 X106.499 Y95.663 E14.29420
G1 X107.383 Y95.383 E14.35522
G1 X108.067 Y95.229 E14.40134
G1 X108.994 Y95.103 E14.46285
G1 X109.705 Y95.068 E14.50965
G1 X115.815 Y95.067 E14.91150
G1 X116.650 Y95.104 E14.96651
G1 X117.592 Y95.234 E15.02902
G1 X118.279 Y95.391 E15.07536
G1 X119.176 Y95.679 E15.13731
G1 X133.606 Y101.313 E16.15614
G1 X134.071 Y101.525 E16.18979
G1 X135.123 Y102.077 E16.26787
G1 X136.037 Y102.708 E16.34091
G1 X136.925 Y103.495 E16.41899
G1 X137.662 Y104.326 E16.49203
G1 X138.336 Y105.303 E16.57011
G1 X138.852 Y106.287 E16.64315
G1 X139.273 Y107.397 E16.72123
G1 X139.539 Y108.475 E16.79428
G1 X139.682 Y109.658 E16.87265
G1 X139.716 Y110.213 E16.90924
G1 X139.716 Y135.205 E18.55290
G1 X139.687 Y135.721 E18.58688
G1 X139.540 Y136.939 E18.66763
G1 X139.315 Y137.906 E18.73289
G1 X138.855 Y139.125 E18.81857
G1 X138.449 Y139.942 E18.87861
G1 X137.669 Y141.083 E18.96952
G1 X137.135 Y141.724 E19.02436
G1 X136.048 Y142.702 E19.12050
G1 X135.444 Y143.154 E19.17013
G1 X135.095 Y143.357 E19.19674
G1 X134.088 Y143.886 E19.27150
G1 X133.468 Y144.155 E19.31593
G1 X133.005 Y144.295 E19.34775
G1 X131.902 Y144.567 E19.42251
G1 X131.268 Y144.677 E19.46478
G1 X130.851 Y144.705 E19.49232
G1 X120.139 Y144.933 E20.19699
G1 X119.389 Y144.901 E20.24637
G1 X118.645 Y144.795 E20.29575
G1 X118.057 Y144.656 E20.33554
G1 X117.697 Y144.546 E20.36026
G1 X117.213 Y144.365 E20.39427
G1 X116.865 Y144.212 E20.41923
G1 X116.329 Y143.932 E20.45901
G1 X115.889 Y143.659 E20.49306
G1 X115.580 Y143.440 E20.51800
G1 X115.110 Y143.060 E20.55779
G1 X114.834 Y142.804 E20.58251
G1 X114.472 Y142.428 E20.61680
G1 X112.714 Y140.315 E20.79761
G1 X111.063 Y138.123 E20.97810
G1 X109.517 Y135.856 E21.15859
G1 X108.081 Y133.517 E21.33907
G1 X106.759 Y131.112 E21.51957
G1 X105.461 Y128.448 E21.71450
G1 X104.383 Y125.924 E21.89499
G1 X103.499 Y123.559 E22.06103
G1 X102.685 Y121.036 E22.23540
G1 X101.940 Y118.298 E22.42201
G1 X101.350 Y115.618 E22.60250
G1 X100.889 Y112.913 E22.78298
G1 X100.536 Y109.970 E22.97792
G1 X100.345 Y107.232 E23.15841
G1 X100.285 Y104.708 E23.32445
G1 X100.320 Y103.777 E23.38577
G1 X100.405 Y103.088 E23.43140
G1 X100.598 Y102.173 E23.49291
G1 X100.805 Y101.493 E23.53962
G1 X101.152 Y100.626 E23.60108
G1 X101.464 Y100.006 E23.64671
G1 X101.954 Y99.210 E23.70822
G1 X102.377 Y98.640 E23.75490
G1 X102.966 Y97.972 E23.81345
G1 X103.385 Y98.309 F24000.000
G1 F2100
G1 X103.849 Y97.867 E23.85562
G1 X104.377 Y97.433 E23.90057
G1 X104.902 Y97.064 E23.94273
G1 X105.488 Y96.713 E23.98767
G1 X106.060 Y96.424 E24.02984
G1 X106.692 Y96.163 E24.07477
G1 X107.526 Y95.899 E24.13234
G1 X108.159 Y95.757 E24.17500
G1 X109.034 Y95.637 E24.23306
G1 X109.718 Y95.604 E24.27812
G1 X115.815 Y95.602 E24.67911
G1 X116.610 Y95.638 E24.73149
G1 X117.499 Y95.762 E24.79048
G1 X118.134 Y95.907 E24.83332
G1 X118.981 Y96.178 E24.89182
G1 X133.411 Y101.812 E25.91065
G1 X133.822 Y101.999 E25.94038
G1 X134.874 Y102.551 E26.01847
G1 X135.681 Y103.109 E26.08302
G1 X136.570 Y103.896 E26.16110
G1 X137.221 Y104.631 E26.22564
G1 X137.895 Y105.608 E26.30372
G1 X138.351 Y106.477 E26.36827
G1 X138.772 Y107.587 E26.44635
G1 X139.007 Y108.540 E26.51090
G1 X139.151 Y109.723 E26.58928
G1 X139.180 Y110.213 E26.62161
G1 X139.180 Y135.205 E28.26527
G1 X139.155 Y135.661 E28.29530
G1 X139.008 Y136.875 E28.37575
G1 X138.809 Y137.729 E28.43342
G1 X138.355 Y138.935 E28.51819
G1 X137.995 Y139.657 E28.57125
G1 X137.228 Y140.779 E28.66064
G1 X136.756 Y141.345 E28.70910
G1 X135.693 Y142.301 E28.80311
G1 X135.159 Y142.700 E28.84698
G1 X133.839 Y143.411 E28.94559
G1 X133.292 Y143.649 E28.98486
G1 X132.877 Y143.775 E29.01334
G1 X131.773 Y144.047 E29.08809
G1 X131.208 Y144.145 E29.12581
G1 X130.839 Y144.170 E29.15015
G1 X120.129 Y144.397 E29.85468
G1 X119.433 Y144.367 E29.90055
G1 X118.742 Y144.268 E29.94642
G1 X118.206 Y144.141 E29.98270
G1 X117.872 Y144.039 E30.00566
G1 X117.089 Y143.726 E30.06109
G1 X116.601 Y143.470 E30.09736
G1 X116.183 Y143.211 E30.12965
G1 X115.896 Y143.008 E30.15284
G1 X115.467 Y142.661 E30.18911
G1 X114.868 Y142.067 E30.24459
G1 X113.127 Y139.973 E30.42368
G1 X111.491 Y137.802 E30.60249
G1 X109.960 Y135.555 E30.78130
G1 X108.441 Y133.069 E30.97287
G1 X107.140 Y130.683 E31.15168
G1 X105.953 Y128.236 E31.33049
G1 X104.885 Y125.736 E31.50930
G1 X104.001 Y123.371 E31.67534
G1 X103.195 Y120.872 E31.84803
G1 X102.457 Y118.159 E32.03295
G1 X101.874 Y115.504 E32.21177
G1 X101.390 Y112.632 E32.40334
G1 X101.071 Y109.932 E32.58215
G1 X100.881 Y107.220 E32.76096
G1 X100.821 Y104.696 E32.92700
G1 X100.854 Y103.816 E32.98489
G1 X100.933 Y103.180 E33.02706
G1 X101.115 Y102.316 E33.08512
G1 X101.313 Y101.662 E33.13009
G1 X101.642 Y100.843 E33.18810
G1 X101.930 Y100.270 E33.23027
G1 X102.392 Y99.518 E33.28833
G1 X102.799 Y98.969 E33.33327
G1 X103.354 Y98.341 E33.38837
G1 X103.773 Y98.678 F24000.000
G1 F2100
G1 X104.199 Y98.272 E33.42708
G1 X104.707 Y97.855 E33.47030
G1 X105.188 Y97.517 E33.50900
G1 X105.752 Y97.179 E33.55222
G1 X106.277 Y96.914 E33.59092
G1 X106.884 Y96.663 E33.63413
G1 X107.670 Y96.415 E33.68829
G1 X108.251 Y96.285 E33.72745
G1 X109.073 Y96.171 E33.78205
G1 X109.731 Y96.139 E33.82537
G1 X115.815 Y96.138 E34.22551
G1 X116.570 Y96.172 E34.27525
G1 X117.406 Y96.289 E34.33073
G1 X117.989 Y96.422 E34.37005
G1 X118.786 Y96.677 E34.42511
G1 X133.216 Y102.311 E35.44394
G1 X133.573 Y102.474 E35.46976
G1 X134.625 Y103.025 E35.54784
G1 X135.326 Y103.510 E35.60390
G1 X136.215 Y104.297 E35.68198
G1 X136.780 Y104.935 E35.73804
G1 X137.454 Y105.912 E35.81612
G1 X137.850 Y106.667 E35.87217
G1 X138.271 Y107.777 E35.95025
G1 X138.475 Y108.604 E36.00631
G1 X138.619 Y109.787 E36.08469
G1 X138.645 Y110.213 E36.11277
G1 X138.645 Y135.205 E37.75643
G1 X138.623 Y135.601 E37.78251
G1 X138.476 Y136.810 E37.86265
G1 X138.304 Y137.552 E37.91274
G1 X137.854 Y138.745 E37.99659
G1 X137.542 Y139.372 E38.04267
G1 X136.787 Y140.475 E38.13054
G1 X136.377 Y140.966 E38.17263
G1 X135.338 Y141.900 E38.26451
G1 X134.874 Y142.247 E38.30260
G1 X133.590 Y142.937 E38.39848
G1 X133.115 Y143.144 E38.43258
G1 X132.749 Y143.255 E38.45772
G1 X131.645 Y143.527 E38.53248
G1 X131.149 Y143.613 E38.56564
G1 X130.828 Y143.634 E38.58677
G1 X120.120 Y143.861 E39.29118
G1 X119.477 Y143.833 E39.33353
G1 X118.839 Y143.741 E39.37589
G1 X118.046 Y143.533 E39.42983
G1 X117.608 Y143.370 E39.46058
G1 X117.155 Y143.161 E39.49336
G1 X116.473 Y142.761 E39.54537
G1 X116.072 Y142.467 E39.57808
G1 X115.715 Y142.164 E39.60888
G1 X115.150 Y141.576 E39.66253
G1 X113.539 Y139.631 E39.82857
G1 X111.919 Y137.480 E40.00570
G1 X110.403 Y135.254 E40.18283
G1 X108.911 Y132.812 E40.37104
G1 X107.621 Y130.448 E40.54817
G1 X106.446 Y128.025 E40.72530
G1 X105.387 Y125.549 E40.90243
G1 X104.503 Y123.184 E41.06848
G1 X103.705 Y120.709 E41.23948
G1 X102.975 Y118.020 E41.42273
G1 X102.397 Y115.390 E41.59986
G1 X101.945 Y112.735 E41.77698
G1 X101.605 Y109.893 E41.96520
G1 X101.416 Y107.207 E42.14233
G1 X101.356 Y104.683 E42.30837
G1 X101.388 Y103.856 E42.36283
G1 X101.461 Y103.271 E42.40154
G1 X101.631 Y102.459 E42.45614
G1 X101.822 Y101.830 E42.49938
G1 X102.131 Y101.060 E42.55394
G1 X102.396 Y100.534 E42.59266
G1 X102.830 Y99.827 E42.64725
G1 X103.221 Y99.299 E42.69047
G1 X103.742 Y98.711 E42.74211
G1 E38.74211 F2400.00000
G92 E0
G1 X123.413 Y105.741 F24000.000
G1 E4.00000 F2400.00000
G1 F2100
G1 X123.871 Y105.910 E4.03597
G1 X124.330 Y105.245 E4.09552
G1 X124.551 Y104.996 E4.12003
G1 X125.688 Y103.988 E4.23200
G1 X125.962 Y103.799 E4.25650
G1 X127.308 Y103.093 E4.36847
G1 X127.619 Y102.975 E4.39298
G1 X129.094 Y102.611 E4.50495
G1 X129.424 Y102.571 E4.52945
G1 X130.944 Y102.571 E4.64142
G1 X131.274 Y102.611 E4.66592
G1 X132.750 Y102.975 E4.77789
G1 X133.061 Y103.093 E4.80239
G1 X133.253 Y103.194 E4.81842
G1 X134.407 Y103.799 E4.91437
G1 X134.680 Y103.988 E4.93887
G1 X135.818 Y104.996 E5.05084
G1 X136.038 Y105.245 E5.07534
G1 X136.902 Y106.495 E5.18731
G1 X137.056 Y106.790 E5.21182
G1 X137.595 Y108.211 E5.32379
G1 X137.675 Y108.534 E5.34829
G1 X137.859 Y110.130 E5.46669
G1 X137.859 Y135.282 E7.31971
G1 X137.678 Y136.863 E7.43696
G1 X137.611 Y137.152 E7.45884
G1 X137.528 Y137.387 E7.47716
G1 X137.070 Y138.594 E7.57227
G1 X136.949 Y138.838 E7.59239
G1 X136.069 Y140.131 E7.70757
G1 X135.910 Y140.322 E7.72593
G1 X135.698 Y140.530 E7.74775
G1 X134.732 Y141.386 E7.84287
G1 X134.552 Y141.521 E7.85948
G1 X134.279 Y141.688 E7.88304
G1 X133.135 Y142.288 E7.97816
G1 X132.624 Y142.476 E8.01830
G1 X131.371 Y142.785 E8.11340
G1 X130.830 Y142.849 E8.15354
G1 X129.385 Y142.840 E8.26000
G1 X128.998 Y142.785 E8.28880
G1 X127.619 Y142.439 E8.39351
G1 X127.233 Y142.288 E8.42406
G1 X125.997 Y141.635 E8.52704
G1 X125.636 Y141.386 E8.55932
G1 X124.916 Y140.748 E8.63019
G1 X124.644 Y140.774 E8.65037
G1 X124.284 Y141.213 E8.69221
G1 X123.721 Y141.754 E8.74969
G1 X123.213 Y142.133 E8.79639
G1 X122.726 Y142.421 E8.83810
G1 X122.213 Y142.660 E8.87975
G1 X121.680 Y142.846 E8.92140
G1 X121.129 Y142.978 E8.96309
G1 X120.569 Y143.055 E9.00476
G1 X120.004 Y143.075 E9.04640
G1 X119.264 Y143.016 E9.10111
G1 X118.673 Y142.899 E9.14554
G1 X118.131 Y142.731 E9.18730
G1 X117.549 Y142.480 E9.23396
G1 X117.056 Y142.203 E9.27564
G1 X116.593 Y141.878 E9.31732
G1 X116.165 Y141.509 E9.35901
G1 X115.777 Y141.100 E9.40051
G1 X114.124 Y139.105 E9.59140
G1 X112.490 Y136.929 E9.79189
G1 X111.036 Y134.785 E9.98272
G1 X109.649 Y132.520 E10.17838
G1 X108.342 Y130.133 E10.37887
G1 X107.181 Y127.745 E10.57453
G1 X106.135 Y125.304 E10.77019
G1 X105.228 Y122.878 E10.96102
G1 X104.397 Y120.286 E11.16151
G1 X103.725 Y117.785 E11.35234
G1 X103.158 Y115.190 E11.54800
G1 X102.547 Y111.576 E11.81805
G1 X102.581 Y111.464 E11.82665
G1 X102.392 Y109.870 E11.94495
G1 X102.203 Y107.221 E12.14061
G1 X102.141 Y104.631 E12.33147
G1 X102.175 Y103.880 E12.38687
G1 X102.282 Y103.135 E12.44232
G1 X102.462 Y102.403 E12.49785
G1 X102.738 Y101.631 E12.55827
G1 X102.893 Y101.287 E12.58604
G1 X103.216 Y100.682 E12.63656
G1 X103.672 Y100.000 E12.69701
G1 X103.905 Y99.704 E12.72476
G1 X104.365 Y99.196 E12.77527
G1 X104.973 Y98.645 E12.83573
G1 X105.305 Y98.391 E12.86650
G1 X105.841 Y98.033 E12.91400
G1 X106.565 Y97.647 E12.97445
G1 X107.199 Y97.384 E13.02498
G1 X107.919 Y97.162 E13.08049
G1 X108.616 Y97.019 E13.13293
G1 X109.097 Y96.958 E13.16867
G1 X109.800 Y96.924 E13.22051
G1 X115.832 Y96.924 E13.66491
G1 X116.614 Y96.966 E13.72261
G1 X117.370 Y97.083 E13.77898
G1 X117.743 Y97.170 E13.80717
G1 X118.408 Y97.375 E13.85848
G1 X119.115 Y97.669 E13.91486
G1 X119.516 Y97.875 E13.94810
G1 X120.167 Y98.277 E14.00446
G1 X120.722 Y98.698 E14.05578
G1 X121.061 Y98.996 E14.08902
G1 X121.547 Y99.495 E14.14035
G1 X121.837 Y99.841 E14.17360
G1 X122.281 Y100.464 E14.22996
G1 X122.629 Y101.067 E14.28130
G1 X122.825 Y101.473 E14.31452
G1 X123.080 Y102.122 E14.36585
G1 X123.280 Y102.817 E14.41913
G1 X123.379 Y103.300 E14.45545
G1 X123.466 Y103.991 E14.50676
G1 X123.489 Y104.441 E14.54001
G1 X123.471 Y105.138 E14.59132
G1 X123.417 Y105.697 E14.63270
G1 E10.63270 F2400.00000
G92 E0
G1 X123.676 Y105.732 F24000.000
G1 X122.932 Y107.644 F24000.000
G1 X122.172 Y108.905 F24000.000
G1 E4.00000 F2400.00000
G1 F2100
G1 X122.627 Y109.082 E4.03601
G1 X122.510 Y110.130 E4.11368
G1 X122.510 Y130.663 E5.62644
G1 X122.080 Y130.807 E5.65986
G1 X121.799 Y130.435 E5.69421
G1 X120.638 Y128.734 E5.84588
G1 X119.550 Y126.969 E5.99864
G1 X118.553 Y125.168 E6.15032
G1 X117.637 Y123.316 E6.30253
G1 X116.808 Y121.424 E6.45475
G1 X116.069 Y119.495 E6.60697
G1 X115.418 Y117.526 E6.75973
G1 X114.862 Y115.536 E6.91194
G1 X114.400 Y113.530 E7.06362
G1 X114.213 Y112.499 E7.14081
G1 X114.402 Y112.273 E7.16252
G1 X116.233 Y112.262 E7.29741
G1 X116.614 Y112.231 E7.32560
G1 X117.303 Y112.128 E7.37691
G1 X118.045 Y111.942 E7.43329
G1 X118.828 Y111.657 E7.49469
G1 X119.456 Y111.355 E7.54602
G1 X119.846 Y111.129 E7.57924
G1 X120.167 Y110.920 E7.60746
G1 X120.722 Y110.500 E7.65877
G1 X121.061 Y110.201 E7.69201
G1 X121.547 Y109.702 E7.74333
G1 X121.837 Y109.357 E7.77658
G1 X122.145 Y108.941 E7.81468
G1 E3.81468 F2400.00000
G92 E0
G1 X122.545 Y108.439 F24000.000
G1 X121.688 Y110.761 F24000.000
G1 X120.271 Y113.446 F24000.000
G1 X118.781 Y115.579 F24000.000
G1 X119.556 Y120.288 F24000.000
G1 X120.893 Y126.006 F24000.000
G1 X122.835 Y132.295 F24000.000
G1 X123.110 Y132.457 F24000.000
G1 E4.00000 F2400.00000
G1 F2100
G1 X123.110 Y110.148 E5.64356
G1 X123.285 Y108.642 E5.75528
G1 X123.347 Y108.390 E5.77443
G1 X123.860 Y107.037 E5.88106
G1 X123.981 Y106.806 E5.90021
G1 X124.803 Y105.615 E6.00683
G1 X124.976 Y105.421 E6.02599
G1 X126.059 Y104.461 E6.13261
