; generated by Slic3r 1.3.0 on 2024-10-27 at 16:06:46

; Print Config Notes: 
; Cubic Infill Pattern 20 % density
; 
; Printer Config Notes: 
; No Retraction
; 
; external perimeters extrusion width = 0.33mm (2.01mm^3/s)
; perimeters extrusion width = 0.40mm (7.14mm^3/s)
; infill extrusion width = 0.80mm (18.17mm^3/s)
; solid infill extrusion width = 0.40mm (4.28mm^3/s)
; top infill extrusion width = 0.30mm (1.54mm^3/s)

M107
M190 S55 ; set bed temperature and wait for it to be reached
M104 S205 ; set temperature
G28 ; home all axes
G1 Z5 F5000 ; lift nozzle

; Filament gcode

M109 S205 ; set temperature and wait for it to be reached
G21 ; set units to millimeters
G90 ; use absolute coordinates
M82 ; use absolute distances for extrusion
G92 E0
G1 Z0.300 F24000.000
G1 E-4.00000 F2400.00000
G92 E0
G1 X82.913 Y82.462 F24000.000
G1 E4.00000 F2400.00000
G1 F2100
G1 X83.726 Y81.813 E4.06840
G1 X84.280 Y81.464 E4.11147
G1 X85.210 Y81.017 E4.17931
G1 X85.828 Y80.800 E4.22239
G1 X86.833 Y80.571 E4.29023
G1 X87.489 Y80.497 E4.33360
G1 X88.004 Y80.468 E4.36756
G1 X151.996 Y80.468 E8.57624
G1 X152.512 Y80.497 E8.61022
G1 X153.167 Y80.571 E8.65359
G1 X154.172 Y80.800 E8.72138
G1 X154.790 Y81.017 E8.76449
G1 X155.719 Y81.464 E8.83231
G1 X156.274 Y81.813 E8.87541
G1 X157.081 Y82.456 E8.94326
G1 X157.544 Y82.919 E8.98636
G1 X158.187 Y83.726 E9.05418
G1 X158.536 Y84.280 E9.09725
G1 X158.983 Y85.210 E9.16510
G1 X159.200 Y85.829 E9.20825
G1 X159.429 Y86.833 E9.27602
G1 X159.503 Y87.488 E9.31937
G1 X159.532 Y88.004 E9.35335
G1 X159.532 Y151.996 E13.56203
G1 X159.503 Y152.512 E13.59601
G1 X159.429 Y153.167 E13.63936
G1 X159.200 Y154.171 E13.70714
G1 X158.983 Y154.790 E13.75028
G1 X158.536 Y155.720 E13.81812
G1 X158.187 Y156.274 E13.86119
G1 X157.544 Y157.081 E13.92905
G1 X157.081 Y157.544 E13.97212
G1 X156.274 Y158.187 E14.03996
G1 X155.727 Y158.531 E14.08251
G1 X154.791 Y158.983 E14.15088
G1 X154.172 Y159.200 E14.19400
G1 X153.167 Y159.429 E14.26180
G1 X152.512 Y159.503 E14.30515
G1 X151.996 Y159.532 E14.33913
G1 X88.004 Y159.532 E18.54781
G1 X87.488 Y159.503 E18.58179
G1 X86.833 Y159.429 E18.62514
G1 X85.828 Y159.200 E18.69296
G1 X85.210 Y158.983 E18.73606
G1 X84.280 Y158.536 E18.80391
G1 X83.725 Y158.187 E18.84700
G1 X82.920 Y157.545 E18.91478
G1 X82.456 Y157.081 E18.95790
G1 X81.813 Y156.274 E19.02575
G1 X81.464 Y155.719 E19.06886
G1 X81.017 Y154.790 E19.13667
G1 X80.800 Y154.172 E19.17976
G1 X80.571 Y153.167 E19.24757
G1 X80.497 Y152.512 E19.29094
G1 X80.468 Y151.996 E19.32491
G1 X80.468 Y88.004 E23.53360
G1 X80.497 Y87.488 E23.56757
G1 X80.571 Y86.833 E23.61093
G1 X80.800 Y85.828 E23.67877
G1 X81.017 Y85.210 E23.72184
G1 X81.464 Y84.280 E23.78968
G1 X81.813 Y83.726 E23.83277
G1 X82.456 Y82.919 E23.90061
G1 X82.881 Y82.494 E23.94017
G1 X83.292 Y82.841 F24000.000
G1 F2100
G1 X84.011 Y82.266 E24.00068
G1 X84.565 Y81.918 E24.04375
G1 X85.386 Y81.522 E24.10371
G1 X86.005 Y81.306 E24.14679
G1 X86.893 Y81.103 E24.20674
G1 X87.549 Y81.029 E24.25011
G1 X88.004 Y81.004 E24.28012
G1 X151.996 Y81.004 E28.48880
G1 X152.452 Y81.029 E28.51883
G1 X153.107 Y81.103 E28.56220
G1 X153.995 Y81.306 E28.62210
G1 X154.614 Y81.522 E28.66521
G1 X155.435 Y81.918 E28.72514
G1 X155.989 Y82.266 E28.76824
G1 X156.702 Y82.835 E28.82820
G1 X157.166 Y83.298 E28.87130
G1 X157.734 Y84.011 E28.93123
G1 X158.082 Y84.565 E28.97431
G1 X158.478 Y85.386 E29.03426
G1 X158.694 Y86.006 E29.07740
G1 X158.897 Y86.893 E29.13730
G1 X158.971 Y87.548 E29.18065
G1 X158.996 Y88.004 E29.21067
G1 X158.996 Y151.996 E33.41936
G1 X158.971 Y152.452 E33.44938
G1 X158.897 Y153.107 E33.49273
G1 X158.694 Y153.995 E33.55263
G1 X158.478 Y154.614 E33.59577
G1 X158.082 Y155.435 E33.65572
G1 X157.734 Y155.989 E33.69879
G1 X157.165 Y156.702 E33.75876
G1 X156.702 Y157.165 E33.80183
G1 X155.989 Y157.734 E33.86178
G1 X155.442 Y158.078 E33.90433
G1 X154.614 Y158.478 E33.96481
G1 X153.995 Y158.694 E34.00792
G1 X153.107 Y158.897 E34.06785
G1 X152.452 Y158.971 E34.11120
G1 X151.996 Y158.996 E34.14122
G1 X88.004 Y158.996 E38.34991
G1 X87.548 Y158.971 E38.37993
G1 X86.893 Y158.897 E38.42328
G1 X86.005 Y158.694 E38.48322
G1 X85.386 Y158.478 E38.52632
G1 X84.565 Y158.082 E38.58628
G1 X84.010 Y157.734 E38.62936
G1 X83.298 Y157.166 E38.68926
G1 X82.835 Y156.702 E38.73238
G1 X82.266 Y155.989 E38.79234
G1 X81.918 Y155.434 E38.83545
G1 X81.522 Y154.614 E38.89537
G1 X81.306 Y153.995 E38.93846
G1 X81.103 Y153.107 E38.99839
G1 X81.029 Y152.452 E39.04175
G1 X81.004 Y151.996 E39.07178
G1 X81.004 Y88.004 E43.28046
G1 X81.029 Y87.548 E43.31049
G1 X81.103 Y86.893 E43.35384
G1 X81.306 Y86.005 E43.41380
G1 X81.522 Y85.386 E43.45687
G1 X81.918 Y84.565 E43.51682
G1 X82.266 Y84.011 E43.55990
G1 X82.835 Y83.298 E43.61986
G1 X83.260 Y82.872 E43.65942
G1 X83.671 Y83.219 F24000.000
G1 F2100
G1 X84.296 Y82.720 E43.71204
G1 X84.850 Y82.371 E43.75511
G1 X85.563 Y82.028 E43.80718
G1 X86.182 Y81.812 E43.85026
G1 X86.953 Y81.635 E43.90233
G1 X87.609 Y81.562 E43.94569
G1 X88.004 Y81.539 E43.97175
G1 X151.996 Y81.539 E48.18044
G1 X152.392 Y81.562 E48.20651
G1 X153.047 Y81.635 E48.24988
G1 X153.818 Y81.811 E48.30190
G1 X154.437 Y82.028 E48.34501
G1 X155.150 Y82.371 E48.39705
G1 X155.704 Y82.720 E48.44015
G1 X156.323 Y83.213 E48.49222
G1 X156.787 Y83.677 E48.53531
G1 X157.280 Y84.296 E48.58736
G1 X157.629 Y84.850 E48.63044
G1 X157.972 Y85.563 E48.68250
G1 X158.189 Y86.182 E48.72563
G1 X158.365 Y86.953 E48.77765
G1 X158.438 Y87.608 E48.82100
G1 X158.461 Y88.004 E48.84708
G1 X158.461 Y151.996 E53.05576
G1 X158.438 Y152.392 E53.08184
G1 X158.365 Y153.047 E53.12519
G1 X158.189 Y153.818 E53.17720
G1 X157.972 Y154.437 E53.22033
G1 X157.629 Y155.150 E53.27240
G1 X157.280 Y155.704 E53.31547
G1 X156.787 Y156.324 E53.36754
G1 X156.323 Y156.787 E53.41062
G1 X155.705 Y157.280 E53.46268
G1 X155.157 Y157.624 E53.50520
G1 X154.437 Y157.972 E53.55782
G1 X153.818 Y158.189 E53.60093
G1 X153.047 Y158.365 E53.65297
G1 X152.392 Y158.438 E53.69632
G1 X151.996 Y158.461 E53.72239
G1 X88.004 Y158.461 E57.93108
G1 X87.608 Y158.438 E57.95715
G1 X86.953 Y158.365 E58.00050
G1 X86.182 Y158.189 E58.05255
G1 X85.563 Y157.972 E58.09565
G1 X84.850 Y157.629 E58.14772
G1 X84.295 Y157.280 E58.19080
G1 X83.677 Y156.787 E58.24282
G1 X83.213 Y156.323 E58.28593
G1 X82.720 Y155.704 E58.33800
G1 X82.371 Y155.150 E58.38111
G1 X82.028 Y154.437 E58.43315
G1 X81.811 Y153.818 E58.47624
G1 X81.635 Y153.047 E58.52828
G1 X81.562 Y152.392 E58.57164
G1 X81.539 Y151.996 E58.59772
G1 X81.539 Y88.004 E62.80640
G1 X81.562 Y87.608 E62.83248
G1 X81.635 Y86.953 E62.87583
G1 X81.812 Y86.182 E62.92790
G1 X82.028 Y85.563 E62.97097
G1 X82.371 Y84.850 E63.02303
G1 X82.720 Y84.296 E63.06611
G1 X83.213 Y83.677 E63.11818
G1 X83.639 Y83.251 E63.15775
G1 X84.227 Y83.775 F24000.000
G1 F2100
G1 X84.583 Y83.468 E63.19245
G1 X85.399 Y82.955 E63.26344
G1 X85.677 Y82.821 E63.28619
G1 X86.587 Y82.503 E63.35719
G1 X86.888 Y82.434 E63.37994
G1 X87.927 Y82.326 E63.45691
G1 X152.073 Y82.326 E68.18284
G1 X153.112 Y82.434 E68.25981
G1 X153.413 Y82.503 E68.28254
G1 X154.323 Y82.821 E68.35355
G1 X154.601 Y82.955 E68.37629
G1 X155.417 Y83.468 E68.44731
G1 X155.658 Y83.660 E68.47006
G1 X156.340 Y84.342 E68.54107
G1 X156.532 Y84.583 E68.56382
G1 X157.045 Y85.399 E68.63481
G1 X157.179 Y85.677 E68.65756
G1 X157.497 Y86.587 E68.72860
G1 X157.566 Y86.888 E68.75132
G1 X157.674 Y87.927 E68.82828
G1 X157.674 Y152.073 E73.55421
G1 X157.566 Y153.112 E73.63117
G1 X157.497 Y153.413 E73.65390
G1 X157.179 Y154.323 E73.72493
G1 X157.045 Y154.601 E73.74768
G1 X156.533 Y155.417 E73.81864
G1 X156.340 Y155.658 E73.84143
G1 X155.658 Y156.340 E73.91243
G1 X155.417 Y156.532 E73.93518
G1 X154.739 Y156.959 E73.99420
G1 X154.323 Y157.179 E74.02888
G1 X153.413 Y157.497 E74.09991
G1 X153.112 Y157.566 E74.12265
G1 X152.073 Y157.674 E74.19960
G1 X87.927 Y157.674 E78.92553
G1 X86.888 Y157.566 E79.00249
G1 X86.587 Y157.497 E79.02523
G1 X85.677 Y157.179 E79.09625
G1 X85.399 Y157.045 E79.11900
G1 X84.583 Y156.532 E79.19000
G1 X84.342 Y156.340 E79.21273
G1 X83.660 Y155.658 E79.28375
G1 X83.468 Y155.417 E79.30650
G1 X83.042 Y154.739 E79.36552
G1 X82.821 Y154.323 E79.40021
G1 X82.503 Y153.413 E79.47121
G1 X82.434 Y153.112 E79.49395
G1 X82.326 Y152.073 E79.57092
G1 X82.326 Y87.927 E84.29685
G1 X82.434 Y86.888 E84.37382
G1 X82.503 Y86.587 E84.39658
G1 X82.821 Y85.677 E84.46757
G1 X82.955 Y85.399 E84.49031
G1 X83.468 Y84.583 E84.56132
G1 X83.660 Y84.342 E84.58407
G1 X84.195 Y83.807 E84.63977
G1 X84.651 Y84.200 F24000.000
G1 F2100
G1 X84.931 Y83.958 E84.66703
G1 X85.690 Y83.481 E84.73306
G1 X85.907 Y83.376 E84.75084
G1 X86.753 Y83.080 E84.81688
G1 X86.989 Y83.026 E84.83466
G1 X87.944 Y82.926 E84.90544
G1 X152.056 Y82.926 E89.62888
G1 X153.011 Y83.026 E89.69965
G1 X153.247 Y83.080 E89.71742
G1 X154.093 Y83.376 E89.78347
G1 X154.310 Y83.481 E89.80124
G1 X155.069 Y83.958 E89.86729
G1 X155.258 Y84.108 E89.88508
G1 X155.892 Y84.742 E89.95112
G1 X156.042 Y84.931 E89.96891
G1 X156.519 Y85.690 E90.03493
G1 X156.624 Y85.907 E90.05272
G1 X156.920 Y86.754 E90.11878
G1 X156.974 Y86.989 E90.13655
G1 X157.074 Y87.944 E90.20731
G1 X157.074 Y152.056 E94.93076
G1 X156.974 Y153.011 E95.00152
G1 X156.920 Y153.246 E95.01929
G1 X156.624 Y154.093 E95.08535
G1 X156.519 Y154.310 E95.10313
G1 X156.042 Y155.069 E95.16914
G1 X155.892 Y155.258 E95.18695
G1 X155.258 Y155.892 E95.25299
G1 X155.069 Y156.042 E95.27077
G1 X154.419 Y156.450 E95.32730
G1 X154.093 Y156.624 E95.35456
G1 X153.246 Y156.920 E95.42061
G1 X153.011 Y156.974 E95.43839
G1 X152.056 Y157.074 E95.50915
G1 X87.944 Y157.074 E100.23259
G1 X86.989 Y156.974 E100.30336
G1 X86.753 Y156.920 E100.32114
G1 X85.907 Y156.624 E100.38718
G1 X85.690 Y156.519 E100.40497
G1 X84.931 Y156.042 E100.47100
G1 X84.742 Y155.892 E100.48877
G1 X84.108 Y155.258 E100.55482
G1 X83.958 Y155.069 E100.57261
G1 X83.550 Y154.419 E100.62914
G1 X83.376 Y154.093 E100.65640
G1 X83.080 Y153.247 E100.72243
G1 X83.026 Y153.011 E100.74021
G1 X82.926 Y152.056 E100.81098
G1 X82.926 Y87.944 E105.53443
G1 X83.026 Y86.989 E105.60520
G1 X83.080 Y86.753 E105.62299
G1 X83.376 Y85.907 E105.68902
G1 X83.481 Y85.690 E105.70680
G1 X83.958 Y84.931 E105.77284
G1 X84.108 Y84.742 E105.79063
G1 X84.619 Y84.231 E105.84384
G1 X85.075 Y84.624 F24000.000
G1 F2100
G1 X85.279 Y84.448 E105.86366
G1 X85.980 Y84.007 E105.92472
G1 X86.137 Y83.931 E105.93755
G1 X86.920 Y83.658 E105.99862
G1 X87.089 Y83.619 E106.01144
G1 X87.961 Y83.526 E106.07601
G1 X152.039 Y83.526 E110.79697
G1 X152.911 Y83.619 E110.86154
G1 X153.080 Y83.658 E110.87435
G1 X153.863 Y83.931 E110.93543
G1 X154.019 Y84.007 E110.94824
G1 X154.721 Y84.448 E111.00932
G1 X154.857 Y84.556 E111.02214
G1 X155.444 Y85.143 E111.08322
G1 X155.552 Y85.279 E111.09604
G1 X155.993 Y85.980 E111.15710
G1 X156.069 Y86.137 E111.16992
G1 X156.342 Y86.920 E111.23102
G1 X156.381 Y87.089 E111.24382
G1 X156.474 Y87.961 E111.30839
G1 X156.474 Y152.039 E116.02935
G1 X156.381 Y152.911 E116.09392
G1 X156.342 Y153.080 E116.10672
G1 X156.069 Y153.863 E116.16781
G1 X155.993 Y154.020 E116.18063
G1 X155.552 Y154.721 E116.24168
G1 X155.444 Y154.857 E116.25452
G1 X154.857 Y155.444 E116.31559
G1 X154.721 Y155.552 E116.32841
G1 X154.100 Y155.942 E116.38246
G1 X153.863 Y156.069 E116.40228
G1 X153.080 Y156.342 E116.46336
G1 X152.911 Y156.381 E116.47618
G1 X152.039 Y156.474 E116.54074
G1 X87.961 Y156.474 E121.26170
G1 X87.089 Y156.381 E121.32627
G1 X86.920 Y156.342 E121.33908
G1 X86.137 Y156.069 E121.40016
G1 X85.980 Y155.993 E121.41299
G1 X85.279 Y155.552 E121.47406
G1 X85.143 Y155.444 E121.48686
G1 X84.556 Y154.857 E121.54794
G1 X84.448 Y154.721 E121.56077
G1 X84.058 Y154.100 E121.61481
G1 X83.931 Y153.863 E121.63463
G1 X83.658 Y153.080 E121.69570
G1 X83.619 Y152.911 E121.70852
G1 X83.526 Y152.039 E121.77309
G1 X83.526 Y87.961 E126.49405
G1 X83.619 Y87.089 E126.55862
G1 X83.658 Y86.920 E126.57145
G1 X83.931 Y86.137 E126.63251
G1 X84.007 Y85.981 E126.64533
G1 X84.448 Y85.279 E126.70641
G1 X84.556 Y85.143 E126.71923
G1 X85.043 Y84.656 E126.76996
G1 X85.499 Y85.048 F24000.000
G1 F2100
G1 X85.626 Y84.938 E126.78234
G1 X86.367 Y84.487 E126.84625
G1 X87.190 Y84.211 E126.91017
G1 X87.978 Y84.126 E126.96854
G1 X152.022 Y84.126 E131.68702
G1 X152.810 Y84.211 E131.74540
G1 X153.633 Y84.487 E131.80931
G1 X154.374 Y84.938 E131.87323
G1 X154.996 Y85.543 E131.93715
G1 X155.513 Y86.367 E132.00886
G1 X155.789 Y87.190 E132.07279
G1 X155.874 Y87.978 E132.13115
G1 X155.874 Y152.022 E136.84964
G1 X155.789 Y152.810 E136.90800
G1 X155.513 Y153.633 E136.97193
G1 X155.062 Y154.374 E137.03583
G1 X154.457 Y154.995 E137.09976
G1 X153.633 Y155.513 E137.17148
G1 X152.810 Y155.789 E137.23540
G1 X152.022 Y155.874 E137.29377
G1 X87.978 Y155.874 E142.01225
G1 X87.190 Y155.789 E142.07062
G1 X86.367 Y155.513 E142.13454
G1 X85.626 Y155.062 E142.19846
G1 X85.005 Y154.457 E142.26237
G1 X84.487 Y153.633 E142.33409
G1 X84.211 Y152.810 E142.39801
G1 X84.126 Y152.022 E142.45638
G1 X84.126 Y87.978 E147.17486
G1 X84.211 Y87.190 E147.23323
G1 X84.487 Y86.367 E147.29715
G1 X84.938 Y85.626 E147.36107
G1 X85.468 Y85.080 E147.41713
G1 X85.924 Y85.472 F24000.000
G1 F2100
G1 X86.597 Y85.042 E147.47602
G1 X87.291 Y84.804 E147.53004
G1 X87.994 Y84.726 E147.58221
G1 X152.006 Y84.726 E152.29821
G1 X152.709 Y84.804 E152.35038
G1 X153.403 Y85.042 E152.40439
G1 X154.026 Y85.428 E152.45841
G1 X154.547 Y85.943 E152.51242
G1 X154.958 Y86.597 E152.56931
G1 X155.196 Y87.291 E152.62332
G1 X155.274 Y87.994 E152.67549
G1 X155.274 Y152.006 E157.39150
G1 X155.196 Y152.709 E157.44367
G1 X154.958 Y153.403 E157.49768
G1 X154.572 Y154.026 E157.55169
G1 X154.057 Y154.547 E157.60571
G1 X153.403 Y154.958 E157.66259
G1 X152.709 Y155.196 E157.71661
G1 X152.006 Y155.274 E157.76878
G1 X87.994 Y155.274 E162.48478
G1 X87.291 Y155.196 E162.53695
G1 X86.597 Y154.958 E162.59096
G1 X85.974 Y154.572 E162.64498
G1 X85.453 Y154.057 E162.69899
G1 X85.042 Y153.403 E162.75588
G1 X84.804 Y152.709 E162.80989
G1 X84.726 Y152.006 E162.86206
G1 X84.726 Y87.994 E167.57806
G1 X84.804 Y87.291 E167.63024
G1 X85.042 Y86.597 E167.68425
G1 X85.428 Y85.974 E167.73826
G1 X85.892 Y85.504 E167.78690
G1 E163.78690 F2400.00000
G92 E0
G1 X154.050 Y153.635 F24000.000
G1 E4.00000 F2400.00000
G1 F2100
G1 X153.635 Y154.050 E4.03862
G1 X153.138 Y154.363 E4.07725
G1 X152.584 Y154.557 E4.11587
G1 X151.979 Y154.625 E4.15589
G1 X88.021 Y154.625 E8.36236
G1 X87.416 Y154.557 E8.40238
G1 X86.862 Y154.363 E8.44100
G1 X86.365 Y154.050 E8.47963
G1 X85.950 Y153.635 E8.51826
G1 X85.637 Y153.138 E8.55688
G1 X85.443 Y152.584 E8.59551
G1 X85.375 Y151.979 E8.63552
G1 X85.375 Y88.021 E12.84199
G1 X85.443 Y87.416 E12.88201
G1 X85.637 Y86.862 E12.92064
G1 X85.950 Y86.365 E12.95926
G1 X86.365 Y85.950 E12.99789
G1 X86.862 Y85.637 E13.03651
G1 X87.416 Y85.443 E13.07514
G1 X88.021 Y85.375 E13.11515
G1 X151.979 Y85.375 E17.32162
G1 X152.576 Y85.442 E17.36112
G1 X153.138 Y85.637 E17.40028
G1 X153.635 Y85.950 E17.43888
G1 X154.050 Y86.365 E17.47750
G1 X154.363 Y86.862 E17.51613
G1 X154.557 Y87.416 E17.55475
G1 X154.625 Y88.021 E17.59477
G1 X154.625 Y151.979 E21.80124
G1 X154.557 Y152.584 E21.84126
G1 X154.363 Y153.138 E21.87988
G1 X154.074 Y153.597 E21.91555
G1 X154.050 Y153.635 F24000.000
G1 X153.629 Y153.299 F24000.000
G1 F2100
G1 X153.299 Y153.629 E21.94623
G1 X152.904 Y153.877 E21.97692
G1 X152.464 Y154.031 E22.00761
G1 X151.949 Y154.089 E22.04168
G1 X88.051 Y154.089 E26.24419
G1 X87.536 Y154.031 E26.27826
G1 X87.096 Y153.877 E26.30895
G1 X86.701 Y153.629 E26.33964
G1 X86.371 Y153.299 E26.37032
G1 X86.123 Y152.904 E26.40101
G1 X85.969 Y152.464 E26.43170
G1 X85.911 Y151.949 E26.46577
G1 X85.911 Y88.051 E30.66828
G1 X85.969 Y87.536 E30.70235
G1 X86.123 Y87.096 E30.73303
G1 X86.371 Y86.701 E30.76372
G1 X86.701 Y86.371 E30.79441
G1 X87.096 Y86.123 E30.82509
G1 X87.536 Y85.969 E30.85578
G1 X88.051 Y85.911 E30.88985
G1 X151.949 Y85.911 E35.09236
G1 X152.457 Y85.968 E35.12596
G1 X152.905 Y86.123 E35.15719
G1 X153.299 Y86.371 E35.18779
G1 X153.629 Y86.701 E35.21848
G1 X153.877 Y87.096 E35.24917
G1 X154.031 Y87.536 E35.27985
G1 X154.089 Y88.051 E35.31393
G1 X154.089 Y151.949 E39.51644
