; generated by Slic3r 1.3.0 on 2024-10-26 at 19:06:27

; Print Config Notes: 
; Cubic Infill Pattern 20 % density
; 
; Printer Config Notes: 
; No Retraction
; 
; external perimeters extrusion width = 0.33mm (2.01mm^3/s)
; perimeters extrusion width = 0.40mm (7.14mm^3/s)
; infill extrusion width = 0.80mm (18.17mm^3/s)
; solid infill extrusion width = 0.40mm (4.28mm^3/s)
; top infill extrusion width = 0.30mm (1.54mm^3/s)

M107
M190 S55 ; set bed temperature and wait for it to be reached
M104 S205 ; set temperature
G28 ; home all axes
G1 Z5 F5000 ; lift nozzle

; Filament gcode

M109 S205 ; set temperature and wait for it to be reached
G21 ; set units to millimeters
G90 ; use absolute coordinates
M82 ; use absolute distances for extrusion
G92 E0
G1 Z0.300 F24000.000
G1 E-4.00000 F2400.00000
G92 E0
G1 X97.199 Y96.934 F24000.000
G1 E4.00000 F2400.00000
G1 F2100
G1 X97.806 Y96.327 E4.05646
G1 X98.493 Y95.751 E4.11541
G1 X99.196 Y95.258 E4.17187
G1 X99.972 Y94.810 E4.23083
G1 X100.750 Y94.447 E4.28729
G1 X101.592 Y94.141 E4.34624
G1 X102.422 Y93.918 E4.40270
G1 X103.304 Y93.763 E4.46165
G1 X104.162 Y93.688 E4.51830
G1 X104.751 Y93.670 E4.55706
G1 X107.661 Y93.750 E4.74850
G1 X110.847 Y94.006 E4.95868
G1 X114.293 Y94.483 E5.18747
G1 X117.428 Y95.103 E5.39766
G1 X120.524 Y95.894 E5.60785
G1 X123.572 Y96.854 E5.81804
G1 X126.661 Y98.024 E6.03527
G1 X129.487 Y99.270 E6.23840
G1 X132.087 Y100.584 E6.42998
G1 X134.860 Y102.173 E6.64017
G1 X137.773 Y104.074 E6.86896
G1 X140.345 Y105.970 E7.07915
G1 X142.593 Y107.818 E7.27050
G1 X143.144 Y108.344 E7.32063
G1 X143.619 Y108.870 E7.36723
G1 X144.333 Y109.884 E7.44876
G1 X144.666 Y110.505 E7.49513
G1 X145.117 Y111.660 E7.57666
G1 X145.292 Y112.343 E7.62303
G1 X145.453 Y113.572 E7.70456
G1 X145.460 Y114.325 E7.75411
G1 X145.460 Y138.590 E9.34997
G1 X145.321 Y139.773 E9.42834
G1 X145.159 Y140.459 E9.47471
G1 X144.731 Y141.622 E9.55622
G1 X144.409 Y142.250 E9.60262
G1 X143.714 Y143.277 E9.68414
G1 X143.252 Y143.809 E9.73052
G1 X142.331 Y144.640 E9.81205
G1 X141.755 Y145.046 E9.85842
G1 X140.663 Y145.632 E9.93995
G1 X140.006 Y145.888 E9.98633
G1 X138.805 Y146.196 E10.06785
G1 X138.106 Y146.288 E10.11423
G1 X137.086 Y146.319 E10.18135
G1 X103.801 Y144.034 E12.37562
G1 X103.209 Y143.959 E12.41492
G1 X102.315 Y143.792 E12.47469
G1 X101.402 Y143.532 E12.53710
G1 X100.555 Y143.204 E12.59687
G1 X99.706 Y142.781 E12.65928
G1 X98.933 Y142.302 E12.71906
G1 X98.176 Y141.730 E12.78146
G1 X97.504 Y141.118 E12.84124
G1 X96.865 Y140.417 E12.90365
G1 X96.317 Y139.692 E12.96342
G1 X95.817 Y138.885 E13.02584
G1 X95.412 Y138.071 E13.08561
G1 X95.070 Y137.186 E13.14801
G1 X94.821 Y136.312 E13.20779
G1 X94.646 Y135.379 E13.27020
G1 X94.562 Y134.471 E13.33020
G1 X94.540 Y133.997 E13.36144
G1 X94.540 Y103.739 E15.35147
G1 X94.560 Y103.291 E15.38097
G1 X94.635 Y102.432 E15.43765
G1 X94.791 Y101.549 E15.49660
G1 X95.013 Y100.720 E15.55306
G1 X95.319 Y99.878 E15.61202
G1 X95.682 Y99.100 E15.66849
G1 X96.130 Y98.324 E15.72743
G1 X96.623 Y97.620 E15.78390
G1 X97.170 Y96.968 E15.83988
G1 X97.578 Y97.313 F24000.000
G1 F2100
G1 X98.185 Y96.706 E15.89634
G1 X98.800 Y96.189 E15.94916
G1 X99.482 Y95.712 E16.00390
G1 X100.199 Y95.295 E16.05843
G1 X100.977 Y94.933 E16.11489
G1 X101.731 Y94.658 E16.16770
G1 X102.560 Y94.436 E16.22416
G1 X103.351 Y94.296 E16.27697
G1 X104.209 Y94.221 E16.33361
G1 X104.737 Y94.206 E16.36833
G1 X107.646 Y94.286 E16.55977
G1 X110.803 Y94.540 E16.76802
G1 X114.190 Y95.009 E16.99293
G1 X117.296 Y95.622 E17.20119
G1 X120.364 Y96.405 E17.40943
G1 X123.385 Y97.356 E17.61768
G1 X126.446 Y98.514 E17.83298
G1 X129.246 Y99.748 E18.03417
G1 X131.845 Y101.062 E18.22575
G1 X134.592 Y102.637 E18.43400
G1 X137.456 Y104.505 E18.65892
G1 X140.005 Y106.384 E18.86716
G1 X142.253 Y108.232 E19.05851
G1 X142.746 Y108.703 E19.10342
G1 X143.221 Y109.229 E19.15002
G1 X143.861 Y110.137 E19.22307
G1 X144.194 Y110.758 E19.26943
G1 X144.598 Y111.793 E19.34247
G1 X144.773 Y112.476 E19.38884
G1 X144.917 Y113.577 E19.46187
G1 X144.924 Y114.325 E19.51110
G1 X144.924 Y138.590 E21.10695
G1 X144.800 Y139.650 E21.17717
G1 X144.638 Y140.336 E21.22354
G1 X144.254 Y141.378 E21.29656
G1 X143.932 Y142.006 E21.34295
G1 X143.310 Y142.925 E21.41598
G1 X142.847 Y143.458 E21.46236
G1 X142.023 Y144.202 E21.53540
G1 X141.447 Y144.608 E21.58177
G1 X140.468 Y145.133 E21.65480
G1 X139.811 Y145.389 E21.70118
G1 X138.736 Y145.665 E21.77421
G1 X138.037 Y145.757 E21.82059
G1 X137.123 Y145.785 E21.88072
G1 X103.838 Y143.500 E24.07499
G1 X103.307 Y143.432 E24.11019
G1 X102.414 Y143.265 E24.16996
G1 X101.596 Y143.032 E24.22588
G1 X100.749 Y142.704 E24.28565
G1 X99.988 Y142.325 E24.34156
G1 X99.215 Y141.847 E24.40133
G1 X98.537 Y141.335 E24.45724
G1 X97.865 Y140.722 E24.51701
G1 X97.292 Y140.094 E24.57293
G1 X96.744 Y139.369 E24.63270
G1 X96.297 Y138.646 E24.68861
G1 X95.892 Y137.832 E24.74838
G1 X95.585 Y137.040 E24.80429
G1 X95.336 Y136.166 E24.86406
G1 X95.180 Y135.330 E24.91998
G1 X95.096 Y134.422 E24.97998
G1 X95.076 Y133.997 E25.00796
G1 X95.076 Y103.739 E26.99799
G1 X95.093 Y103.337 E27.02442
G1 X95.169 Y102.479 E27.08110
G1 X95.308 Y101.688 E27.13391
G1 X95.530 Y100.859 E27.19037
G1 X95.805 Y100.104 E27.24318
G1 X96.168 Y99.326 E27.29965
G1 X96.569 Y98.631 E27.35246
G1 X97.062 Y97.928 E27.40893
G1 X97.549 Y97.347 E27.45877
G1 X97.956 Y97.691 F24000.000
G1 F2100
G1 X98.563 Y97.084 E27.51523
G1 X99.107 Y96.628 E27.56190
G1 X99.789 Y96.151 E27.61664
G1 X100.425 Y95.781 E27.66503
G1 X101.203 Y95.418 E27.72149
G1 X101.870 Y95.175 E27.76816
G1 X102.699 Y94.953 E27.82462
G1 X103.398 Y94.830 E27.87129
G1 X104.256 Y94.755 E27.92793
G1 X104.722 Y94.741 E27.95861
G1 X107.632 Y94.821 E28.15005
G1 X110.981 Y95.098 E28.37109
G1 X114.193 Y95.555 E28.58445
G1 X117.165 Y96.141 E28.78370
G1 X119.989 Y96.856 E28.97528
G1 X122.985 Y97.785 E29.18159
G1 X126.133 Y98.962 E29.40263
G1 X129.004 Y100.226 E29.60894
G1 X131.801 Y101.646 E29.81526
G1 X134.516 Y103.218 E30.02157
G1 X137.140 Y104.937 E30.22788
G1 X139.665 Y106.798 E30.43419
G1 X141.912 Y108.645 E30.62554
G1 X142.349 Y109.062 E30.66522
G1 X142.824 Y109.588 E30.71182
G1 X143.389 Y110.391 E30.77637
G1 X143.722 Y111.012 E30.82274
G1 X144.079 Y111.926 E30.88729
G1 X144.254 Y112.609 E30.93366
G1 X144.382 Y113.582 E30.99820
G1 X144.388 Y114.325 E31.04709
G1 X144.388 Y138.590 E32.64295
G1 X144.279 Y139.527 E32.70500
G1 X144.117 Y140.213 E32.75136
G1 X143.777 Y141.134 E32.81590
G1 X143.456 Y141.761 E32.86228
G1 X142.906 Y142.574 E32.92682
G1 X142.443 Y143.106 E32.97320
G1 X141.715 Y143.764 E33.03775
G1 X141.138 Y144.170 E33.08412
G1 X140.274 Y144.634 E33.14866
G1 X139.617 Y144.890 E33.19504
G1 X138.666 Y145.134 E33.25958
G1 X137.967 Y145.226 E33.30596
G1 X137.159 Y145.251 E33.35909
G1 X103.875 Y142.965 E35.55337
G1 X103.405 Y142.906 E35.58448
G1 X102.512 Y142.739 E35.64425
G1 X101.789 Y142.533 E35.69366
G1 X100.942 Y142.205 E35.75343
G1 X100.269 Y141.870 E35.80284
G1 X99.497 Y141.391 E35.86261
G1 X98.897 Y140.939 E35.91202
G1 X98.226 Y140.326 E35.97180
G1 X97.720 Y139.771 E36.02121
G1 X97.172 Y139.046 E36.08098
G1 X96.776 Y138.407 E36.13039
G1 X96.371 Y137.594 E36.19016
G1 X96.100 Y136.893 E36.23957
G1 X95.851 Y136.019 E36.29934
G1 X95.713 Y135.281 E36.34875
G1 X95.612 Y133.997 E36.43347
G1 X95.612 Y103.739 E38.42349
G1 X95.627 Y103.384 E38.44685
G1 X95.702 Y102.526 E38.50353
G1 X95.825 Y101.827 E38.55020
G1 X96.048 Y100.998 E38.60666
G1 X96.290 Y100.331 E38.65333
G1 X96.653 Y99.553 E38.70980
G1 X97.008 Y98.938 E38.75647
G1 X97.500 Y98.235 E38.81294
G1 X97.928 Y97.726 E38.85664
G1 X98.335 Y98.070 F24000.000
G1 F2100
G1 X98.942 Y97.463 E38.91310
G1 X99.414 Y97.067 E38.95363
G1 X100.096 Y96.589 E39.00837
G1 X100.651 Y96.266 E39.05062
G1 X101.429 Y95.904 E39.10708
G1 X102.008 Y95.693 E39.14761
G1 X102.838 Y95.471 E39.20407
G1 X103.444 Y95.364 E39.24460
G1 X104.302 Y95.289 E39.30123
G1 X104.707 Y95.276 E39.32788
G1 X107.617 Y95.357 E39.51932
G1 X110.908 Y95.629 E39.73648
G1 X114.090 Y96.081 E39.94790
G1 X117.034 Y96.661 E40.14522
G1 X119.858 Y97.375 E40.33680
G1 X122.825 Y98.296 E40.54117
G1 X125.918 Y99.453 E40.75833
G1 X128.762 Y100.704 E40.96271
G1 X131.533 Y102.110 E41.16708
G1 X134.223 Y103.667 E41.37145
G1 X136.823 Y105.369 E41.57582
G1 X139.325 Y107.212 E41.78019
G1 X141.572 Y109.059 E41.97154
G1 X141.951 Y109.421 E42.00601
G1 X142.426 Y109.947 E42.05261
G1 X142.917 Y110.644 E42.10867
G1 X143.250 Y111.265 E42.15504
G1 X143.560 Y112.059 E42.21109
G1 X143.735 Y112.742 E42.25746
G1 X143.846 Y113.587 E42.31351
G1 X143.853 Y114.325 E42.36207
G1 X143.853 Y138.590 E43.95792
G1 X143.758 Y139.404 E44.01181
G1 X143.595 Y140.090 E44.05818
G1 X143.301 Y140.889 E44.11422
G1 X142.979 Y141.517 E44.16061
G1 X142.502 Y142.223 E44.21666
G1 X142.039 Y142.755 E44.26303
G1 X141.406 Y143.326 E44.31909
G1 X140.830 Y143.732 E44.36546
G1 X140.079 Y144.135 E44.42151
G1 X139.422 Y144.391 E44.46788
G1 X138.597 Y144.603 E44.52394
G1 X137.897 Y144.695 E44.57031
G1 X137.196 Y144.716 E44.61646
G1 X103.911 Y142.431 E46.81073
G1 X103.504 Y142.379 E46.83775
G1 X102.610 Y142.212 E46.89752
G1 X101.983 Y142.034 E46.94043
G1 X101.135 Y141.705 E47.00020
G1 X100.551 Y141.414 E47.04311
G1 X99.779 Y140.936 E47.10288
G1 X99.258 Y140.543 E47.14579
G1 X98.587 Y139.931 E47.20556
G1 X98.147 Y139.448 E47.24847
G1 X97.599 Y138.723 E47.30824
G1 X97.256 Y138.168 E47.35115
G1 X96.851 Y137.355 E47.41093
G1 X96.615 Y136.747 E47.45383
G1 X96.366 Y135.872 E47.51361
G1 X96.246 Y135.231 E47.55652
G1 X96.147 Y133.997 E47.63798
G1 X96.147 Y103.739 E49.62800
G1 X96.161 Y103.431 E49.64829
G1 X96.236 Y102.572 E49.70497
G1 X96.343 Y101.965 E49.74550
G1 X96.565 Y101.136 E49.80196
G1 X96.776 Y100.557 E49.84249
G1 X97.139 Y99.779 E49.89896
G1 X97.447 Y99.245 E49.93948
G1 X97.939 Y98.542 E49.99595
G1 X98.306 Y98.104 E50.03351
G1 X98.891 Y98.626 F24000.000
G1 F2100
G1 X99.583 Y97.934 E50.10560
G1 X99.767 Y97.780 E50.12329
G1 X100.667 Y97.150 E50.20422
G1 X100.875 Y97.030 E50.22191
G1 X101.870 Y96.565 E50.30285
G1 X102.096 Y96.483 E50.32053
G1 X103.157 Y96.199 E50.40147
G1 X103.393 Y96.157 E50.41915
G1 X104.449 Y96.065 E50.49724
G1 X107.709 Y96.148 E50.73745
G1 X110.762 Y96.402 E50.96320
G1 X113.723 Y96.812 E51.18339
G1 X116.730 Y97.397 E51.40914
G1 X119.774 Y98.167 E51.64047
G1 X122.627 Y99.058 E51.86065
G1 X125.498 Y100.129 E52.08640
G1 X128.374 Y101.389 E52.31773
G1 X131.041 Y102.737 E52.53791
G1 X133.697 Y104.265 E52.76367
G1 X136.327 Y105.981 E52.99500
G1 X138.796 Y107.795 E53.22075
G1 X141.152 Y109.731 E53.44540
G1 X141.299 Y109.872 E53.46043
G1 X141.954 Y110.597 E53.53241
G1 X142.146 Y110.869 E53.55692
G1 X142.636 Y111.784 E53.63336
G1 X142.757 Y112.094 E53.65788
G1 X143.015 Y113.098 E53.73430
G1 X143.058 Y113.428 E53.75881
G1 X143.068 Y114.466 E53.83526
G1 X143.031 Y114.796 E53.85977
G1 X142.792 Y115.806 E53.93620
G1 X142.677 Y116.118 E53.96070
G1 X142.204 Y117.041 E54.03716
G1 X142.017 Y117.317 E54.06166
G1 X141.336 Y118.100 E54.13811
G1 X141.089 Y118.323 E54.16263
G1 X140.241 Y118.920 E54.23906
G1 X139.948 Y119.078 E54.26356
G1 X138.981 Y119.455 E54.34001
G1 X138.659 Y119.537 E54.36452
G1 X137.630 Y119.672 E54.44097
G1 X137.298 Y119.675 E54.46547
G1 X136.267 Y119.560 E54.54192
G1 X135.943 Y119.483 E54.56642
G1 X134.969 Y119.125 E54.64287
G1 X134.673 Y118.973 E54.66738
G1 X133.797 Y118.373 E54.74562
G1 X131.549 Y116.539 E54.95934
G1 X129.319 Y114.939 E55.16156
G1 X126.986 Y113.475 E55.36450
G1 X124.557 Y112.155 E55.56816
G1 X122.060 Y110.992 E55.77110
G1 X119.496 Y109.987 E55.97404
G1 X116.751 Y109.103 E56.18648
G1 X114.214 Y108.465 E56.37922
G1 X112.510 Y108.142 E56.50696
G1 X112.282 Y108.331 E56.52878
G1 X112.282 Y109.796 E56.63671
G1 X112.175 Y111.021 E56.72732
G1 X112.128 Y111.271 E56.74605
G1 X111.810 Y112.389 E56.83173
G1 X111.718 Y112.626 E56.85047
G1 X111.199 Y113.667 E56.93615
G1 X111.066 Y113.884 E56.95488
G1 X110.365 Y114.812 E57.04056
G1 X110.193 Y115.000 E57.05929
G1 X109.334 Y115.783 E57.14498
G1 X109.131 Y115.936 E57.16371
G1 X108.142 Y116.548 E57.24939
G1 X107.915 Y116.662 E57.26812
G1 X106.830 Y117.082 E57.35380
G1 X106.586 Y117.152 E57.37254
G1 X105.442 Y117.365 E57.45822
G1 X105.189 Y117.389 E57.47695
G1 X104.026 Y117.389 E57.56263
G1 X103.773 Y117.365 E57.58137
G1 X102.630 Y117.152 E57.66705
G1 X102.385 Y117.082 E57.68578
G1 X101.301 Y116.662 E57.77146
G1 X101.073 Y116.548 E57.79019
G1 X100.085 Y115.936 E57.87587
G1 X99.882 Y115.783 E57.89460
G1 X99.022 Y115.000 E57.98029
G1 X98.851 Y114.812 E57.99902
G1 X98.150 Y113.884 E58.08470
G1 X98.016 Y113.667 E58.10343
G1 X97.498 Y112.626 E58.18911
G1 X97.406 Y112.389 E58.20784
G1 X97.088 Y111.271 E58.29353
G1 X97.041 Y111.021 E58.31226
G1 X96.933 Y109.796 E58.40287
G1 X96.933 Y103.679 E58.85352
G1 X97.029 Y102.521 E58.93910
G1 X97.071 Y102.285 E58.95679
G1 X97.355 Y101.224 E59.03772
G1 X97.438 Y100.998 E59.05541
G1 X97.902 Y100.002 E59.13635
G1 X98.022 Y99.795 E59.15403
G1 X98.652 Y98.895 E59.23497
G1 X98.859 Y98.658 E59.25816
G1 X99.315 Y99.050 F24000.000
G1 F2100
G1 X99.989 Y98.377 E59.32832
G1 X100.133 Y98.256 E59.34215
G1 X100.990 Y97.656 E59.41922
G1 X101.152 Y97.562 E59.43305
G1 X102.100 Y97.120 E59.51012
G1 X102.277 Y97.056 E59.52395
G1 X103.287 Y96.785 E59.60102
G1 X103.472 Y96.753 E59.61485
G1 X104.484 Y96.664 E59.68973
G1 X107.667 Y96.746 E59.92432
G1 X110.629 Y96.991 E60.14328
G1 X113.632 Y97.406 E60.36661
G1 X116.665 Y97.997 E60.59428
G1 X119.603 Y98.742 E60.81761
G1 X122.440 Y99.628 E61.03657
G1 X125.280 Y100.688 E61.25989
G1 X128.111 Y101.928 E61.48757
G1 X130.763 Y103.268 E61.70654
G1 X133.390 Y104.781 E61.92986
G1 X135.979 Y106.469 E62.15754
G1 X138.422 Y108.264 E62.38086
G1 X140.754 Y110.181 E62.60326
G1 X141.484 Y110.972 E62.68264
G1 X141.634 Y111.185 E62.70180
G1 X142.091 Y112.035 E62.77290
G1 X142.185 Y112.278 E62.79207
G1 X142.425 Y113.212 E62.86315
G1 X142.459 Y113.470 E62.88231
G1 X142.468 Y114.435 E62.95341
G1 X142.439 Y114.694 E62.97257
G1 X142.217 Y115.633 E63.04366
G1 X142.127 Y115.877 E63.06281
G1 X141.686 Y116.735 E63.13392
G1 X141.541 Y116.951 E63.15307
G1 X140.907 Y117.679 E63.22418
G1 X140.714 Y117.853 E63.24334
G1 X139.925 Y118.409 E63.31443
G1 X139.696 Y118.532 E63.33359
G1 X138.797 Y118.883 E63.40469
G1 X138.545 Y118.947 E63.42384
G1 X137.588 Y119.073 E63.49494
G1 X137.328 Y119.075 E63.51410
G1 X136.369 Y118.968 E63.58520
G1 X136.116 Y118.908 E63.60435
G1 X135.211 Y118.574 E63.67546
G1 X134.979 Y118.455 E63.69461
G1 X134.243 Y117.957 E63.76011
G1 X131.922 Y116.068 E63.98060
G1 X129.646 Y114.435 E64.18700
G1 X127.280 Y112.952 E64.39269
G1 X124.827 Y111.619 E64.59838
G1 X122.297 Y110.440 E64.80407
G1 X119.697 Y109.421 E65.00975
G1 X117.040 Y108.566 E65.21544
G1 X114.344 Y107.879 E65.42041
G1 X111.910 Y107.417 E65.60289
G1 X111.682 Y107.606 E65.62472
G1 X111.682 Y109.782 E65.78499
G1 X111.580 Y110.938 E65.87049
G1 X111.543 Y111.133 E65.88513
G1 X111.240 Y112.198 E65.96673
G1 X111.168 Y112.384 E65.98138
G1 X110.675 Y113.375 E66.06297
G1 X110.570 Y113.544 E66.07761
G1 X109.903 Y114.428 E66.15921
G1 X109.769 Y114.575 E66.17385
G1 X108.950 Y115.321 E66.25545
G1 X108.792 Y115.441 E66.27009
G1 X107.850 Y116.024 E66.35169
G1 X107.672 Y116.112 E66.36633
G1 X106.639 Y116.512 E66.44793
G1 X106.448 Y116.567 E66.46257
G1 X105.359 Y116.770 E66.54417
G1 X105.162 Y116.789 E66.55881
G1 X104.054 Y116.789 E66.64041
G1 X103.856 Y116.770 E66.65505
G1 X102.767 Y116.567 E66.73665
G1 X102.576 Y116.512 E66.75129
G1 X101.544 Y116.112 E66.83288
G1 X101.366 Y116.024 E66.84753
G1 X100.424 Y115.441 E66.92912
G1 X100.265 Y115.321 E66.94376
G1 X99.447 Y114.575 E67.02536
G1 X99.313 Y114.428 E67.04000
G1 X98.646 Y113.544 E67.12160
G1 X98.541 Y113.375 E67.13624
G1 X98.047 Y112.384 E67.21784
G1 X97.976 Y112.198 E67.23248
G1 X97.672 Y111.133 E67.31408
G1 X97.636 Y110.938 E67.32872
G1 X97.533 Y109.782 E67.41422
G1 X97.533 Y103.692 E67.86289
G1 X97.625 Y102.600 E67.94365
G1 X97.658 Y102.415 E67.95748
G1 X97.928 Y101.404 E68.03455
G1 X97.992 Y101.228 E68.04838
G1 X98.435 Y100.280 E68.12545
G1 X98.528 Y100.117 E68.13928
G1 X99.128 Y99.260 E68.21636
G1 X99.284 Y99.082 E68.23377
