; generated by Slic3r 1.3.0 on 2024-10-26 at 17:49:33

; Printer Config Notes: 
; No Retraction
; 
; external perimeters extrusion width = 0.33mm (0.80mm^3/s)
; perimeters extrusion width = 0.40mm (2.86mm^3/s)
; infill extrusion width = 0.80mm (9.08mm^3/s)
; solid infill extrusion width = 0.40mm (2.14mm^3/s)
; top infill extrusion width = 0.30mm (0.77mm^3/s)

M107
M190 S55 ; set bed temperature and wait for it to be reached
M104 S205 ; set temperature
G28 ; home all axes
G1 Z5 F5000 ; lift nozzle

; Filament gcode

M109 S205 ; set temperature and wait for it to be reached
G21 ; set units to millimeters
G90 ; use absolute coordinates
M82 ; use absolute distances for extrusion
G92 E0
G1 Z0.300 F24000.000
G1 E-4.00000 F2400.00000
G92 E0
G1 X97.815 Y102.547 F24000.000
G1 E4.00000 F2400.00000
G1 F2100
G1 X100.037 Y100.691 E4.19040
G1 X102.407 Y98.912 E4.38533
G1 X104.496 Y97.494 E4.55137
G1 X106.835 Y96.058 E4.73186
G1 X109.239 Y94.736 E4.91235
G1 X111.704 Y93.529 E5.09284
G1 X114.428 Y92.360 E5.28778
G1 X116.793 Y91.476 E5.45383
G1 X119.404 Y90.634 E5.63431
G1 X122.053 Y89.917 E5.81480
G1 X124.949 Y89.285 E6.00973
G1 X127.439 Y88.866 E6.17578
G1 X130.163 Y88.534 E6.35626
G1 X133.119 Y88.322 E6.55120
G1 X135.643 Y88.262 E6.71724
G1 X136.333 Y88.279 E6.76266
G1 X137.263 Y88.382 E6.82419
G1 X138.178 Y88.575 E6.88571
G1 X138.857 Y88.781 E6.93236
G1 X139.726 Y89.129 E6.99387
G1 X140.556 Y89.560 E7.05539
G1 X141.333 Y90.066 E7.11642
G1 X141.886 Y90.497 E7.16254
G1 X142.572 Y91.133 E7.22406
G1 X143.048 Y91.659 E7.27071
G1 X143.475 Y92.206 E7.31632
G1 X143.869 Y92.796 E7.36301
G1 X144.317 Y93.609 E7.42404
G1 X144.601 Y94.250 E7.47015
G1 X144.840 Y94.918 E7.51681
G1 X145.025 Y95.586 E7.56244
G1 X145.164 Y96.283 E7.60917
G1 X145.270 Y97.258 E7.67363
G1 X146.532 Y117.194 E8.98744
G1 X146.532 Y142.185 E10.63110
G1 X146.503 Y142.701 E10.66508
G1 X146.356 Y143.920 E10.74583
G1 X146.131 Y144.886 E10.81109
G1 X145.671 Y146.105 E10.89677
G1 X145.264 Y146.922 E10.95681
G1 X145.130 Y147.128 E10.97297
G1 X144.484 Y148.064 E11.04773
G1 X143.917 Y148.737 E11.10564
G1 X142.864 Y149.682 E11.19870
G1 X142.260 Y150.134 E11.24833
G1 X141.910 Y150.338 E11.27494
G1 X140.904 Y150.866 E11.34970
G1 X140.284 Y151.135 E11.39413
G1 X139.821 Y151.275 E11.42595
G1 X138.717 Y151.547 E11.50071
G1 X138.084 Y151.657 E11.54298
G1 X137.582 Y151.686 E11.57606
G1 X120.014 Y151.739 E12.73152
G1 X103.000 Y151.739 E13.85051
G1 X101.868 Y151.664 E13.92514
G1 X101.154 Y151.551 E13.97265
G1 X100.402 Y151.371 E14.02350
G1 X99.715 Y151.147 E14.07102
G1 X99.001 Y150.852 E14.12185
G1 X98.357 Y150.523 E14.16939
G1 X97.698 Y150.120 E14.22022
G1 X97.113 Y149.695 E14.26776
G1 X96.526 Y149.193 E14.31859
G1 X96.015 Y148.682 E14.36613
G1 X95.513 Y148.094 E14.41696
G1 X95.088 Y147.509 E14.46451
G1 X94.684 Y146.850 E14.51533
G1 X94.356 Y146.206 E14.56287
G1 X94.060 Y145.492 E14.61370
G1 X93.837 Y144.805 E14.66125
G1 X93.656 Y144.053 E14.71208
G1 X93.543 Y143.339 E14.75962
G1 X93.468 Y142.205 E14.83441
G1 X93.468 Y117.210 E16.47826
G1 X93.543 Y116.075 E16.55307
G1 X93.634 Y115.459 E16.59406
G1 X95.586 Y106.478 E17.19852
G1 X95.736 Y105.893 E17.23822
G1 X95.853 Y105.535 E17.26299
G1 X96.078 Y104.975 E17.30273
G1 X96.308 Y104.507 E17.33701
G1 X96.493 Y104.180 E17.36172
G1 X96.695 Y103.862 E17.38646
G1 X97.052 Y103.374 E17.42622
G1 X97.389 Y102.978 E17.46047
G1 X97.783 Y102.579 E17.49733
G1 X98.177 Y102.943 F24000.000
G1 F2100
G1 X100.378 Y101.104 E17.68601
G1 X102.708 Y99.355 E17.87759
G1 X104.960 Y97.832 E18.05640
G1 X107.114 Y96.515 E18.22244
G1 X109.497 Y95.206 E18.40125
G1 X111.939 Y94.011 E18.58006
G1 X114.615 Y92.862 E18.77163
G1 X116.980 Y91.978 E18.93768
G1 X119.568 Y91.144 E19.11648
G1 X122.192 Y90.434 E19.29529
G1 X125.038 Y89.814 E19.48687
G1 X127.528 Y89.394 E19.65291
G1 X130.227 Y89.066 E19.83172
G1 X133.132 Y88.858 E20.02330
G1 X135.656 Y88.797 E20.18934
G1 X136.294 Y88.813 E20.23132
G1 X137.172 Y88.910 E20.28940
G1 X138.036 Y89.091 E20.34745
G1 X138.689 Y89.290 E20.39238
G1 X139.508 Y89.618 E20.45043
G1 X140.292 Y90.026 E20.50850
G1 X141.025 Y90.504 E20.56607
G1 X141.537 Y90.903 E20.60874
G1 X142.184 Y91.503 E20.66679
G1 X142.643 Y92.009 E20.71172
G1 X143.037 Y92.514 E20.75387
G1 X143.417 Y93.082 E20.79883
G1 X143.839 Y93.850 E20.85644
G1 X144.101 Y94.443 E20.89906
G1 X144.332 Y95.086 E20.94399
G1 X144.503 Y95.704 E20.98617
G1 X144.636 Y96.375 E21.03116
G1 X144.735 Y97.292 E21.09181
G1 X145.996 Y117.194 E22.40339
G1 X145.996 Y142.185 E24.04704
G1 X145.971 Y142.641 E24.07708
G1 X145.824 Y143.855 E24.15752
G1 X145.625 Y144.709 E24.21520
G1 X145.170 Y145.915 E24.29996
G1 X144.811 Y146.638 E24.35302
G1 X144.689 Y146.824 E24.36766
G1 X144.044 Y147.759 E24.44242
G1 X143.539 Y148.359 E24.49395
G1 X142.509 Y149.281 E24.58488
G1 X141.975 Y149.681 E24.62875
G1 X140.655 Y150.392 E24.72736
G1 X140.107 Y150.630 E24.76662
G1 X139.693 Y150.755 E24.79511
G1 X138.589 Y151.027 E24.86986
G1 X138.071 Y151.120 E24.90450
G1 X137.581 Y151.151 E24.93681
G1 X120.000 Y151.203 E26.09308
G1 X102.681 Y151.191 E27.23216
G1 X101.910 Y151.130 E27.28301
G1 X101.279 Y151.030 E27.32500
G1 X100.560 Y150.858 E27.37365
G1 X99.920 Y150.653 E27.41784
G1 X99.206 Y150.357 E27.46867
G1 X98.637 Y150.067 E27.51068
G1 X97.978 Y149.663 E27.56151
G1 X97.461 Y149.287 E27.60353
G1 X96.874 Y148.786 E27.65435
G1 X96.422 Y148.334 E27.69637
G1 X95.920 Y147.746 E27.74719
G1 X95.544 Y147.229 E27.78921
G1 X95.141 Y146.570 E27.84004
G1 X94.851 Y146.001 E27.88205
G1 X94.555 Y145.287 E27.93288
G1 X94.358 Y144.680 E27.97490
G1 X94.185 Y143.961 E28.02353
G1 X94.077 Y143.297 E28.06773
G1 X94.004 Y142.205 E28.13977
G1 X94.004 Y117.210 E29.78361
G1 X94.077 Y116.118 E29.85565
G1 X94.157 Y115.573 E29.89188
G1 X96.109 Y106.592 E30.49634
G1 X96.251 Y106.042 E30.53366
G1 X96.360 Y105.710 E30.55666
G1 X96.565 Y105.199 E30.59289
G1 X96.955 Y104.451 E30.64834
G1 X97.143 Y104.156 E30.67132
G1 X97.468 Y103.711 E30.70758
G1 X97.788 Y103.335 E30.74008
G1 X98.144 Y102.974 E30.77342
G1 X98.538 Y103.338 F24000.000
G1 F2100
G1 X100.720 Y101.516 E30.96038
G1 X102.871 Y99.896 E31.13751
G1 X105.097 Y98.380 E31.31464
G1 X107.539 Y96.888 E31.50286
G1 X109.904 Y95.598 E31.67999
G1 X112.173 Y94.493 E31.84603
G1 X114.646 Y93.426 E32.02316
G1 X117.168 Y92.479 E32.20029
G1 X119.893 Y91.606 E32.38851
G1 X122.331 Y90.951 E32.55455
G1 X124.962 Y90.374 E32.73168
G1 X127.784 Y89.898 E32.91989
G1 X130.290 Y89.598 E33.08593
G1 X132.976 Y89.401 E33.26306
G1 X135.840 Y89.333 E33.45144
G1 X136.669 Y89.382 E33.50605
G1 X137.488 Y89.512 E33.56063
G1 X138.292 Y89.722 E33.61525
G1 X139.070 Y90.010 E33.66985
G1 X139.817 Y90.373 E33.72446
G1 X140.525 Y90.807 E33.77905
G1 X141.053 Y91.198 E33.82226
G1 X141.674 Y91.749 E33.87687
G1 X142.079 Y92.176 E33.91558
G1 X142.497 Y92.684 E33.95883
G1 X142.964 Y93.369 E34.01338
G1 X143.255 Y93.881 E34.05210
G1 X143.535 Y94.475 E34.09532
G1 X143.823 Y95.254 E34.14991
G1 X143.980 Y95.821 E34.18862
G1 X144.108 Y96.466 E34.23188
G1 X144.200 Y97.326 E34.28874
G1 X145.461 Y117.194 E35.59807
G1 X145.461 Y142.185 E37.24173
G1 X145.438 Y142.581 E37.26781
G1 X145.292 Y143.791 E37.34795
G1 X145.119 Y144.532 E37.39803
G1 X144.670 Y145.725 E37.48189
G1 X144.357 Y146.353 E37.52797
G1 X144.248 Y146.520 E37.54109
G1 X143.603 Y147.455 E37.61585
G1 X143.193 Y147.947 E37.65793
G1 X142.154 Y148.880 E37.74981
G1 X141.690 Y149.227 E37.78790
G1 X140.406 Y149.917 E37.88378
G1 X139.930 Y150.124 E37.91788
G1 X139.565 Y150.235 E37.94302
G1 X138.461 Y150.507 E38.01778
G1 X138.011 Y150.588 E38.04786
G1 X137.579 Y150.615 E38.07633
G1 X120.000 Y150.668 E39.23249
G1 X102.723 Y150.657 E40.36881
G1 X101.952 Y150.596 E40.41966
G1 X101.404 Y150.510 E40.45612
G1 X100.685 Y150.337 E40.50476
G1 X100.125 Y150.158 E40.54343
G1 X99.411 Y149.862 E40.59426
G1 X98.917 Y149.610 E40.63075
G1 X98.258 Y149.206 E40.68157
G1 X97.809 Y148.880 E40.71806
G1 X97.221 Y148.378 E40.76889
G1 X96.829 Y147.986 E40.80538
G1 X96.327 Y147.398 E40.85620
G1 X96.001 Y146.950 E40.89269
G1 X95.597 Y146.291 E40.94352
G1 X95.346 Y145.796 E40.98000
G1 X95.050 Y145.082 E41.03083
G1 X94.878 Y144.555 E41.06732
G1 X94.706 Y143.836 E41.11595
G1 X94.611 Y143.255 E41.15463
G1 X94.539 Y142.205 E41.22390
G1 X94.539 Y117.210 E42.86774
G1 X94.611 Y116.160 E42.93702
G1 X94.681 Y115.686 E42.96848
G1 X96.725 Y106.331 E43.59827
G1 X96.982 Y105.584 E43.65024
G1 X97.190 Y105.132 E43.68298
G1 X97.417 Y104.722 E43.71377
G1 X97.884 Y104.048 E43.76770
G1 X98.187 Y103.693 E43.79845
G1 X98.506 Y103.369 E43.82828
G1 E39.82828 F2400.00000
G92 E0
G1 X113.728 Y112.784 F24000.000
G1 E4.00000 F2400.00000
G1 F2100
G1 X113.855 Y112.609 E4.01592
G1 X114.497 Y111.857 E4.08877
G1 X114.650 Y111.705 E4.10468
G1 X115.402 Y111.062 E4.17754
G1 X115.577 Y110.935 E4.19346
G1 X116.420 Y110.419 E4.26630
G1 X116.612 Y110.321 E4.28222
G1 X117.395 Y109.996 E4.34466
G1 X117.731 Y109.876 E4.37097
G1 X118.693 Y109.645 E4.44382
G1 X118.906 Y109.611 E4.45974
G1 X119.892 Y109.533 E4.53259
G1 X120.108 Y109.533 E4.54851
G1 X121.094 Y109.611 E4.62136
G1 X121.307 Y109.645 E4.63728
G1 X122.269 Y109.876 E4.71013
G1 X122.474 Y109.942 E4.72605
G1 X123.388 Y110.321 E4.79890
G1 X123.580 Y110.419 E4.81482
G1 X124.423 Y110.935 E4.88767
G1 X124.598 Y111.062 E4.90359
G1 X125.350 Y111.705 E4.97644
G1 X125.503 Y111.857 E4.99236
G1 X126.145 Y112.609 E5.06521
G1 X126.272 Y112.784 E5.08113
G1 X126.789 Y113.627 E5.15398
G1 X126.887 Y113.820 E5.16989
G1 X127.265 Y114.733 E5.24274
G1 X127.332 Y114.939 E5.25866
G1 X127.563 Y115.900 E5.33151
G1 X127.597 Y116.114 E5.34743
G1 X127.674 Y117.156 E5.42447
G1 X127.674 Y142.259 E7.27386
G1 X127.597 Y143.301 E7.35090
G1 X127.563 Y143.515 E7.36681
G1 X127.332 Y144.476 E7.43967
G1 X127.265 Y144.682 E7.45558
G1 X126.887 Y145.595 E7.52844
G1 X126.789 Y145.788 E7.54435
G1 X126.272 Y146.631 E7.61720
G1 X126.145 Y146.806 E7.63312
G1 X125.503 Y147.558 E7.70598
G1 X125.350 Y147.710 E7.72189
G1 X124.598 Y148.353 E7.79475
G1 X124.423 Y148.479 E7.81066
G1 X123.580 Y148.996 E7.88352
G1 X123.388 Y149.094 E7.89943
G1 X122.474 Y149.473 E7.97228
G1 X122.269 Y149.539 E7.98820
G1 X121.307 Y149.770 E8.06105
G1 X121.094 Y149.804 E8.07697
G1 X120.108 Y149.882 E8.14982
G1 X119.892 Y149.882 E8.16574
G1 X118.906 Y149.804 E8.23859
G1 X118.693 Y149.770 E8.25451
G1 X117.731 Y149.539 E8.32735
G1 X117.526 Y149.473 E8.34327
G1 X116.612 Y149.094 E8.41612
G1 X116.420 Y148.996 E8.43204
G1 X115.577 Y148.480 E8.50489
G1 X115.402 Y148.353 E8.52081
G1 X114.650 Y147.710 E8.59367
G1 X114.497 Y147.558 E8.60958
G1 X113.947 Y146.913 E8.67202
G1 X113.728 Y146.631 E8.69833
G1 X113.211 Y145.788 E8.77118
G1 X113.113 Y145.595 E8.78710
G1 X112.735 Y144.682 E8.85995
G1 X112.668 Y144.476 E8.87587
G1 X112.437 Y143.515 E8.94873
G1 X112.403 Y143.301 E8.96464
G1 X112.326 Y142.258 E9.04168
G1 X112.330 Y117.049 E10.89902
G1 X112.403 Y116.114 E10.96811
G1 X112.437 Y115.900 E10.98402
G1 X112.668 Y114.939 E11.05688
G1 X112.735 Y114.733 E11.07279
G1 X113.113 Y113.820 E11.14564
G1 X113.211 Y113.627 E11.16156
G1 X113.704 Y112.822 E11.23110
G1 X114.227 Y113.118 F24000.000
G1 F2100
G1 X114.938 Y112.265 E11.31289
G1 X115.684 Y111.610 E11.38600
G1 X115.910 Y111.435 E11.40711
G1 X116.864 Y110.866 E11.48890
G1 X117.894 Y110.453 E11.57069
G1 X118.977 Y110.207 E11.65247
G1 X120.084 Y110.133 E11.73426
G1 X121.190 Y110.234 E11.81605
G1 X122.106 Y110.453 E11.88543
G1 X123.136 Y110.866 E11.96722
G1 X124.090 Y111.435 E12.04901
G1 X124.942 Y112.146 E12.13080
G1 X125.673 Y112.981 E12.21259
G1 X126.265 Y113.921 E12.29438
G1 X126.702 Y114.941 E12.37617
G1 X126.974 Y116.017 E12.45795
G1 X127.074 Y117.168 E12.54306
G1 X127.074 Y142.247 E14.39072
G1 X126.974 Y143.397 E14.47582
G1 X126.754 Y144.313 E14.54520
G1 X126.341 Y145.344 E14.62699
G1 X125.773 Y146.297 E14.70878
G1 X125.062 Y147.150 E14.79057
G1 X124.226 Y147.881 E14.87236
G1 X123.287 Y148.472 E14.95415
G1 X122.266 Y148.909 E15.03594
G1 X121.190 Y149.181 E15.11773
G1 X120.084 Y149.282 E15.19952
G1 X118.977 Y149.208 E15.28130
G1 X118.810 Y149.181 E15.29375
G1 X117.734 Y148.909 E15.37553
G1 X116.713 Y148.472 E15.45733
G1 X115.910 Y147.980 E15.52670
G1 X115.058 Y147.269 E15.60849
G1 X114.403 Y146.523 E15.68161
G1 X114.227 Y146.297 E15.70271
G1 X113.659 Y145.344 E15.78450
G1 X113.298 Y144.474 E15.85388
G1 X113.026 Y143.397 E15.93567
G1 X112.926 Y142.247 E16.02078
G1 X112.926 Y117.168 E17.86843
G1 X113.000 Y116.184 E17.94113
G1 X113.246 Y115.102 E18.02292
G1 X113.659 Y114.071 E18.10471
G1 X114.204 Y113.156 E18.18318
G1 X114.727 Y113.451 F24000.000
G1 F2100
G1 X115.379 Y112.673 E18.25803
G1 X116.074 Y112.067 E18.32594
G1 X116.244 Y111.934 E18.34184
G1 X117.115 Y111.411 E18.41669
G1 X118.057 Y111.031 E18.49154
G1 X119.047 Y110.804 E18.56639
G1 X120.061 Y110.733 E18.64124
G1 X121.073 Y110.823 E18.71609
G1 X121.943 Y111.031 E18.78200
G1 X122.885 Y111.411 E18.85685
G1 X123.756 Y111.934 E18.93169
G1 X124.535 Y112.587 E19.00655
G1 X125.202 Y113.353 E19.08140
G1 X125.741 Y114.214 E19.15625
G1 X126.138 Y115.149 E19.23110
G1 X126.385 Y116.135 E19.30594
G1 X126.474 Y117.180 E19.38325
G1 X126.474 Y142.235 E21.22917
G1 X126.385 Y143.280 E21.30647
G1 X126.176 Y144.150 E21.37237
G1 X125.796 Y145.092 E21.44723
G1 X125.273 Y145.964 E21.52207
G1 X124.621 Y146.742 E21.59693
G1 X123.855 Y147.409 E21.67178
G1 X122.993 Y147.948 E21.74663
G1 X122.059 Y148.346 E21.82148
G1 X121.073 Y148.592 E21.89633
G1 X120.061 Y148.682 E21.97118
G1 X118.927 Y148.592 E22.05497
G1 X117.942 Y148.346 E22.12981
G1 X117.007 Y147.948 E22.20467
G1 X116.244 Y147.481 E22.27057
G1 X115.465 Y146.828 E22.34542
G1 X114.727 Y145.964 E22.42921
G1 X114.259 Y145.201 E22.49511
G1 X113.898 Y144.353 E22.56303
G1 X113.824 Y144.150 E22.57892
G1 X113.615 Y143.280 E22.64483
G1 X113.526 Y142.235 E22.72213
G1 X113.526 Y117.180 E24.56805
G1 X113.596 Y116.255 E24.63641
G1 X113.824 Y115.265 E24.71126
G1 X114.204 Y114.323 E24.78611
G1 X114.703 Y113.490 E24.85764
G1 X115.226 Y113.785 F24000.000
G1 F2100
G1 X115.820 Y113.080 E24.92555
G1 X116.463 Y112.523 E24.98826
G1 X116.577 Y112.433 E24.99896
G1 X117.366 Y111.957 E25.06687
G1 X118.220 Y111.609 E25.13478
G1 X119.118 Y111.400 E25.20269
G1 X120.037 Y111.333 E25.27060
G1 X120.956 Y111.411 E25.33851
G1 X121.780 Y111.609 E25.40095
G1 X122.634 Y111.957 E25.46886
G1 X123.423 Y112.433 E25.53677
G1 X124.127 Y113.027 E25.60468
G1 X124.730 Y113.725 E25.67259
G1 X125.217 Y114.507 E25.74050
G1 X125.575 Y115.357 E25.80842
G1 X125.796 Y116.252 E25.87633
G1 X125.874 Y117.192 E25.94583
G1 X125.874 Y142.223 E27.79001
G1 X125.808 Y143.090 E27.85403
G1 X125.598 Y143.987 E27.92194
G1 X125.251 Y144.841 E27.98985
G1 X124.774 Y145.630 E28.05776
G1 X124.180 Y146.335 E28.12567
G1 X123.483 Y146.938 E28.19359
G1 X122.700 Y147.424 E28.26150
G1 X121.851 Y147.783 E28.32941
G1 X120.956 Y148.003 E28.39732
G1 X120.037 Y148.082 E28.46523
G1 X119.044 Y148.003 E28.53862
G1 X118.149 Y147.783 E28.60653
G1 X117.366 Y147.458 E28.66896
G1 X116.577 Y146.982 E28.73688
G1 X115.873 Y146.388 E28.80479
G1 X115.226 Y145.630 E28.87818
G1 X114.783 Y144.908 E28.94061
G1 X114.452 Y144.123 E29.00332
G1 X114.402 Y143.987 E29.01401
G1 X114.204 Y143.163 E29.07644
G1 X114.126 Y142.223 E29.14594
G1 X114.126 Y117.192 E30.99012
G1 X114.192 Y116.325 E31.05414
G1 X114.402 Y115.428 E31.12205
G1 X114.749 Y114.574 E31.18996
G1 X115.202 Y113.823 E31.25456
G1 X115.725 Y114.119 F24000.000
G1 F2100
G1 X116.280 Y113.468 E31.31755
G1 X116.911 Y112.933 E31.37852
G1 X117.618 Y112.502 E31.43950
G1 X118.383 Y112.187 E31.50047
G1 X119.188 Y111.996 E31.56145
G1 X120.014 Y111.933 E31.62242
G1 X120.839 Y112.000 E31.68339
G1 X121.643 Y112.196 E31.74437
G1 X122.407 Y112.514 E31.80534
G1 X123.111 Y112.949 E31.86632
G1 X123.739 Y113.488 E31.92729
G1 X124.275 Y114.119 E31.98827
G1 X124.706 Y114.825 E32.04924
G1 X125.020 Y115.591 E32.11021
G1 X125.211 Y116.396 E32.17119
G1 X125.274 Y117.204 E32.23087
G1 X125.274 Y142.211 E34.07331
G1 X125.211 Y143.019 E34.13299
G1 X125.020 Y143.824 E34.19396
G1 X124.706 Y144.590 E34.25494
G1 X124.275 Y145.296 E34.31591
G1 X123.739 Y145.927 E34.37689
G1 X123.111 Y146.466 E34.43786
G1 X122.407 Y146.901 E34.49884
