; generated by Slic3r 1.3.0 on 2024-10-27 at 20:06:35

; Printer Config Notes: 
; No Retraction
; 
; external perimeters extrusion width = 0.33mm (0.80mm^3/s)
; perimeters extrusion width = 0.40mm (2.86mm^3/s)
; infill extrusion width = 0.80mm (9.08mm^3/s)
; solid infill extrusion width = 0.40mm (2.14mm^3/s)
; top infill extrusion width = 0.30mm (0.77mm^3/s)

M107
M190 S55 ; set bed temperature and wait for it to be reached
M104 S205 ; set temperature
G28 ; home all axes
G1 Z5 F5000 ; lift nozzle

; Filament gcode

M109 S205 ; set temperature and wait for it to be reached
G21 ; set units to millimeters
G90 ; use absolute coordinates
M82 ; use absolute distances for extrusion
G92 E0
G1 Z0.300 F24000.000
G1 E-4.00000 F2400.00000
G92 E0
G1 X93.154 Y89.812 F24000.000
G1 E4.00000 F2400.00000
G1 F2100
G1 X93.803 Y89.193 E4.05898
G1 X94.346 Y88.760 E4.10464
G1 X95.093 Y88.265 E4.16360
G1 X95.877 Y87.851 E4.22189
G1 X96.487 Y87.594 E4.26543
G1 X97.340 Y87.318 E4.32440
G1 X98.216 Y87.128 E4.38337
G1 X98.906 Y87.042 E4.42905
G1 X99.509 Y87.010 E4.46882
G1 X127.279 Y86.695 E6.29535
G1 X140.491 Y86.846 E7.16429
G1 X141.095 Y86.878 E7.20409
G1 X141.783 Y86.964 E7.24973
G1 X142.650 Y87.151 E7.30801
G1 X143.282 Y87.346 E7.35155
G1 X143.929 Y87.600 E7.39723
G1 X144.731 Y88.000 E7.45618
G1 X145.287 Y88.339 E7.49902
G1 X146.009 Y88.871 E7.55800
G1 X146.529 Y89.330 E7.60365
G1 X147.147 Y89.981 E7.66263
G1 X147.553 Y90.490 E7.70547
G1 X147.944 Y91.063 E7.75112
G1 X148.274 Y91.637 E7.79464
G1 X148.649 Y92.440 E7.85294
G1 X148.887 Y93.092 E7.89859
G1 X149.118 Y93.958 E7.95756
G1 X149.260 Y94.833 E8.01584
G1 X149.310 Y95.493 E8.05938
G1 X149.316 Y143.940 E11.24569
G1 X149.262 Y144.829 E11.30429
G1 X149.116 Y145.731 E11.36441
G1 X148.947 Y146.394 E11.40935
G1 X148.809 Y146.820 E11.43884
G1 X148.470 Y147.650 E11.49779
G1 X148.190 Y148.200 E11.53840
G1 X147.964 Y148.585 E11.56770
G1 X147.458 Y149.317 E11.62624
G1 X146.881 Y149.996 E11.68484
G1 X146.241 Y150.614 E11.74335
G1 X145.657 Y151.082 E11.79263
G1 X145.110 Y151.455 E11.83615
G1 X144.401 Y151.858 E11.88976
G1 X143.706 Y152.175 E11.94004
G1 X143.084 Y152.401 E11.98356
G1 X142.313 Y152.613 E12.03613
G1 X141.545 Y152.752 E12.08746
G1 X140.993 Y152.811 E12.12397
G1 X140.509 Y152.834 E12.15584
G1 X113.104 Y153.302 E13.95853
G1 X99.451 Y152.997 E14.85673
G1 X98.900 Y152.966 E14.89298
G1 X98.134 Y152.867 E14.94383
G1 X97.346 Y152.692 E14.99688
G1 X96.714 Y152.497 E15.04040
G1 X96.000 Y152.213 E15.09093
G1 X95.205 Y151.809 E15.14955
G1 X94.516 Y151.371 E15.20326
G1 X93.989 Y150.971 E15.24679
G1 X93.430 Y150.476 E15.29590
G1 X92.859 Y149.870 E15.35068
G1 X92.446 Y149.353 E15.39420
G1 X92.036 Y148.748 E15.44224
G1 X91.623 Y148.006 E15.49809
G1 X91.350 Y147.403 E15.54161
G1 X91.106 Y146.732 E15.58859
G1 X90.879 Y145.871 E15.64712
G1 X90.740 Y145.011 E15.70447
G1 X90.690 Y144.351 E15.74799
G1 X90.682 Y96.005 E18.92767
G1 X90.718 Y95.209 E18.98004
G1 X90.842 Y94.321 E19.03902
G1 X91.053 Y93.450 E19.09800
G1 X91.351 Y92.603 E19.15701
G1 X91.726 Y91.801 E19.21527
G1 X92.056 Y91.227 E19.25880
G1 X92.570 Y90.492 E19.31779
G1 X93.123 Y89.844 E19.37381
G1 X93.537 Y90.185 F24000.000
G1 F2100
G1 X94.147 Y89.603 E19.42928
G1 X94.669 Y89.187 E19.47319
G1 X95.373 Y88.722 E19.52864
G1 X96.110 Y88.334 E19.58341
G1 X96.670 Y88.097 E19.62344
G1 X97.472 Y87.837 E19.67890
G1 X98.296 Y87.658 E19.73436
G1 X98.959 Y87.575 E19.77828
G1 X99.516 Y87.545 E19.81494
G1 X127.279 Y87.231 E21.64107
G1 X140.484 Y87.381 E22.50961
G1 X141.041 Y87.411 E22.54629
G1 X141.703 Y87.494 E22.59018
G1 X142.517 Y87.670 E22.64495
G1 X143.099 Y87.849 E22.68498
G1 X143.721 Y88.093 E22.72890
G1 X144.475 Y88.470 E22.78433
G1 X145.188 Y88.920 E22.83980
G1 X145.665 Y89.281 E22.87914
G1 X146.165 Y89.723 E22.92303
G1 X146.745 Y90.335 E22.97849
G1 X147.118 Y90.803 E23.01782
G1 X147.494 Y91.354 E23.06171
G1 X147.905 Y92.090 E23.11718
G1 X148.151 Y92.635 E23.15651
G1 X148.379 Y93.263 E23.20040
G1 X148.596 Y94.078 E23.25587
G1 X148.729 Y94.900 E23.31065
G1 X148.775 Y95.507 E23.35067
G1 X148.781 Y143.927 E26.53522
G1 X148.731 Y144.764 E26.59037
G1 X148.593 Y145.612 E26.64691
G1 X148.431 Y146.249 E26.69010
G1 X148.301 Y146.650 E26.71783
G1 X147.982 Y147.430 E26.77327
G1 X147.724 Y147.936 E26.81066
G1 X147.512 Y148.298 E26.83823
G1 X147.036 Y148.987 E26.89332
G1 X146.494 Y149.626 E26.94845
G1 X145.892 Y150.208 E27.00351
G1 X145.334 Y150.656 E27.05055
G1 X144.831 Y150.998 E27.09055
G1 X144.161 Y151.379 E27.14127
G1 X143.498 Y151.681 E27.18918
G1 X142.926 Y151.889 E27.22919
G1 X142.196 Y152.090 E27.27900
G1 X141.466 Y152.222 E27.32781
G1 X140.954 Y152.277 E27.36165
G1 X140.500 Y152.299 E27.39154
G1 X113.116 Y152.767 E29.19283
G1 X99.464 Y152.462 E30.09095
G1 X98.954 Y152.433 E30.12456
G1 X98.225 Y152.339 E30.17287
G1 X97.478 Y152.173 E30.22319
G1 X96.897 Y151.994 E30.26319
G1 X96.217 Y151.724 E30.31132
G1 X95.470 Y151.343 E30.36648
G1 X94.818 Y150.928 E30.41728
G1 X94.333 Y150.561 E30.45729
G1 X93.800 Y150.088 E30.50418
G1 X93.260 Y149.515 E30.55592
G1 X92.881 Y149.040 E30.59592
G1 X92.488 Y148.462 E30.64189
G1 X92.099 Y147.762 E30.69455
G1 X91.849 Y147.208 E30.73456
G1 X91.615 Y146.564 E30.77960
G1 X91.402 Y145.754 E30.83468
G1 X91.271 Y144.944 E30.88863
G1 X91.225 Y144.338 E30.92864
G1 X91.218 Y96.005 E34.10744
G1 X91.252 Y95.249 E34.15718
G1 X91.369 Y94.414 E34.21265
G1 X91.569 Y93.595 E34.26812
G1 X91.849 Y92.799 E34.32361
G1 X92.202 Y92.045 E34.37836
G1 X92.506 Y91.518 E34.41839
G1 X92.989 Y90.826 E34.47386
G1 X93.507 Y90.218 E34.52637
G1 X94.100 Y90.734 F24000.000
G1 F2100
G1 X94.575 Y90.273 E34.57516
G1 X94.867 Y90.025 E34.60336
G1 X95.544 Y89.539 E34.66478
G1 X95.871 Y89.341 E34.69296
G1 X96.451 Y89.042 E34.74099
G1 X97.202 Y88.740 E34.80065
G1 X97.938 Y88.530 E34.85701
G1 X98.758 Y88.385 E34.91842
G1 X99.522 Y88.331 E34.97479
G1 X99.949 Y88.335 E35.00627
G1 X100.599 Y88.385 E35.05429
G1 X101.353 Y88.514 E35.11067
G1 X102.155 Y88.740 E35.17208
G1 X102.514 Y88.873 E35.20027
G1 X103.109 Y89.140 E35.24829
G1 X103.814 Y89.539 E35.30795
G1 X104.490 Y90.025 E35.36936
G1 X104.782 Y90.273 E35.39756
G1 X105.281 Y90.759 E35.44888
G1 X105.817 Y91.398 E35.51029
G1 X106.209 Y91.973 E35.56161
G1 X106.404 Y92.307 E35.59008
G1 X106.757 Y92.316 E35.61611
G1 X106.991 Y91.957 E35.64765
G1 X107.411 Y91.402 E35.69897
G1 X107.978 Y90.791 E35.76038
G1 X108.466 Y90.359 E35.80840
G1 X108.805 Y90.097 E35.83991
G1 X109.178 Y89.843 E35.87314
G1 X109.781 Y89.495 E35.92446
G1 X110.187 Y89.299 E35.95770
G1 X110.794 Y89.060 E36.00572
G1 X111.201 Y88.930 E36.03721
G1 X111.638 Y88.819 E36.07045
G1 X112.058 Y88.738 E36.10193
G1 X112.705 Y88.658 E36.14997
G1 X113.155 Y88.636 E36.18320
G1 X113.852 Y88.653 E36.23453
G1 X114.611 Y88.745 E36.29089
G1 X115.424 Y88.930 E36.35229
G1 X116.148 Y89.177 E36.40867
G1 X116.743 Y89.444 E36.45669
G1 X117.120 Y89.645 E36.48818
G1 X117.820 Y90.097 E36.54959
G1 X118.365 Y90.532 E36.60093
G1 X118.695 Y90.839 E36.63416
G1 X118.961 Y91.114 E36.66235
G1 X119.409 Y91.647 E36.71367
G1 X119.891 Y92.352 E36.77660
G1 X120.255 Y92.334 E36.80340
G1 X120.433 Y91.990 E36.83199
G1 X120.796 Y91.395 E36.88331
G1 X121.060 Y91.029 E36.91656
G1 X121.508 Y90.495 E36.96787
G1 X122.104 Y89.913 E37.02928
G1 X122.649 Y89.479 E37.08062
G1 X123.022 Y89.225 E37.11386
G1 X123.625 Y88.876 E37.16518
G1 X124.031 Y88.681 E37.19842
G1 X124.680 Y88.426 E37.24974
G1 X125.111 Y88.293 E37.28297
G1 X125.746 Y88.147 E37.33099
G1 X126.168 Y88.079 E37.36249
G1 X126.617 Y88.035 E37.39574
G1 X127.314 Y88.017 E37.44705
G1 X128.145 Y88.079 E37.50846
G1 X128.523 Y88.138 E37.53666
G1 X129.202 Y88.293 E37.58798
G1 X129.992 Y88.559 E37.64939
G1 X130.587 Y88.826 E37.69741
G1 X130.964 Y89.027 E37.72889
G1 X131.664 Y89.479 E37.79031
G1 X132.175 Y89.885 E37.83834
G1 X132.491 Y90.172 E37.86983
G1 X133.058 Y90.783 E37.93123
G1 X133.295 Y91.084 E37.95942
G1 X133.617 Y91.550 E38.00119
G1 X133.950 Y91.558 E38.02572
G1 X134.464 Y90.881 E38.08841
G1 X134.987 Y90.322 E38.14478
G1 X135.475 Y89.890 E38.19280
G1 X135.814 Y89.629 E38.22430
G1 X136.514 Y89.177 E38.28570
G1 X136.851 Y88.995 E38.31390
G1 X137.444 Y88.726 E38.36192
G1 X138.210 Y88.462 E38.42158
G1 X139.022 Y88.276 E38.48298
G1 X139.782 Y88.185 E38.53936
G1 X140.478 Y88.167 E38.59067
G1 X140.861 Y88.185 E38.61887
G1 X141.620 Y88.276 E38.67524
G1 X142.433 Y88.462 E38.73663
G1 X143.157 Y88.709 E38.79301
G1 X143.752 Y88.976 E38.84104
G1 X144.129 Y89.177 E38.87252
G1 X144.829 Y89.629 E38.93393
G1 X145.425 Y90.109 E38.99031
G1 X145.892 Y90.563 E39.03832
G1 X146.178 Y90.881 E39.06981
G1 X146.486 Y91.270 E39.10636
G1 X146.888 Y91.868 E39.15942
G1 X147.221 Y92.480 E39.21074
G1 X147.521 Y93.183 E39.26710
G1 X147.665 Y93.611 E39.30035
G1 X147.837 Y94.286 E39.35167
G1 X147.949 Y94.997 E39.40474
G1 X147.988 Y95.492 E39.44128
G1 X147.995 Y143.890 E43.00701
G1 X147.961 Y144.569 E43.05706
G1 X147.915 Y144.948 E43.08519
G1 X147.768 Y145.697 E43.14146
G1 X147.546 Y146.428 E43.19772
G1 X147.253 Y147.133 E43.25397
G1 X146.863 Y147.854 E43.31437
G1 X146.433 Y148.482 E43.37047
G1 X145.942 Y149.065 E43.42661
G1 X145.397 Y149.597 E43.48270
G1 X144.802 Y150.071 E43.53878
G1 X144.103 Y150.518 E43.59988
G1 X143.524 Y150.814 E43.64782
G1 X143.173 Y150.965 E43.67596
G1 X142.450 Y151.213 E43.73222
G1 X141.670 Y151.395 E43.79129
G1 X140.914 Y151.492 E43.84740
G1 X140.108 Y151.512 E43.90679
G1 X139.349 Y151.453 E43.96287
G1 X138.600 Y151.319 E44.01899
G1 X137.867 Y151.112 E44.07508
G1 X137.158 Y150.832 E44.13121
G1 X136.441 Y150.461 E44.19067
G1 X136.117 Y150.260 E44.21879
G1 X135.589 Y149.881 E44.26672
G1 X134.966 Y149.337 E44.32760
G1 X134.414 Y148.739 E44.38758
G1 X134.178 Y148.439 E44.41573
G1 X133.861 Y147.980 E44.45679
G1 X133.528 Y147.972 E44.48132
G1 X132.991 Y148.675 E44.54655
G1 X132.548 Y149.152 E44.59447
G1 X132.232 Y149.446 E44.62629
G1 X131.889 Y149.731 E44.65911
G1 X131.361 Y150.110 E44.70703
G1 X130.998 Y150.334 E44.73847
G1 X130.601 Y150.548 E44.77165
G1 X130.008 Y150.815 E44.81957
G1 X129.611 Y150.961 E44.85077
G1 X129.177 Y151.093 E44.88420
G1 X128.542 Y151.238 E44.93212
G1 X128.128 Y151.303 E44.96299
G1 X127.672 Y151.347 E44.99674
G1 X127.022 Y151.363 E45.04467
G1 X126.564 Y151.341 E45.07847
G1 X125.771 Y151.238 E45.13740
G1 X125.397 Y151.160 E45.16555
G1 X124.771 Y150.984 E45.21347
G1 X123.993 Y150.682 E45.27488
G1 X123.316 Y150.334 E45.33103
G1 X122.638 Y149.893 E45.39060
G1 X122.129 Y149.488 E45.43853
G1 X121.801 Y149.187 E45.47128
G1 X121.500 Y148.877 E45.50314
G1 X121.082 Y148.379 E45.55107
G1 X120.578 Y147.646 E45.61659
G1 X120.214 Y147.664 E45.64339
G1 X119.883 Y148.274 E45.69452
G1 X119.646 Y148.642 E45.72674
G1 X119.387 Y148.997 E45.75913
G1 X118.969 Y149.495 E45.80707
G1 X118.622 Y149.849 E45.84353
G1 X118.134 Y150.279 E45.89147
G1 X117.793 Y150.539 E45.92309
G1 X117.421 Y150.790 E45.95609
G1 X116.858 Y151.115 E46.00402
G1 X116.476 Y151.301 E46.03535
G1 X116.058 Y151.474 E46.06864
G1 X115.403 Y151.693 E46.11953
G1 X114.962 Y151.803 E46.15304
G1 X114.284 Y151.921 E46.20370
G1 X113.828 Y151.965 E46.23745
G1 X113.178 Y151.981 E46.28538
G1 X112.720 Y151.960 E46.31918
G1 X112.304 Y151.916 E46.34999
G1 X111.663 Y151.803 E46.39792
G1 X111.222 Y151.693 E46.43143
G1 X110.819 Y151.566 E46.46254
G1 X110.213 Y151.329 E46.51047
G1 X109.807 Y151.135 E46.54366
G1 X109.433 Y150.930 E46.57510
G1 X108.886 Y150.577 E46.62303
G1 X108.529 Y150.310 E46.65589
G1 X108.200 Y150.032 E46.68764
G1 X107.734 Y149.578 E46.73555
G1 X107.439 Y149.248 E46.76814
G1 X107.169 Y148.907 E46.80019
G1 X106.802 Y148.370 E46.84812
G1 X106.587 Y148.006 E46.87927
G1 X106.234 Y147.997 E46.90530
G1 X105.979 Y148.385 E46.93950
G1 X105.586 Y148.903 E46.98742
G1 X105.034 Y149.501 E47.04740
G1 X104.706 Y149.802 E47.08015
G1 X104.197 Y150.207 E47.12808
G1 X103.520 Y150.648 E47.18765
G1 X102.842 Y150.996 E47.24380
G1 X102.065 Y151.298 E47.30521
G1 X101.438 Y151.474 E47.35314
G1 X101.065 Y151.552 E47.38127
G1 X100.272 Y151.655 E47.44019
G1 X99.431 Y151.674 E47.50213
G1 X99.050 Y151.652 E47.53026
G1 X98.404 Y151.572 E47.57819
G1 X97.588 Y151.388 E47.63982
G1 X96.827 Y151.129 E47.69905
G1 X96.476 Y150.978 E47.72719
G1 X95.897 Y150.682 E47.77513
G1 X95.198 Y150.235 E47.83623
G1 X94.566 Y149.727 E47.89598
G1 X94.288 Y149.466 E47.92412
G1 X93.845 Y148.989 E47.97205
G1 X93.535 Y148.603 E48.00853
G1 X93.137 Y148.018 E48.06066
G1 X92.797 Y147.399 E48.11272
G1 X92.591 Y146.948 E48.14919
G1 X92.352 Y146.288 E48.20092
G1 X92.162 Y145.551 E48.25702
G1 X92.051 Y144.845 E48.30965
G1 X92.012 Y144.351 E48.34613
G1 X92.004 Y95.988 E51.90928
G1 X92.039 Y95.274 E51.96193
G1 X92.150 Y94.517 E52.01831
G1 X92.335 Y93.775 E52.07467
G1 X92.594 Y93.054 E52.13106
G1 X92.923 Y92.364 E52.18741
G1 X93.148 Y91.973 E52.22065
G1 X93.582 Y91.343 E52.27702
G1 X94.069 Y90.767 E52.33260
G1 E48.33260 F2400.00000
G92 E0
G1 X94.815 Y91.018 F24000.000
G1 X93.562 Y89.077 F24000.000
G1 X96.323 Y88.263 F24000.000
G1 X99.668 Y87.913 F24000.000
G1 X103.408 Y88.346 F24000.000
G1 X106.626 Y89.409 F24000.000
G1 X106.630 Y92.494 F24000.000
G1 X106.507 Y93.525 F24000.000
G1 X106.342 Y93.623 F24000.000
G1 E4.00000 F2400.00000
G1 F2100
G1 X106.760 Y93.633 E4.03080
G1 X106.950 Y93.215 E4.06465
G1 X107.262 Y92.642 E4.11267
G1 X107.482 Y92.301 E4.14261
G1 X107.876 Y91.782 E4.19062
G1 X108.145 Y91.477 E4.22055
G1 X108.651 Y90.986 E4.27251
G1 X109.161 Y90.580 E4.32054
G1 X109.497 Y90.351 E4.35047
G1 X110.061 Y90.025 E4.39848
G1 X110.427 Y89.849 E4.42842
G1 X111.034 Y89.611 E4.47644
G1 X111.422 Y89.491 E4.50636
G1 X112.021 Y89.354 E4.55163
G1 X112.406 Y89.292 E4.58037
G1 X112.811 Y89.252 E4.61031
G1 X113.462 Y89.236 E4.65832
G1 X113.868 Y89.256 E4.68826
G1 X114.514 Y89.337 E4.73627
G1 X115.290 Y89.517 E4.79491
G1 X115.872 Y89.713 E4.84019
G1 X116.246 Y89.871 E4.87012
G1 X116.826 Y90.168 E4.91813
G1 X117.173 Y90.380 E4.94807
G1 X117.702 Y90.761 E4.99609
G1 X118.014 Y91.022 E5.02602
G1 X118.480 Y91.477 E5.07404
G1 X118.749 Y91.782 E5.10397
G1 X119.142 Y92.301 E5.15199
G1 X119.363 Y92.642 E5.18192
G1 X119.675 Y93.215 E5.22994
G1 X119.915 Y93.758 E5.27372
G1 X120.350 Y93.742 E5.30579
G1 X120.518 Y93.245 E5.34444
G1 X120.771 Y92.645 E5.39246
G1 X120.957 Y92.283 E5.42240
G1 X121.296 Y91.727 E5.47040
G1 X121.534 Y91.397 E5.50035
G1 X121.952 Y90.898 E5.54836
G1 X122.455 Y90.404 E5.60031
G1 X122.767 Y90.142 E5.63026
G1 X123.296 Y89.762 E5.67827
G1 X123.643 Y89.550 E5.70821
G1 X124.223 Y89.253 E5.75623
G1 X124.843 Y89.005 E5.80543
G1 X125.266 Y88.873 E5.83811
G1 X125.902 Y88.728 E5.88613
G1 X126.304 Y88.667 E5.91607
G1 X126.953 Y88.619 E5.96408
G1 X127.360 Y88.619 E5.99400
G1 X128.010 Y88.667 E6.04203
G1 X128.411 Y88.728 E6.07197
G1 X129.047 Y88.873 E6.11999
G1 X129.435 Y88.993 E6.14992
G1 X130.042 Y89.231 E6.19795
G1 X130.408 Y89.407 E6.22787
G1 X130.972 Y89.733 E6.27589
G1 X131.308 Y89.962 E6.30582
G1 X131.818 Y90.368 E6.35384
G1 X132.115 Y90.644 E6.38377
G1 X132.559 Y91.122 E6.43178
G1 X132.812 Y91.440 E6.46172
G1 X133.179 Y91.978 E6.50974
G1 X133.585 Y92.726 E6.57239
G1 X133.970 Y92.726 E6.60075
G1 X134.271 Y92.174 E6.64703
G1 X134.491 Y91.833 E6.67697
G1 X134.861 Y91.343 E6.72222
G1 X135.117 Y91.048 E6.75096
G1 X135.660 Y90.518 E6.80686
G1 X136.170 Y90.112 E6.85489
G1 X136.506 Y89.883 E6.88482
G1 X137.037 Y89.575 E6.93008
G1 X137.387 Y89.403 E6.95883
G1 X138.094 Y89.126 E7.01472
G1 X138.467 Y89.014 E7.04346
G1 X139.066 Y88.878 E7.08872
G1 X139.819 Y88.784 E7.14463
G1 X140.172 Y88.767 E7.17062
G1 X140.823 Y88.784 E7.21863
G1 X141.228 Y88.824 E7.24857
G1 X141.833 Y88.930 E7.29383
G1 X142.600 Y89.143 E7.35248
G1 X143.172 Y89.366 E7.39775
G1 X143.525 Y89.533 E7.42649
G1 X144.182 Y89.912 E7.48238
G1 X144.711 Y90.292 E7.53040
G1 X144.982 Y90.518 E7.55640
G1 X145.280 Y90.795 E7.58632
G1 X145.723 Y91.272 E7.63434
G1 X146.182 Y91.877 E7.69024
G1 X146.503 Y92.401 E7.73551
G1 X146.683 Y92.747 E7.76425
G1 X146.851 Y93.117 E7.79418
G1 X147.073 Y93.729 E7.84220
G1 X147.184 Y94.120 E7.87213
G1 X147.313 Y94.759 E7.92015
G1 X147.363 Y95.162 E7.95008
G1 X147.395 Y95.801 E7.99717
G1 X147.388 Y144.165 E11.56041
G1 X147.313 Y144.916 E11.61602
