; generated by Slic3r 1.3.0 on 2024-11-01 at 10:35:36

; Print Config Notes: 
; Cubic Infill Pattern 20 % density
; 
; Printer Config Notes: 
; No Retraction
; 
; external perimeters extrusion width = 0.33mm (2.01mm^3/s)
; perimeters extrusion width = 0.40mm (7.14mm^3/s)
; infill extrusion width = 0.80mm (18.17mm^3/s)
; solid infill extrusion width = 0.40mm (4.28mm^3/s)
; top infill extrusion width = 0.30mm (1.54mm^3/s)

M107
M190 S55 ; set bed temperature and wait for it to be reached
M104 S205 ; set temperature
G28 ; home all axes
G1 Z5 F5000 ; lift nozzle

; Filament gcode

M109 S205 ; set temperature and wait for it to be reached
G21 ; set units to millimeters
G90 ; use absolute coordinates
M82 ; use absolute distances for extrusion
G92 E0
G1 Z0.300 F24000.000
G1 E-4.00000 F2400.00000
G92 E0
G1 X111.731 Y102.539 F24000.000
G1 E4.00000 F2400.00000
G1 F2100
G1 X112.334 Y101.920 E4.05685
G1 X112.747 Y101.547 E4.09342
G1 X113.373 Y101.048 E4.14608
G1 X113.828 Y100.729 E4.18261
G1 X114.566 Y100.278 E4.23950
G1 X115.057 Y100.019 E4.27603
G1 X115.787 Y99.690 E4.32871
G1 X116.600 Y99.394 E4.38559
G1 X117.371 Y99.177 E4.43826
G1 X117.914 Y99.059 E4.47482
G1 X118.769 Y98.930 E4.53167
G1 X119.568 Y98.871 E4.58435
G1 X120.429 Y98.870 E4.64101
G1 X120.987 Y98.906 E4.67776
G1 X121.781 Y99.006 E4.73043
G1 X122.629 Y99.177 E4.78731
G1 X123.400 Y99.394 E4.83999
G1 X123.925 Y99.577 E4.87654
G1 X124.722 Y99.912 E4.93340
G1 X125.219 Y100.160 E4.96993
G1 X125.912 Y100.561 E5.02260
G1 X126.375 Y100.867 E5.05913
G1 X127.065 Y101.390 E5.11601
G1 X127.665 Y101.919 E5.16868
G1 X128.269 Y102.539 E5.22557
G1 X128.631 Y102.960 E5.26210
G1 X128.971 Y103.399 E5.29862
G1 X129.422 Y104.061 E5.35129
G1 X129.855 Y104.810 E5.40818
G1 X130.200 Y105.527 E5.46056
G1 X130.412 Y106.045 E5.49738
G1 X130.688 Y106.865 E5.55427
G1 X130.885 Y107.642 E5.60695
G1 X131.035 Y108.493 E5.66383
G1 X131.115 Y109.290 E5.71650
G1 X131.139 Y110.001 E5.76327
G1 X131.139 Y129.999 E7.07853
G1 X131.115 Y130.710 E7.12530
G1 X131.066 Y131.263 E7.16181
G1 X130.989 Y131.813 E7.19836
G1 X130.885 Y132.358 E7.23488
G1 X130.688 Y133.135 E7.28755
G1 X130.518 Y133.664 E7.32411
G1 X130.203 Y134.466 E7.38079
G1 X129.857 Y135.186 E7.43335
G1 X129.584 Y135.675 E7.47016
G1 X129.114 Y136.402 E7.52705
G1 X128.784 Y136.848 E7.56358
G1 X128.269 Y137.461 E7.61625
G1 X127.665 Y138.081 E7.67314
G1 X127.068 Y138.608 E7.72552
G1 X126.627 Y138.952 E7.76235
G1 X125.912 Y139.439 E7.81922
G1 X125.222 Y139.838 E7.87160
G1 X124.722 Y140.088 E7.90842
G1 X123.925 Y140.423 E7.96530
G1 X123.165 Y140.679 E8.01798
G1 X122.629 Y140.823 E8.05450
G1 X122.086 Y140.941 E8.09102
G1 X121.538 Y141.031 E8.12755
G1 X120.987 Y141.094 E8.16408
G1 X120.433 Y141.129 E8.20059
G1 X119.877 Y141.137 E8.23713
G1 X119.322 Y141.117 E8.27366
G1 X118.773 Y141.070 E8.30989
G1 X117.914 Y140.941 E8.36706
G1 X117.371 Y140.823 E8.40359
G1 X116.835 Y140.679 E8.44011
G1 X116.306 Y140.507 E8.47664
G1 X115.787 Y140.310 E8.51316
G1 X115.279 Y140.088 E8.54968
G1 X114.781 Y139.840 E8.58622
G1 X114.297 Y139.567 E8.62274
G1 X113.828 Y139.271 E8.65926
G1 X113.373 Y138.952 E8.69579
G1 X112.935 Y138.610 E8.73231
G1 X112.515 Y138.248 E8.76884
G1 X112.113 Y137.864 E8.80536
G1 X111.731 Y137.461 E8.84189
G1 X111.369 Y137.040 E8.87841
G1 X111.029 Y136.601 E8.91494
G1 X110.711 Y136.146 E8.95146
G1 X110.416 Y135.675 E8.98799
G1 X110.145 Y135.190 E9.02452
G1 X109.899 Y134.693 E9.06104
G1 X109.678 Y134.183 E9.09756
G1 X109.482 Y133.663 E9.13409
G1 X109.312 Y133.135 E9.17061
G1 X109.115 Y132.359 E9.22328
G1 X108.965 Y131.507 E9.28017
G1 X108.885 Y130.714 E9.33256
G1 X108.863 Y130.153 E9.36951
G1 X108.861 Y110.001 E10.69488
G1 X108.903 Y109.045 E10.75780
G1 X108.965 Y108.493 E10.79432
G1 X109.053 Y107.949 E10.83056
G1 X109.246 Y107.102 E10.88773
G1 X109.482 Y106.337 E10.94040
G1 X109.798 Y105.531 E10.99730
G1 X110.145 Y104.810 E11.04996
G1 X110.578 Y104.061 E11.10685
G1 X111.029 Y103.399 E11.15952
G1 X111.369 Y102.960 E11.19608
G1 X111.701 Y102.572 E11.22961
G1 X112.132 Y102.893 F24000.000
G1 F2100
G1 X112.699 Y102.312 E11.28296
G1 X113.091 Y101.958 E11.31776
G1 X113.697 Y101.475 E11.36867
G1 X114.129 Y101.171 E11.40344
G1 X114.822 Y100.748 E11.45682
G1 X115.290 Y100.502 E11.49159
G1 X115.995 Y100.183 E11.54252
G1 X116.758 Y99.906 E11.59588
G1 X117.503 Y99.696 E11.64680
G1 X118.020 Y99.584 E11.68160
G1 X118.822 Y99.463 E11.73494
G1 X119.594 Y99.406 E11.78586
G1 X120.403 Y99.405 E11.83903
G1 X120.933 Y99.439 E11.87400
G1 X121.702 Y99.535 E11.92492
G1 X122.497 Y99.696 E11.97829
G1 X123.242 Y99.906 E12.02921
G1 X123.742 Y100.080 E12.06401
G1 X124.489 Y100.395 E12.11736
G1 X124.962 Y100.631 E12.15213
G1 X125.633 Y101.018 E12.20304
G1 X126.074 Y101.310 E12.23782
G1 X126.720 Y101.800 E12.29119
G1 X127.301 Y102.312 E12.34210
G1 X127.675 Y102.686 E12.37687
G1 X128.212 Y103.294 E12.43025
G1 X128.536 Y103.712 E12.46501
G1 X128.972 Y104.351 E12.51593
G1 X129.378 Y105.054 E12.56931
G1 X129.712 Y105.748 E12.61993
G1 X129.914 Y106.241 E12.65499
G1 X130.172 Y107.010 E12.70837
G1 X130.363 Y107.761 E12.75929
G1 X130.504 Y108.560 E12.81266
G1 X130.581 Y109.330 E12.86357
G1 X130.603 Y110.001 E12.90771
G1 X130.603 Y129.999 E14.22297
G1 X130.581 Y130.670 E14.26711
G1 X130.535 Y131.196 E14.30186
G1 X130.462 Y131.720 E14.33665
G1 X130.363 Y132.239 E14.37141
G1 X130.172 Y132.990 E14.42233
G1 X130.010 Y133.493 E14.45713
G1 X129.715 Y134.246 E14.51032
G1 X129.490 Y134.727 E14.54525
G1 X129.120 Y135.407 E14.59616
G1 X128.839 Y135.855 E14.63093
G1 X128.365 Y136.514 E14.68431
G1 X127.868 Y137.107 E14.73522
G1 X127.301 Y137.688 E14.78860
G1 X126.724 Y138.197 E14.83922
G1 X126.303 Y138.525 E14.87430
G1 X125.633 Y138.982 E14.92766
G1 X124.962 Y139.370 E14.97862
G1 X124.231 Y139.721 E15.03195
G1 X123.511 Y140.004 E15.08286
G1 X123.008 Y140.167 E15.11763
G1 X122.497 Y140.304 E15.15240
G1 X121.980 Y140.416 E15.18717
G1 X121.459 Y140.501 E15.22194
G1 X120.933 Y140.561 E15.25671
G1 X120.406 Y140.594 E15.29147
G1 X119.877 Y140.602 E15.32624
G1 X119.349 Y140.582 E15.36102
G1 X118.827 Y140.537 E15.39549
G1 X118.020 Y140.416 E15.44916
G1 X117.503 Y140.304 E15.48393
G1 X116.992 Y140.167 E15.51869
G1 X116.489 Y140.004 E15.55347
G1 X115.995 Y139.817 E15.58823
G1 X115.511 Y139.605 E15.62299
G1 X115.038 Y139.369 E15.65777
G1 X114.577 Y139.110 E15.69254
G1 X114.129 Y138.829 E15.72731
G1 X113.697 Y138.525 E15.76208
G1 X113.280 Y138.200 E15.79684
G1 X112.879 Y137.855 E15.83161
G1 X112.496 Y137.490 E15.86638
G1 X112.132 Y137.107 E15.90115
G1 X111.788 Y136.706 E15.93592
G1 X111.464 Y136.288 E15.97069
G1 X111.161 Y135.855 E16.00545
G1 X110.880 Y135.407 E16.04022
G1 X110.622 Y134.946 E16.07499
G1 X110.387 Y134.472 E16.10976
G1 X110.176 Y133.987 E16.14453
G1 X109.990 Y133.493 E16.17930
G1 X109.828 Y132.990 E16.21407
G1 X109.637 Y132.239 E16.26498
G1 X109.496 Y131.440 E16.31836
G1 X109.419 Y130.674 E16.36898
G1 X109.399 Y130.139 E16.40418
G1 X109.397 Y110.001 E17.72867
G1 X109.437 Y109.085 E17.78896
G1 X109.538 Y108.280 E17.84233
G1 X109.637 Y107.762 E17.87700
G1 X109.761 Y107.247 E17.91187
G1 X109.990 Y106.507 E17.96278
G1 X110.286 Y105.752 E18.01616
G1 X110.622 Y105.054 E18.06707
G1 X111.028 Y104.351 E18.12045
G1 X111.464 Y103.712 E18.17137
G1 X112.103 Y102.927 E18.23792
G1 X112.534 Y103.247 F24000.000
G1 F2100
G1 X113.063 Y102.705 E18.28776
G1 X113.436 Y102.368 E18.32080
G1 X114.020 Y101.902 E18.36996
G1 X114.431 Y101.614 E18.40297
G1 X115.078 Y101.219 E18.45284
G1 X115.522 Y100.984 E18.48585
G1 X116.203 Y100.677 E18.53502
G1 X116.916 Y100.417 E18.58487
G1 X117.635 Y100.215 E18.63403
G1 X118.126 Y100.109 E18.66707
G1 X118.876 Y99.996 E18.71691
G1 X119.621 Y99.940 E18.76607
G1 X120.376 Y99.940 E18.81575
G1 X120.880 Y99.972 E18.84895
G1 X121.622 Y100.065 E18.89811
G1 X122.365 Y100.215 E18.94797
G1 X123.084 Y100.417 E18.99713
G1 X123.558 Y100.583 E19.03016
G1 X124.257 Y100.878 E19.08000
G1 X124.706 Y101.101 E19.11302
G1 X125.353 Y101.475 E19.16217
G1 X125.772 Y101.752 E19.19520
G1 X126.376 Y102.210 E19.24505
G1 X126.937 Y102.705 E19.29421
G1 X127.466 Y103.247 E19.34408
G1 X127.793 Y103.628 E19.37709
G1 X128.245 Y104.224 E19.42624
G1 X128.656 Y104.861 E19.47611
G1 X129.013 Y105.517 E19.52527
G1 X129.226 Y105.973 E19.55833
G1 X129.503 Y106.678 E19.60815
G1 X129.723 Y107.392 E19.65730
G1 X129.841 Y107.880 E19.69033
G1 X129.973 Y108.627 E19.74019
G1 X130.047 Y109.370 E19.78934
G1 X130.067 Y110.001 E19.83084
G1 X130.067 Y129.999 E21.14611
G1 X130.047 Y130.630 E21.18761
G1 X130.003 Y131.130 E21.22060
G1 X129.934 Y131.627 E21.25364
G1 X129.841 Y132.120 E21.28665
G1 X129.656 Y132.844 E21.33580
G1 X129.503 Y133.323 E21.36884
G1 X129.227 Y134.026 E21.41854
G1 X128.901 Y134.702 E21.46790
G1 X128.522 Y135.358 E21.51771
G1 X128.104 Y135.972 E21.56657
G1 X127.793 Y136.372 E21.59987
G1 X127.292 Y136.941 E21.64975
G1 X126.757 Y137.462 E21.69890
G1 X126.376 Y137.790 E21.73194
G1 X125.772 Y138.248 E21.78178
G1 X125.144 Y138.653 E21.83093
G1 X124.706 Y138.899 E21.86399
G1 X124.023 Y139.228 E21.91381
G1 X123.327 Y139.501 E21.96297
G1 X122.603 Y139.724 E22.01284
G1 X122.115 Y139.842 E22.04585
G1 X121.622 Y139.935 E22.07886
G1 X121.124 Y140.004 E22.11188
G1 X120.624 Y140.047 E22.14488
G1 X120.123 Y140.066 E22.17790
G1 X119.621 Y140.060 E22.21088
G1 X118.623 Y139.972 E22.27681
G1 X118.126 Y139.891 E22.30993
G1 X117.635 Y139.785 E22.34294
G1 X117.150 Y139.655 E22.37595
G1 X116.673 Y139.501 E22.40897
G1 X116.203 Y139.323 E22.44197
G1 X115.743 Y139.122 E22.47498
G1 X115.294 Y138.899 E22.50800
G1 X114.856 Y138.653 E22.54101
G1 X114.431 Y138.386 E22.57402
G1 X114.020 Y138.098 E22.60704
G1 X113.624 Y137.790 E22.64005
G1 X113.243 Y137.462 E22.67306
G1 X112.880 Y137.116 E22.70607
G1 X112.534 Y136.753 E22.73908
G1 X112.207 Y136.372 E22.77210
G1 X111.899 Y135.976 E22.80511
G1 X111.477 Y135.358 E22.85429
G1 X111.221 Y134.926 E22.88733
G1 X110.987 Y134.483 E22.92030
G1 X110.774 Y134.028 E22.95334
G1 X110.585 Y133.563 E22.98631
G1 X110.419 Y133.089 E23.01935
G1 X110.277 Y132.608 E23.05235
G1 X110.108 Y131.869 E23.10221
G1 X110.027 Y131.373 E23.13522
G1 X109.953 Y130.634 E23.18409
G1 X109.934 Y130.126 E23.21752
G1 X109.933 Y110.001 E24.54114
G1 X109.971 Y109.125 E24.59879
G1 X110.108 Y108.135 E24.66451
G1 X110.277 Y107.392 E24.71466
G1 X110.497 Y106.678 E24.76382
G1 X110.774 Y105.972 E24.81368
G1 X111.099 Y105.299 E24.86284
G1 X111.478 Y104.642 E24.91271
G1 X111.899 Y104.024 E24.96186
G1 X112.504 Y103.281 E25.02491
G1 X112.936 Y103.602 F24000.000
G1 F2100
G1 X113.427 Y103.098 E25.07124
G1 X113.780 Y102.778 E25.10252
G1 X114.343 Y102.329 E25.14992
G1 X114.733 Y102.057 E25.18118
G1 X115.334 Y101.689 E25.22753
G1 X115.754 Y101.467 E25.25879
G1 X116.411 Y101.170 E25.30619
G1 X117.074 Y100.929 E25.35254
G1 X117.767 Y100.734 E25.39994
G1 X118.232 Y100.634 E25.43122
G1 X118.929 Y100.529 E25.47755
G1 X119.648 Y100.475 E25.52496
G1 X120.350 Y100.475 E25.57114
G1 X120.827 Y100.505 E25.60256
G1 X121.542 Y100.594 E25.64997
G1 X122.233 Y100.734 E25.69632
G1 X122.926 Y100.929 E25.74372
G1 X123.375 Y101.087 E25.77500
G1 X124.024 Y101.360 E25.82133
G1 X124.450 Y101.572 E25.85259
G1 X125.074 Y101.932 E25.89998
G1 X125.470 Y102.195 E25.93125
G1 X126.032 Y102.620 E25.97760
G1 X126.572 Y103.097 E26.02500
G1 X126.908 Y103.433 E26.05625
G1 X127.375 Y103.962 E26.10261
G1 X127.810 Y104.536 E26.15001
G1 X128.192 Y105.129 E26.19636
G1 X128.537 Y105.761 E26.24376
G1 X128.738 Y106.193 E26.27506
G1 X128.995 Y106.848 E26.32137
G1 X129.207 Y107.537 E26.36877
G1 X129.319 Y107.999 E26.40004
G1 X129.441 Y108.693 E26.44639
G1 X129.513 Y109.410 E26.49378
G1 X129.532 Y110.001 E26.53265
G1 X129.532 Y129.999 E27.84792
G1 X129.513 Y130.590 E27.88679
G1 X129.472 Y131.063 E27.91803
G1 X129.319 Y132.001 E27.98053
G1 X129.141 Y132.699 E28.02794
G1 X128.995 Y133.152 E28.05921
G1 X128.738 Y133.806 E28.10542
G1 X128.424 Y134.458 E28.15300
G1 X128.072 Y135.068 E28.19931
G1 X127.669 Y135.659 E28.24641
G1 X127.375 Y136.038 E28.27796
G1 X126.908 Y136.567 E28.32431
G1 X126.392 Y137.070 E28.37171
G1 X126.032 Y137.380 E28.40299
G1 X125.470 Y137.805 E28.44932
G1 X124.865 Y138.196 E28.49672
G1 X124.450 Y138.429 E28.52802
G1 X123.815 Y138.734 E28.57433
G1 X123.144 Y138.998 E28.62173
G1 X122.471 Y139.205 E28.66809
G1 X121.542 Y139.406 E28.73058
G1 X120.598 Y139.512 E28.79307
G1 X119.648 Y139.525 E28.85554
G1 X118.702 Y139.442 E28.91797
G1 X117.767 Y139.266 E28.98055
G1 X116.856 Y138.998 E29.04305
G1 X115.976 Y138.640 E29.10553
G1 X115.135 Y138.196 E29.16803
G1 X114.343 Y137.671 E29.23052
G1 X113.608 Y137.070 E29.29301
G1 X113.092 Y136.566 E29.34042
G1 X112.472 Y135.846 E29.40290
G1 X111.927 Y135.067 E29.46542
G1 X111.463 Y134.238 E29.52790
G1 X111.084 Y133.368 E29.59038
G1 X110.793 Y132.463 E29.65288
G1 X110.636 Y131.776 E29.69923
G1 X110.559 Y131.307 E29.73048
G1 X110.487 Y130.594 E29.77760
G1 X110.470 Y130.113 E29.80926
G1 X110.468 Y110.001 E31.13202
G1 X110.487 Y109.410 E31.17089
G1 X110.559 Y108.693 E31.21828
G1 X110.682 Y107.996 E31.26484
G1 X110.927 Y107.082 E31.32709
G1 X111.173 Y106.404 E31.37453
G1 X111.575 Y105.543 E31.43702
G1 X111.928 Y104.933 E31.48338
G1 X112.334 Y104.337 E31.53078
G1 X112.906 Y103.636 E31.59032
G1 X113.337 Y103.956 F24000.000
G1 F2100
G1 X113.792 Y103.490 E31.63314
G1 X114.124 Y103.189 E31.66266
G1 X114.667 Y102.756 E31.70830
G1 X115.035 Y102.499 E31.73780
G1 X115.415 Y102.261 E31.76730
G1 X115.987 Y101.949 E31.81015
G1 X116.619 Y101.664 E31.85580
G1 X117.231 Y101.441 E31.89863
G1 X117.900 Y101.253 E31.94428
G1 X118.338 Y101.159 E31.97380
G1 X118.982 Y101.062 E32.01662
G1 X119.674 Y101.010 E32.06226
G1 X120.323 Y101.010 E32.10496
G1 X120.773 Y101.038 E32.13460
G1 X121.462 Y101.124 E32.18025
G1 X122.100 Y101.253 E32.22309
G1 X122.769 Y101.441 E32.26873
G1 X123.192 Y101.590 E32.29825
G1 X123.792 Y101.843 E32.34108
G1 X124.194 Y102.042 E32.37058
G1 X124.795 Y102.389 E32.41622
G1 X125.168 Y102.637 E32.44573
G1 X125.688 Y103.031 E32.48856
G1 X126.208 Y103.490 E32.53421
G1 X126.525 Y103.807 E32.56371
G1 X126.956 Y104.296 E32.60655
G1 X127.375 Y104.849 E32.65219
G1 X127.728 Y105.396 E32.69504
G1 X128.060 Y106.006 E32.74068
G1 X128.249 Y106.413 E32.77022
G1 X128.487 Y107.019 E32.81302
G1 X128.692 Y107.682 E32.85866
G1 X128.797 Y108.118 E32.88818
G1 X128.910 Y108.760 E32.93101
G1 X128.979 Y109.450 E32.97665
G1 X128.996 Y110.001 E33.01289
G1 X128.996 Y129.999 E34.32815
G1 X128.979 Y130.550 E34.36438
G1 X128.940 Y130.996 E34.39387
G1 X128.796 Y131.882 E34.45286
G1 X128.625 Y132.554 E34.49851
G1 X128.487 Y132.981 E34.52803
G1 X128.250 Y133.586 E34.57074
G1 X127.948 Y134.213 E34.61654
G1 X127.622 Y134.777 E34.65934
G1 X127.234 Y135.347 E34.70469
G1 X126.956 Y135.704 E34.73448
G1 X126.525 Y136.193 E34.77733
G1 X126.028 Y136.677 E34.82297
G1 X125.687 Y136.969 E34.85249
G1 X125.168 Y137.363 E34.89531
G1 X124.585 Y137.739 E34.94095
G1 X124.013 Y138.051 E34.98380
G1 X123.385 Y138.334 E35.02915
G1 X122.961 Y138.494 E35.05894
G1 X122.339 Y138.686 E35.10178
G1 X121.462 Y138.876 E35.16077
G1 X120.571 Y138.977 E35.21974
G1 X119.675 Y138.990 E35.27870
G1 X118.782 Y138.913 E35.33763
G1 X117.899 Y138.747 E35.39669
G1 X117.039 Y138.494 E35.45567
G1 X116.208 Y138.157 E35.51464
G1 X115.415 Y137.739 E35.57363
G1 X114.832 Y137.363 E35.61927
G1 X114.124 Y136.811 E35.67825
G1 X113.475 Y136.192 E35.73724
G1 X112.891 Y135.512 E35.79621
G1 X112.377 Y134.777 E35.85522
G1 X111.940 Y133.994 E35.91419
G1 X111.582 Y133.172 E35.97316
G1 X111.308 Y132.318 E36.03214
G1 X111.163 Y131.683 E36.07498
G1 X111.090 Y131.240 E36.10448
G1 X111.022 Y130.554 E36.14984
G1 X111.005 Y130.100 E36.17974
G1 X111.004 Y110.001 E37.50162
G1 X111.021 Y109.450 E37.53786
G1 X111.090 Y108.760 E37.58350
G1 X111.204 Y108.115 E37.62656
G1 X111.434 Y107.252 E37.68529
G1 X111.672 Y106.600 E37.73097
G1 X112.052 Y105.787 E37.78995
G1 X112.378 Y105.223 E37.83279
G1 X112.769 Y104.650 E37.87844
G1 X113.307 Y103.990 E37.93446
G1 X113.739 Y104.311 F24000.000
G1 F2100
G1 X114.156 Y103.883 E37.97377
G1 X114.469 Y103.599 E38.00153
G1 X114.990 Y103.183 E38.04542
G1 X115.484 Y102.846 E38.08475
G1 X116.062 Y102.512 E38.12864
