; generated by Slic3r 1.3.0 on 2024-10-27 at 21:11:25

; Print Config Notes: 
; Cubic Infill Pattern 20 % density
; 
; Printer Config Notes: 
; No Retraction
; 
; external perimeters extrusion width = 0.33mm (2.01mm^3/s)
; perimeters extrusion width = 0.40mm (7.14mm^3/s)
; infill extrusion width = 0.80mm (18.17mm^3/s)
; solid infill extrusion width = 0.40mm (4.28mm^3/s)
; top infill extrusion width = 0.30mm (1.54mm^3/s)

M107
M190 S55 ; set bed temperature and wait for it to be reached
M104 S205 ; set temperature
G28 ; home all axes
G1 Z5 F5000 ; lift nozzle

; Filament gcode

M109 S205 ; set temperature and wait for it to be reached
G21 ; set units to millimeters
G90 ; use absolute coordinates
M82 ; use absolute distances for extrusion
G92 E0
G1 Z0.300 F24000.000
G1 E-4.00000 F2400.00000
G92 E0
G1 X98.209 Y87.429 F24000.000
G1 E4.00000 F2400.00000
G1 F2100
G1 X98.917 Y86.801 E4.06224
G1 X99.937 Y86.097 E4.14374
G1 X100.775 Y85.658 E4.20598
G1 X113.866 Y79.349 E5.16170
G1 X114.399 Y79.128 E5.19964
G1 X114.996 Y78.919 E5.24126
G1 X116.119 Y78.663 E5.31698
G1 X116.751 Y78.592 E5.35886
G1 X117.327 Y78.560 E5.39678
G1 X122.519 Y78.560 E5.73823
G1 X123.094 Y78.592 E5.77615
G1 X123.727 Y78.663 E5.81803
G1 X124.850 Y78.920 E5.89377
G1 X125.447 Y79.128 E5.93537
G1 X126.484 Y79.628 E6.01111
G1 X127.020 Y79.965 E6.05271
G1 X127.920 Y80.683 E6.12844
G1 X128.520 Y81.289 E6.18450
G1 X142.169 Y96.158 E7.51201
G1 X142.613 Y96.714 E7.55881
G1 X143.150 Y97.493 E7.62104
G1 X143.726 Y98.591 E7.70257
G1 X144.062 Y99.475 E7.76479
G1 X144.359 Y100.679 E7.84633
G1 X144.473 Y101.623 E7.90885
G1 X144.511 Y102.242 E7.94969
G1 X144.511 Y120.254 E9.13431
G1 X144.388 Y150.698 E11.13661
G1 X144.351 Y151.297 E11.17610
G1 X144.236 Y152.241 E11.23862
G1 X143.939 Y153.445 E11.32016
G1 X143.604 Y154.329 E11.38238
G1 X143.028 Y155.427 E11.46391
G1 X142.490 Y156.206 E11.52614
G1 X141.668 Y157.134 E11.60767
G1 X140.960 Y157.761 E11.66990
G1 X139.940 Y158.465 E11.75143
G1 X139.102 Y158.905 E11.81365
G1 X137.943 Y159.344 E11.89519
G1 X137.024 Y159.571 E11.95741
G1 X136.494 Y159.672 E11.99294
G1 X124.371 Y161.337 E12.79770
G1 X123.739 Y161.408 E12.83958
G1 X123.163 Y161.440 E12.87751
G1 X116.971 Y161.440 E13.28472
G1 X116.396 Y161.408 E13.32265
G1 X115.763 Y161.337 E13.36453
G1 X114.640 Y161.080 E13.44026
G1 X114.043 Y160.872 E13.48186
G1 X113.307 Y160.547 E13.53479
G1 X100.098 Y153.447 E14.52108
G1 X99.123 Y152.766 E14.59928
G1 X98.415 Y152.139 E14.66150
G1 X97.593 Y151.211 E14.74304
G1 X97.055 Y150.432 E14.80526
G1 X96.479 Y149.335 E14.88679
G1 X96.144 Y148.450 E14.94902
G1 X95.847 Y147.246 E15.03055
G1 X95.732 Y146.302 E15.09310
G1 X95.695 Y145.716 E15.13174
G1 X95.489 Y113.909 E17.22371
G1 X95.489 Y93.885 E18.54069
G1 X95.527 Y93.265 E18.58153
G1 X95.641 Y92.321 E18.64407
G1 X95.938 Y91.118 E18.72559
G1 X96.273 Y90.233 E18.78781
G1 X96.850 Y89.135 E18.86935
G1 X97.387 Y88.357 E18.93157
G1 X98.179 Y87.462 E19.01014
G1 X98.564 Y87.830 F24000.000
G1 F2100
G1 X99.273 Y87.202 E19.07238
G1 X100.186 Y86.572 E19.14539
G1 X101.024 Y86.132 E19.20763
G1 X114.098 Y79.832 E20.16214
G1 X114.576 Y79.634 E20.19613
G1 X115.173 Y79.425 E20.23775
G1 X116.179 Y79.196 E20.30557
G1 X116.811 Y79.124 E20.34746
G1 X117.327 Y79.095 E20.38143
G1 X122.519 Y79.095 E20.72287
G1 X123.034 Y79.124 E20.75685
G1 X123.667 Y79.196 E20.79873
G1 X124.673 Y79.425 E20.86657
G1 X125.270 Y79.634 E20.90818
G1 X126.199 Y80.082 E20.97602
G1 X126.735 Y80.418 E21.01763
G1 X127.542 Y81.061 E21.08547
G1 X128.125 Y81.651 E21.14002
G1 X141.775 Y96.520 E22.46753
G1 X142.172 Y97.018 E22.50946
G1 X142.710 Y97.797 E22.57168
G1 X143.226 Y98.780 E22.64473
G1 X143.561 Y99.665 E22.70695
G1 X143.827 Y100.743 E22.77999
G1 X143.942 Y101.687 E22.84252
G1 X143.975 Y102.242 E22.87910
G1 X143.975 Y120.252 E24.06357
G1 X143.853 Y150.696 E26.06588
G1 X143.819 Y151.233 E26.10125
G1 X143.704 Y152.176 E26.16378
G1 X143.439 Y153.255 E26.23682
G1 X143.103 Y154.139 E26.29904
G1 X142.587 Y155.123 E26.37209
G1 X142.050 Y155.901 E26.43431
G1 X141.313 Y156.733 E26.50735
G1 X140.605 Y157.360 E26.56958
G1 X139.691 Y157.991 E26.64262
G1 X138.853 Y158.431 E26.70484
G1 X137.815 Y158.824 E26.77788
G1 X136.896 Y159.051 E26.84011
G1 X136.421 Y159.142 E26.87194
G1 X124.312 Y160.804 E27.67584
G1 X123.679 Y160.876 E27.71772
G1 X123.163 Y160.905 E27.75169
G1 X116.971 Y160.905 E28.15891
G1 X116.456 Y160.876 E28.19289
G1 X115.823 Y160.804 E28.23476
G1 X114.817 Y160.575 E28.30261
G1 X114.220 Y160.366 E28.34421
G1 X113.560 Y160.075 E28.39162
G1 X100.352 Y152.975 E29.37791
G1 X99.478 Y152.365 E29.44797
G1 X98.770 Y151.738 E29.51019
G1 X98.034 Y150.907 E29.58323
G1 X97.496 Y150.128 E29.64546
G1 X96.980 Y149.145 E29.71849
G1 X96.645 Y148.260 E29.78072
G1 X96.379 Y147.182 E29.85376
G1 X96.264 Y146.238 E29.91631
G1 X96.231 Y145.713 E29.95092
G1 X96.025 Y113.906 E32.04289
G1 X96.025 Y93.885 E33.35964
G1 X96.058 Y93.330 E33.39623
G1 X96.173 Y92.386 E33.45877
G1 X96.439 Y91.308 E33.53180
G1 X96.774 Y90.423 E33.59402
G1 X97.290 Y89.440 E33.66706
G1 X97.828 Y88.661 E33.72929
G1 X98.534 Y87.863 E33.79937
G1 X98.920 Y88.231 F24000.000
G1 F2100
G1 X99.628 Y87.603 E33.86160
G1 X100.435 Y87.046 E33.92613
G1 X101.273 Y86.606 E33.98837
G1 X114.331 Y80.314 E34.94165
G1 X114.753 Y80.140 E34.97169
G1 X115.350 Y79.931 E35.01331
G1 X116.239 Y79.728 E35.07325
G1 X116.871 Y79.657 E35.11514
G1 X117.327 Y79.631 E35.14516
G1 X122.519 Y79.631 E35.48660
G1 X122.974 Y79.657 E35.51662
G1 X123.607 Y79.728 E35.55851
G1 X124.496 Y79.931 E35.61846
G1 X125.093 Y80.140 E35.66007
G1 X125.914 Y80.535 E35.72003
G1 X126.434 Y80.861 E35.76035
G1 X127.163 Y81.440 E35.82158
G1 X127.730 Y82.013 E35.87462
G1 X141.380 Y96.882 E37.20213
G1 X141.731 Y97.323 E37.23918
G1 X142.269 Y98.101 E37.30141
G1 X142.725 Y98.970 E37.36596
G1 X143.060 Y99.855 E37.42818
G1 X143.295 Y100.808 E37.49273
G1 X143.410 Y101.752 E37.55525
G1 X143.440 Y102.242 E37.58759
G1 X143.439 Y120.250 E38.77192
G1 X143.317 Y150.694 E40.77423
G1 X143.287 Y151.168 E40.80548
G1 X143.173 Y152.112 E40.86801
G1 X142.938 Y153.065 E40.93256
G1 X142.602 Y153.949 E40.99478
G1 X142.146 Y154.819 E41.05933
G1 X141.609 Y155.597 E41.12155
G1 X140.958 Y156.332 E41.18610
G1 X140.250 Y156.959 E41.24833
G1 X139.442 Y157.517 E41.31288
G1 X138.604 Y157.956 E41.37510
G1 X137.687 Y158.304 E41.43965
G1 X136.768 Y158.531 E41.50188
G1 X136.348 Y158.611 E41.53000
G1 X124.252 Y160.272 E42.33305
G1 X123.619 Y160.343 E42.37493
G1 X123.163 Y160.369 E42.40495
G1 X116.971 Y160.369 E42.81217
G1 X116.516 Y160.343 E42.84220
G1 X115.883 Y160.272 E42.88407
G1 X114.994 Y160.069 E42.94403
G1 X114.397 Y159.860 E42.98563
G1 X113.814 Y159.604 E43.02753
G1 X100.605 Y152.503 E44.01382
G1 X99.833 Y151.965 E44.07573
G1 X99.125 Y151.337 E44.13795
G1 X98.474 Y150.603 E44.20250
G1 X97.937 Y149.824 E44.26473
G1 X97.481 Y148.955 E44.32927
G1 X97.145 Y148.070 E44.39150
G1 X96.910 Y147.117 E44.45605
G1 X96.796 Y146.173 E44.51859
G1 X96.766 Y145.709 E44.54918
G1 X96.561 Y113.902 E46.64115
G1 X96.560 Y93.885 E47.95767
G1 X96.590 Y93.394 E47.99001
G1 X96.705 Y92.450 E48.05255
G1 X96.940 Y91.498 E48.11708
G1 X97.275 Y90.613 E48.17930
G1 X97.731 Y89.744 E48.24386
G1 X98.269 Y88.965 E48.30608
G1 X98.890 Y88.264 E48.36767
G1 X99.275 Y88.632 F24000.000
G1 F2100
G1 X99.983 Y88.004 E48.42990
G1 X100.684 Y87.520 E48.48594
G1 X101.522 Y87.080 E48.54817
G1 X114.563 Y80.797 E49.50025
G1 X114.930 Y80.645 E49.52634
G1 X115.527 Y80.436 E49.56795
G1 X116.299 Y80.260 E49.62001
G1 X116.931 Y80.189 E49.66189
G1 X117.327 Y80.167 E49.68796
G1 X122.519 Y80.167 E50.02941
G1 X122.914 Y80.189 E50.05548
G1 X123.547 Y80.260 E50.09736
G1 X124.319 Y80.436 E50.14943
G1 X124.916 Y80.645 E50.19103
G1 X125.629 Y80.989 E50.24310
G1 X126.165 Y81.325 E50.28470
G1 X126.784 Y81.819 E50.33677
G1 X127.231 Y82.266 E50.37837
G1 X140.985 Y97.245 E51.71582
G1 X141.291 Y97.627 E51.74800
G1 X141.828 Y98.406 E51.81022
G1 X142.224 Y99.160 E51.86628
G1 X142.560 Y100.045 E51.92850
G1 X142.764 Y100.873 E51.98456
G1 X142.878 Y101.816 E52.04708
G1 X142.904 Y102.242 E52.07516
G1 X142.904 Y120.248 E53.25935
G1 X142.781 Y150.692 E55.26166
G1 X142.756 Y151.104 E55.28881
G1 X142.641 Y152.047 E55.35133
G1 X142.437 Y152.875 E55.40739
G1 X142.102 Y153.760 E55.46961
G1 X141.705 Y154.514 E55.52567
G1 X141.168 Y155.293 E55.58789
G1 X140.603 Y155.931 E55.64395
G1 X139.895 Y156.558 E55.70617
G1 X139.193 Y157.042 E55.76223
G1 X138.355 Y157.482 E55.82445
G1 X137.559 Y157.784 E55.88051
G1 X136.640 Y158.011 E55.94273
G1 X136.275 Y158.081 E55.96716
G1 X124.192 Y159.740 E56.76935
G1 X123.559 Y159.811 E56.81123
G1 X123.163 Y159.833 E56.83730
G1 X116.971 Y159.833 E57.24452
G1 X116.576 Y159.811 E57.27060
G1 X115.943 Y159.740 E57.31247
G1 X115.171 Y159.564 E57.36454
G1 X114.574 Y159.355 E57.40614
G1 X114.068 Y159.132 E57.44253
G1 X100.859 Y152.031 E58.42882
G1 X100.189 Y151.564 E58.48258
G1 X99.480 Y150.936 E58.54481
G1 X98.915 Y150.298 E58.60086
G1 X98.378 Y149.520 E58.66309
G1 X97.982 Y148.765 E58.71914
G1 X97.646 Y147.880 E58.78137
G1 X97.442 Y147.053 E58.83743
G1 X97.328 Y146.109 E58.89997
G1 X97.302 Y145.706 E58.92653
G1 X97.096 Y113.899 E61.01850
G1 X97.096 Y93.885 E62.33480
G1 X97.122 Y93.459 E62.36288
G1 X97.236 Y92.515 E62.42541
G1 X97.440 Y91.687 E62.48146
G1 X97.776 Y90.803 E62.54368
G1 X98.172 Y90.048 E62.59974
G1 X98.709 Y89.270 E62.66196
G1 X99.245 Y88.665 E62.71506
G1 E58.71506 F2400.00000
G92 E0
G1 X111.231 Y103.831 F24000.000
G1 E4.00000 F2400.00000
G1 F2100
G1 X111.687 Y103.962 E4.03493
G1 X111.869 Y103.673 E4.06015
G1 X112.061 Y103.431 E4.08290
G1 X112.727 Y102.766 E4.15224
G1 X112.968 Y102.573 E4.17499
G1 X113.765 Y102.072 E4.24435
G1 X114.044 Y101.938 E4.26710
G1 X114.932 Y101.627 E4.33645
G1 X115.233 Y101.559 E4.35920
G1 X116.250 Y101.453 E4.43452
G1 X118.564 Y101.453 E4.60501
G1 X118.749 Y101.268 E4.62423
G1 X118.749 Y92.486 E5.27126
G1 X118.564 Y92.302 E5.29048
G1 X117.250 Y92.302 E5.38729
G1 X116.233 Y92.196 E5.46261
G1 X115.932 Y92.127 E5.48537
G1 X115.044 Y91.816 E5.55471
G1 X114.765 Y91.682 E5.57746
G1 X113.968 Y91.181 E5.64682
G1 X113.727 Y90.989 E5.66957
G1 X113.061 Y90.323 E5.73892
G1 X112.869 Y90.082 E5.76167
G1 X112.368 Y89.285 E5.83102
G1 X112.234 Y89.006 E5.85377
G1 X111.923 Y88.118 E5.92312
G1 X111.854 Y87.817 E5.94587
G1 X111.757 Y86.954 E6.00984
G1 X111.749 Y86.454 E6.04667
G1 X111.854 Y85.437 E6.12200
G1 X111.923 Y85.136 E6.14475
G1 X112.234 Y84.248 E6.21409
G1 X112.368 Y83.970 E6.23685
G1 X112.869 Y83.173 E6.30620
G1 X113.061 Y82.931 E6.32895
G1 X113.727 Y82.266 E6.39830
G1 X113.968 Y82.073 E6.42105
G1 X114.765 Y81.572 E6.49040
G1 X115.044 Y81.438 E6.51315
G1 X115.932 Y81.127 E6.58251
G1 X116.233 Y81.059 E6.60525
G1 X117.096 Y80.961 E6.66922
G1 X122.596 Y80.953 E7.07442
G1 X123.613 Y81.059 E7.14974
G1 X123.914 Y81.127 E7.17249
G1 X124.802 Y81.438 E7.24185
G1 X125.080 Y81.572 E7.26460
G1 X125.877 Y82.073 E7.33395
G1 X126.119 Y82.266 E7.35670
G1 X126.784 Y82.931 E7.42605
G1 X126.977 Y83.173 E7.44880
G1 X127.478 Y83.970 E7.51815
G1 X127.612 Y84.248 E7.54090
G1 X127.923 Y85.136 E7.61025
G1 X127.991 Y85.437 E7.63300
G1 X128.089 Y86.300 E7.69697
G1 X128.097 Y115.300 E9.83353
G1 X127.991 Y116.317 E9.90885
G1 X127.923 Y116.618 E9.93160
G1 X127.612 Y117.506 E10.00095
G1 X127.478 Y117.785 E10.02370
G1 X126.977 Y118.582 E10.09305
G1 X126.784 Y118.823 E10.11580
G1 X126.119 Y119.489 E10.18515
G1 X125.878 Y119.681 E10.20790
G1 X125.470 Y119.938 E10.24339
G1 X125.451 Y120.263 E10.26737
G1 X125.763 Y120.511 E10.29676
G1 X126.429 Y121.177 E10.36611
G1 X126.621 Y121.418 E10.38886
G1 X127.122 Y122.215 E10.45821
G1 X127.256 Y122.494 E10.48097
G1 X127.567 Y123.382 E10.55031
G1 X127.636 Y123.683 E10.57306
G1 X127.733 Y124.546 E10.63703
G1 X127.733 Y125.200 E10.68522
G1 X127.636 Y126.063 E10.74918
G1 X127.567 Y126.364 E10.77193
G1 X127.256 Y127.252 E10.84128
G1 X127.122 Y127.530 E10.86404
G1 X126.621 Y128.327 E10.93338
G1 X126.429 Y128.569 E10.95613
G1 X125.763 Y129.234 E11.02548
G1 X125.522 Y129.427 E11.04823
G1 X124.725 Y129.928 E11.11758
G1 X124.446 Y130.062 E11.14034
G1 X123.558 Y130.373 E11.20968
G1 X123.257 Y130.441 E11.23244
G1 X122.394 Y130.539 E11.29640
G1 X120.926 Y130.547 E11.40457
G1 X120.742 Y130.732 E11.42379
G1 X120.742 Y139.514 E12.07082
G1 X120.926 Y139.698 E12.09004
G1 X123.240 Y139.698 E12.26053
G1 X124.257 Y139.804 E12.33585
G1 X124.558 Y139.873 E12.35860
G1 X125.446 Y140.184 E12.42795
G1 X125.725 Y140.318 E12.45070
G1 X126.375 Y140.726 E12.50725
G1 X126.763 Y141.011 E12.54275
G1 X127.429 Y141.677 E12.61210
G1 X127.621 Y141.918 E12.63485
G1 X128.191 Y142.825 E12.71371
G1 X128.646 Y142.693 E12.74864
G1 X128.646 Y132.603 E13.49201
G1 X128.801 Y131.246 E13.59264
G1 X128.881 Y130.923 E13.61715
G1 X129.334 Y129.728 E13.71136
G1 X129.489 Y129.433 E13.73586
G1 X130.215 Y128.381 E13.83007
G1 X130.436 Y128.132 E13.85457
G1 X131.393 Y127.284 E13.94879
G1 X131.667 Y127.095 E13.97329
G1 X132.575 Y126.618 E14.04889
G1 X132.575 Y126.237 E14.07695
G1 X131.789 Y125.825 E14.14235
G1 X131.515 Y125.636 E14.16686
G1 X130.558 Y124.788 E14.26107
G1 X130.338 Y124.539 E14.28557
G1 X129.611 Y123.487 E14.37977
G1 X129.457 Y123.192 E14.40428
G1 X129.003 Y121.996 E14.49849
G1 X128.924 Y121.674 E14.52300
G1 X128.769 Y120.316 E14.62364
G1 X128.769 Y102.159 E15.96135
G1 X128.924 Y100.802 E16.06198
G1 X129.003 Y100.479 E16.08649
G1 X129.457 Y99.284 E16.18070
G1 X129.611 Y98.989 E16.20520
G1 X130.338 Y97.937 E16.29941
G1 X130.558 Y97.688 E16.32391
G1 X131.515 Y96.840 E16.41813
G1 X131.789 Y96.651 E16.44263
G1 X132.761 Y96.141 E16.52348
G1 X132.921 Y96.057 E16.53684
G1 X133.232 Y95.939 E16.56134
G1 X134.474 Y95.633 E16.65556
G1 X134.804 Y95.593 E16.68006
G1 X136.083 Y95.593 E16.77426
G1 X136.413 Y95.633 E16.79876
G1 X137.478 Y95.895 E16.87961
G1 X137.654 Y95.939 E16.89297
G1 X137.965 Y96.057 E16.91747
G1 X139.098 Y96.651 E17.01168
G1 X139.371 Y96.840 E17.03619
G1 X140.328 Y97.688 E17.13040
G1 X140.549 Y97.937 E17.15491
G1 X141.275 Y98.989 E17.24911
G1 X141.430 Y99.284 E17.27361
G1 X141.883 Y100.479 E17.36781
G1 X141.963 Y100.802 E17.39233
G1 X142.118 Y102.159 E17.49296
G1 X142.108 Y120.482 E18.84290
G1 X141.963 Y121.673 E18.93130
G1 X141.883 Y121.997 E18.95582
G1 X141.430 Y123.192 E19.05002
G1 X141.275 Y123.487 E19.07453
G1 X140.549 Y124.539 E19.16873
G1 X140.328 Y124.788 E19.19324
G1 X139.371 Y125.636 E19.28745
G1 X139.098 Y125.825 E19.31195
G1 X138.189 Y126.302 E19.38755
G1 X138.189 Y126.683 E19.41561
G1 X138.975 Y127.095 E19.48102
G1 X139.249 Y127.284 E19.50552
G1 X140.206 Y128.132 E19.59973
G1 X140.427 Y128.381 E19.62425
G1 X141.153 Y129.433 E19.71844
G1 X141.307 Y129.728 E19.74295
G1 X141.761 Y130.923 E19.83715
G1 X141.840 Y131.246 E19.86167
G1 X141.995 Y132.603 E19.96230
G1 X141.985 Y150.926 E21.31223
G1 X141.840 Y152.118 E21.40064
G1 X141.761 Y152.441 E21.42516
G1 X141.307 Y153.636 E21.51936
G1 X141.153 Y153.931 E21.54387
G1 X140.426 Y154.983 E21.63807
G1 X140.206 Y155.232 E21.66258
G1 X139.249 Y156.080 E21.75678
G1 X138.975 Y156.269 E21.78129
G1 X137.843 Y156.863 E21.87549
G1 X137.532 Y156.981 E21.90000
G1 X136.291 Y157.287 E21.99419
G1 X135.960 Y157.327 E22.01871
G1 X134.681 Y157.327 E22.11292
G1 X134.351 Y157.287 E22.13743
G1 X133.110 Y156.981 E22.23165
G1 X132.799 Y156.863 E22.25614
G1 X131.666 Y156.269 E22.35035
G1 X131.393 Y156.080 E22.37485
G1 X130.436 Y155.232 E22.46906
G1 X130.215 Y154.983 E22.49356
G1 X129.489 Y153.931 E22.58776
G1 X129.334 Y153.636 E22.61227
G1 X129.250 Y153.414 E22.62975
G1 X128.758 Y153.476 E22.66628
G1 X128.636 Y154.563 E22.74680
G1 X128.567 Y154.864 E22.76956
G1 X128.256 Y155.752 E22.83891
G1 X128.122 Y156.030 E22.86166
G1 X127.621 Y156.827 E22.93101
G1 X127.429 Y157.069 E22.95377
G1 X126.763 Y157.734 E23.02311
G1 X126.522 Y157.927 E23.04586
G1 X125.725 Y158.428 E23.11521
G1 X125.447 Y158.562 E23.13796
G1 X124.558 Y158.873 E23.20731
G1 X124.257 Y158.941 E23.23007
G1 X123.240 Y159.047 E23.30538
G1 X116.894 Y159.047 E23.77292
G1 X115.877 Y158.941 E23.84824
G1 X115.576 Y158.873 E23.87099
G1 X114.688 Y158.562 E23.94033
G1 X114.410 Y158.428 E23.96309
G1 X113.613 Y157.927 E24.03244
