; generated by Slic3r 1.3.0 on 2024-10-27 at 15:08:27

; Print Config Notes: 
; Cubic Infill Pattern 20 % density
; 
; Printer Config Notes: 
; No Retraction
; 
; external perimeters extrusion width = 0.33mm (2.01mm^3/s)
; perimeters extrusion width = 0.40mm (7.14mm^3/s)
; infill extrusion width = 0.80mm (18.17mm^3/s)
; solid infill extrusion width = 0.40mm (4.28mm^3/s)
; top infill extrusion width = 0.30mm (1.54mm^3/s)

M107
M190 S55 ; set bed temperature and wait for it to be reached
M104 S205 ; set temperature
G28 ; home all axes
G1 Z5 F5000 ; lift nozzle

; Filament gcode

M109 S205 ; set temperature and wait for it to be reached
G21 ; set units to millimeters
G90 ; use absolute coordinates
M82 ; use absolute distances for extrusion
G92 E0
G1 Z0.300 F24000.000
G1 E-4.00000 F2400.00000
G92 E0
G1 X98.826 Y110.633 F24000.000
G1 E4.00000 F2400.00000
G1 F2100
G1 X100.804 Y109.624 E4.14605
G1 X102.593 Y109.361 E4.26492
G1 X104.751 Y109.372 E4.40689
G1 X138.186 Y111.372 E6.60979
G1 X140.343 Y111.899 E6.75583
G1 X142.177 Y113.150 E6.90188
G1 X143.455 Y114.967 E7.04792
G1 X144.028 Y117.575 E7.22356
G1 X144.028 Y124.425 E7.67408
G1 X143.632 Y126.610 E7.82013
G1 X142.492 Y128.516 E7.96617
G1 X140.755 Y129.899 E8.11222
G1 X137.815 Y130.639 E8.31162
G1 X102.185 Y130.639 E10.65495
G1 X100.000 Y130.242 E10.80099
G1 X98.095 Y129.102 E10.94704
G1 X96.711 Y127.365 E11.09309
G1 X95.972 Y124.425 E11.29249
G1 X95.972 Y117.575 E11.74301
G1 X96.097 Y116.335 E11.82501
G1 X96.504 Y114.335 E11.95925
G1 X97.329 Y112.273 E12.10529
G1 X98.796 Y110.666 E12.24838
G1 X99.303 Y110.947 F24000.000
G1 F2100
G1 X101.232 Y110.062 E12.38794
G1 X102.593 Y109.897 E12.47812
G1 X104.719 Y109.907 E12.61799
G1 X138.154 Y111.907 E14.82088
G1 X140.211 Y112.427 E14.96044
G1 X141.933 Y113.666 E15.09999
G1 X143.081 Y115.451 E15.23955
G1 X143.493 Y117.575 E15.38182
G1 X143.493 Y124.425 E15.83234
G1 X143.096 Y126.510 E15.97190
G1 X141.962 Y128.303 E16.11146
G1 X140.249 Y129.555 E16.25101
G1 X137.815 Y130.103 E16.41512
G1 X102.185 Y130.103 E18.75845
G1 X100.101 Y129.707 E18.89800
G1 X98.307 Y128.573 E19.03756
G1 X97.055 Y126.859 E19.17712
G1 X96.507 Y124.425 E19.34123
G1 X96.507 Y117.575 E19.79175
G1 X96.621 Y116.441 E19.86668
G1 X97.029 Y114.441 E20.00092
G1 X97.834 Y112.478 E20.14047
G1 X99.272 Y110.980 E20.27707
G1 X99.776 Y111.273 F24000.000
G1 F2100
G1 X102.593 Y110.433 E20.47040
G1 X104.687 Y110.442 E20.60816
G1 X138.122 Y112.442 E22.81105
G1 X140.074 Y112.955 E22.94380
G1 X141.678 Y114.181 E23.07655
G1 X142.687 Y115.929 E23.20930
G1 X142.957 Y117.575 E23.31903
G1 X142.957 Y124.425 E23.76955
G1 X142.561 Y126.404 E23.90230
G1 X141.434 Y128.078 E24.03505
G1 X139.749 Y129.190 E24.16780
G1 X137.815 Y129.567 E24.29741
G1 X102.185 Y129.567 E26.64073
G1 X100.206 Y129.171 E26.77348
G1 X98.532 Y128.044 E26.90623
G1 X97.420 Y126.359 E27.03898
G1 X97.043 Y124.425 E27.16860
G1 X97.043 Y117.575 E27.61912
G1 X97.146 Y116.548 E27.68698
G1 X97.554 Y114.548 E27.82122
G1 X98.337 Y112.688 E27.95397
G1 X99.744 Y111.304 E28.08376
G1 X100.245 Y111.612 F24000.000
G1 F2100
G1 X102.593 Y110.968 E28.24389
G1 X104.655 Y110.976 E28.37955
G1 X138.090 Y112.976 E30.58244
G1 X139.931 Y113.483 E30.70801
G1 X141.408 Y114.692 E30.83359
G1 X142.268 Y116.397 E30.95916
G1 X142.422 Y117.575 E31.03731
G1 X142.422 Y124.425 E31.48783
G1 X142.026 Y126.293 E31.61340
G1 X140.907 Y127.840 E31.73897
G1 X139.257 Y128.800 E31.86455
G1 X137.815 Y129.032 E31.96060
G1 X102.185 Y129.032 E34.30393
G1 X100.317 Y128.636 E34.42950
G1 X98.770 Y127.517 E34.55508
G1 X97.810 Y125.867 E34.68065
G1 X97.578 Y124.425 E34.77671
G1 X97.578 Y117.575 E35.22723
G1 X97.671 Y116.655 E35.28802
G1 X98.079 Y114.655 E35.42226
G1 X98.839 Y112.904 E35.54784
G1 X100.211 Y111.642 E35.67045
G1 X100.708 Y111.967 F24000.000
G1 F2100
G1 X102.593 Y111.504 E35.79812
G1 X104.623 Y111.511 E35.93167
G1 X138.058 Y113.511 E38.13456
G1 X139.781 Y114.010 E38.25253
G1 X141.122 Y115.201 E38.37049
G1 X141.886 Y117.575 E38.53453
G1 X141.886 Y124.425 E38.98505
G1 X141.491 Y126.175 E39.10302
G1 X140.382 Y127.585 E39.22098
G1 X138.775 Y128.381 E39.33894
G1 X137.815 Y128.496 E39.40258
G1 X102.185 Y128.496 E41.74590
G1 X100.436 Y128.101 E41.86387
G1 X99.026 Y126.993 E41.98183
G1 X98.229 Y125.386 E42.09979
G1 X98.114 Y124.425 E42.16343
G1 X98.114 Y117.575 E42.61395
G1 X98.196 Y116.762 E42.66767
G1 X98.603 Y114.762 E42.80191
G1 X99.340 Y113.127 E42.91987
G1 X100.673 Y111.996 E43.03488
G1 X101.163 Y112.341 F24000.000
G1 F2100
G1 X102.593 Y112.039 E43.13096
G1 X104.591 Y112.046 E43.26241
G1 X138.026 Y114.046 E45.46531
G1 X139.622 Y114.536 E45.57513
G1 X140.815 Y115.705 E45.68496
G1 X141.350 Y117.575 E45.81291
G1 X141.350 Y124.425 E46.26343
G1 X140.956 Y126.048 E46.37326
G1 X139.861 Y127.308 E46.48309
G1 X137.815 Y127.961 E46.62434
G1 X102.185 Y127.961 E48.96766
G1 X100.563 Y127.566 E49.07749
G1 X99.302 Y126.471 E49.18731
G1 X98.650 Y124.425 E49.32857
G1 X98.650 Y117.575 E49.77909
G1 X98.721 Y116.869 E49.82574
G1 X99.128 Y114.869 E49.95998
G1 X99.839 Y113.358 E50.06981
G1 X101.128 Y112.369 E50.17668
G1 E46.17668 F2400.00000
G92 E0
G1 X107.291 Y114.826 F24000.000
G1 E4.00000 F2400.00000
G1 F2100
G1 X138.954 Y114.826 E6.33271
G1 X140.564 Y116.436 E6.50051
G1 X140.564 Y125.564 E7.17299
G1 X138.954 Y127.174 E7.34080
G1 X101.046 Y127.174 E10.13359
G1 X99.436 Y125.564 E10.30140
G1 X99.436 Y116.436 E10.97388
G1 X99.786 Y116.086 E11.01035
G1 X99.834 Y115.974 E11.01932
G1 X99.869 Y114.393 E11.13582
G1 X101.472 Y112.826 E11.30100
G1 X105.499 Y112.826 E11.59774
G1 X107.101 Y114.389 E11.76265
G1 X107.108 Y114.647 E11.78163
G1 X107.259 Y114.794 E11.79721
G1 X106.706 Y115.426 F24000.000
G1 F2100
G1 X138.705 Y115.426 E14.15475
G1 X139.964 Y116.685 E14.28593
G1 X139.964 Y125.315 E14.92179
G1 X138.705 Y126.574 E15.05297
G1 X101.295 Y126.574 E17.80915
G1 X100.036 Y125.315 E17.94033
G1 X100.036 Y116.685 E18.57619
G1 X100.391 Y116.330 E18.61314
G1 X100.439 Y116.210 E18.62266
G1 X100.463 Y114.651 E18.73753
G1 X101.716 Y113.426 E18.86666
G1 X105.255 Y113.426 E19.12738
G1 X106.508 Y114.648 E19.25630
G1 X106.522 Y115.247 E19.30043
G1 X106.674 Y115.394 E19.31601
G1 X106.120 Y116.026 F24000.000
G1 F2100
G1 X138.456 Y116.026 E21.69837
G1 X139.364 Y116.933 E21.79293
G1 X139.364 Y120.817 E22.07905
G1 X139.311 Y120.870 E22.08455
G1 X139.311 Y121.130 E22.10378
G1 X139.364 Y121.183 E22.10927
G1 X139.364 Y125.067 E22.39539
G1 X138.456 Y125.974 E22.48996
G1 X101.543 Y125.974 E25.20951
G1 X100.636 Y125.067 E25.30407
G1 X100.636 Y116.933 E25.90331
G1 X100.997 Y116.573 E25.94089
G1 X101.045 Y116.453 E25.95041
G1 X101.034 Y115.978 E25.98537
G1 X101.058 Y114.909 E26.06416
G1 X101.961 Y114.026 E26.15724
G1 X105.011 Y114.026 E26.38194
G1 X105.914 Y114.907 E26.47488
G1 X105.937 Y115.847 E26.54415
G1 X106.088 Y115.994 E26.55973
G1 E22.55973 F2400.00000
G92 E0
G1 X141.925 Y115.575 F24000.000
G1 X138.463 Y120.870 F24000.000
G1 E4.00000 F2400.00000
G1 F2100
G1 X138.463 Y121.130 E4.01923
G1 X138.764 Y121.432 E4.05062
G1 X138.764 Y124.818 E4.30012
G1 X138.208 Y125.374 E4.35806
G1 X101.792 Y125.374 E7.04099
G1 X101.236 Y124.818 E7.09894
G1 X101.236 Y117.182 E7.66155
G1 X101.602 Y116.815 E7.69975
G1 X101.651 Y116.695 E7.70927
G1 X101.634 Y115.985 E7.76164
G1 X101.652 Y115.167 E7.82189
G1 X102.206 Y114.626 E7.87893
G1 X104.767 Y114.626 E8.06762
G1 X105.320 Y115.165 E8.12456
G1 X105.351 Y116.447 E8.21897
G1 X105.535 Y116.626 E8.23787
G1 X138.208 Y116.626 E10.64505
G1 X138.764 Y117.182 E10.70300
G1 X138.764 Y120.568 E10.95249
G1 X138.495 Y120.838 E10.98057
G1 E6.98057 F2400.00000
G92 E0
G1 X136.500 Y121.000 F24000.000
G1 X133.459 Y120.524 F24000.000
G1 E4.00000 F2400.00000
G1 F2100
G1 X133.274 Y120.709 E4.01923
G1 X133.274 Y121.291 E4.06212
G1 X133.459 Y121.476 E4.08134
G1 X137.959 Y121.476 E4.41292
G1 X138.164 Y121.680 E4.43424
G1 X138.164 Y124.570 E4.64712
G1 X137.959 Y124.774 E4.66845
G1 X102.041 Y124.774 E7.31476
G1 X101.836 Y124.570 E7.33608
G1 X101.836 Y117.430 E7.86208
G1 X102.259 Y117.036 E7.90469
G1 X102.234 Y115.999 E7.98109
G1 X102.247 Y115.425 E8.02341
G1 X102.450 Y115.226 E8.04440
G1 X104.522 Y115.226 E8.19707
G1 X104.726 Y115.424 E8.21802
G1 X104.750 Y116.397 E8.28968
G1 X104.738 Y117.037 E8.33687
G1 X104.924 Y117.226 E8.35634
G1 X137.959 Y117.226 E10.79025
G1 X138.164 Y117.430 E10.81157
G1 X138.164 Y120.320 E11.02445
G1 X137.959 Y120.524 E11.04578
G1 X133.504 Y120.524 E11.37404
G1 X132.625 Y122.125 F24000.000
G1 F2100
G1 X137.515 Y122.125 E11.69563
G1 X137.515 Y124.125 E11.82717
G1 X102.485 Y124.125 E14.13103
G1 X102.485 Y117.875 E14.54209
G1 X102.928 Y117.875 E14.57124
G1 X102.881 Y115.875 E14.70282
G1 X104.088 Y115.875 E14.78219
G1 X104.100 Y116.402 E14.81689
G1 X104.074 Y117.875 E14.91376
G1 X137.515 Y117.875 E17.11315
G1 X137.515 Y119.875 E17.24469
G1 X132.625 Y119.875 E17.56628
G1 X132.625 Y122.080 E17.71130
G1 X132.514 Y122.404 F24000.000
G1 X132.089 Y122.661 F24000.000
G1 F2100
G1 X136.979 Y122.661 E18.03289
G1 X136.979 Y123.589 E18.09398
G1 X103.021 Y123.589 E20.32739
G1 X103.021 Y118.411 E20.66799
G1 X136.979 Y118.411 E22.90140
G1 X136.979 Y119.339 E22.96248
G1 X132.089 Y119.339 E23.28408
G1 X132.089 Y122.616 E23.49955
G1 X131.554 Y123.054 F24000.000
G1 F2100
G1 X103.557 Y123.054 E25.34091
G1 X103.557 Y118.946 E25.61106
G1 X131.554 Y118.946 E27.45242
G1 X131.554 Y123.009 E27.71961
G1 X131.822 Y123.125 F24000.000
G1 F2100
G1 X136.711 Y123.125 E27.91701
G1 E23.91701 F2400.00000
G92 E0
G1 X131.925 Y123.125 F24000.000
G1 X131.325 Y122.825 F24000.000
G1 X129.500 Y121.000 F24000.000
G1 X131.325 Y119.175 F24000.000
G1 X131.925 Y118.875 F24000.000
G1 X136.711 Y118.875 F24000.000
G1 E4.00000 F2400.00000
G1 F2100
G1 X131.822 Y118.875 E4.19739
G1 E0.19739 F2400.00000
G92 E0
G1 X130.961 Y122.575 F24000.000
G1 E4.00000 F2400.00000
G1 F2100
G1 X131.075 Y122.461 E4.01073
G1 X131.075 Y121.693 E4.06198
G1 X130.193 Y122.575 E4.14518
G1 X129.425 Y122.575 E4.19643
G1 X131.075 Y120.925 E4.35211
G1 X131.075 Y120.156 E4.40336
G1 X128.656 Y122.575 E4.63151
G1 X127.888 Y122.575 E4.68276
G1 X131.038 Y119.425 E4.97991
G1 X130.270 Y119.425 E5.03116
G1 X127.120 Y122.575 E5.32831
G1 X126.352 Y122.575 E5.37956
G1 X129.502 Y119.425 E5.67671
G1 X128.733 Y119.425 E5.72795
G1 X125.583 Y122.575 E6.02511
G1 X124.815 Y122.575 E6.07635
G1 X127.965 Y119.425 E6.37350
G1 X127.197 Y119.425 E6.42475
G1 X124.047 Y122.575 E6.72190
G1 X123.279 Y122.575 E6.77315
G1 X126.429 Y119.425 E7.07030
G1 X125.660 Y119.425 E7.12155
G1 X122.510 Y122.575 E7.41870
G1 X121.742 Y122.575 E7.46995
G1 X124.892 Y119.425 E7.76710
G1 X124.124 Y119.425 E7.81835
G1 X120.974 Y122.575 E8.11550
G1 X120.206 Y122.575 E8.16674
G1 X123.356 Y119.425 E8.46390
G1 X122.587 Y119.425 E8.51514
G1 X119.437 Y122.575 E8.81230
G1 X118.669 Y122.575 E8.86354
G1 X121.819 Y119.425 E9.16069
G1 X121.051 Y119.425 E9.21194
G1 X117.901 Y122.575 E9.50909
G1 X117.133 Y122.575 E9.56034
G1 X120.283 Y119.425 E9.85749
G1 X119.514 Y119.425 E9.90874
G1 X116.364 Y122.575 E10.20589
G1 X115.596 Y122.575 E10.25714
G1 X118.746 Y119.425 E10.55429
G1 X117.978 Y119.425 E10.60554
G1 X114.828 Y122.575 E10.90269
G1 X114.060 Y122.575 E10.95393
G1 X117.209 Y119.425 E11.25109
G1 X116.441 Y119.425 E11.30233
G1 X113.291 Y122.575 E11.59948
G1 X112.523 Y122.575 E11.65073
G1 X115.673 Y119.425 E11.94788
G1 X114.905 Y119.425 E11.99913
G1 X111.755 Y122.575 E12.29628
G1 X110.986 Y122.575 E12.34753
G1 X114.136 Y119.425 E12.64468
G1 X113.368 Y119.425 E12.69593
G1 X110.218 Y122.575 E12.99308
G1 X109.450 Y122.575 E13.04433
G1 X112.600 Y119.425 E13.34148
G1 X111.832 Y119.425 E13.39272
G1 X108.682 Y122.575 E13.68988
G1 X107.913 Y122.575 E13.74112
G1 X111.063 Y119.425 E14.03828
G1 X110.295 Y119.425 E14.08952
G1 X107.145 Y122.575 E14.38667
G1 X106.377 Y122.575 E14.43792
G1 X109.527 Y119.425 E14.73507
G1 X108.759 Y119.425 E14.78632
G1 X105.609 Y122.575 E15.08347
G1 X104.840 Y122.575 E15.13472
G1 X107.990 Y119.425 E15.43187
G1 X107.222 Y119.425 E15.48312
G1 X104.072 Y122.575 E15.78027
G1 X104.035 Y122.575 E15.78273
G1 X104.035 Y121.844 E15.83151
G1 X106.454 Y119.425 E16.05967
G1 X105.686 Y119.425 E16.11092
G1 X104.035 Y121.075 E16.26660
G1 X104.035 Y120.307 E16.31784
G1 X104.917 Y119.425 E16.40105
G1 X104.149 Y119.425 E16.45230
G1 X104.035 Y119.539 E16.46301
G1 X103.502 Y118.143 F24000.000
G1 F2100
G1 X103.496 Y116.143 E16.61129
M104 S200 ; set temperature
M140 S50 ; set bed temperature
G1 Z0.500 F24000.000
G1 E12.61129 F2400.00000
G92 E0
G1 X101.090 Y116.575 F24000.000
G1 X103.520 Y119.009 F24000.000
G1 X103.918 Y120.589 F24000.000
G1 X105.915 Y121.000 F24000.000
G1 X129.500 Y121.000 F24000.000
G1 X131.325 Y122.825 F24000.000
G1 X131.925 Y122.825 F24000.000
G1 X132.081 Y122.669 F24000.000
G1 E4.00000 F2400.00000
G1 F6000
G1 X137.550 Y122.669 E4.15987
G1 X137.550 Y123.581 E4.18652
G1 X102.450 Y123.581 E5.21252
G1 X102.450 Y118.419 E5.36340
G1 X102.840 Y118.419 E5.37481
G1 X102.818 Y116.419 E5.43328
G1 X104.181 Y116.419 E5.47310
G1 X104.161 Y118.419 E5.53157
G1 X137.550 Y118.419 E6.50755
G1 X137.550 Y119.331 E6.53420
G1 X132.081 Y119.331 E6.69406
G1 X132.081 Y122.624 E6.79033
G1 X132.438 Y122.312 F24000.000
G1 F6000
G1 X137.907 Y122.312 E6.95020
G1 X137.907 Y123.938 E6.99772
G1 X102.093 Y123.938 E8.04460
G1 X102.093 Y118.062 E8.21636
G1 X102.479 Y118.062 E8.22765
G1 X102.457 Y116.062 E8.28612
G1 X104.532 Y116.062 E8.34676
G1 X104.522 Y118.062 E8.40522
G1 X137.907 Y118.062 E9.38110
G1 X137.907 Y119.688 E9.42863
G1 X132.438 Y119.688 E9.58850
G1 X132.438 Y122.267 E9.66389
G1 X132.760 Y121.990 F24000.000
G1 F2100
G1 X137.965 Y121.990 E9.78620

G1 F2400
G1 X138.229 Y121.990 E9.79385
G1 X138.229 Y124.260 E9.85953
G1 X137.965 Y124.260 E9.86718

G1 F2100
G1 X102.035 Y124.260 E10.71154

G1 F2400
G1 X101.771 Y124.260 E10.71919
G1 X101.771 Y117.740 E10.90783
G1 X102.035 Y117.740 E10.91548

G1 F2100
G1 X102.154 Y117.740 E10.91826
G1 X102.150 Y117.425 E10.92567

G1 F2400
G1 X102.131 Y115.740 E10.97442
G1 X102.439 Y115.740 E10.98332

G1 F2100
G1 X104.534 Y115.740 E11.03256

G1 F2400
G1 X104.850 Y115.740 E11.04169
G1 X104.850 Y117.425 E11.09044

G1 F2100
G1 X104.847 Y117.740 E11.09784
G1 X137.965 Y117.740 E11.87613

G1 F2400
G1 X138.229 Y117.740 E11.88378
G1 X138.229 Y120.010 E11.94945
G1 X137.965 Y120.010 E11.95710

G1 F2100
G1 X132.760 Y120.010 E12.07942
G1 X132.760 Y121.945 E12.12489
G1 X132.643 Y122.266 F24000.000
G1 X131.902 Y123.125 F24000.000
G1 F1200
G1 X137.371 Y123.125 E12.35398
G1 X131.925 Y123.125 F24000.000
G1 X131.325 Y122.825 F24000.000
G1 X129.500 Y121.000 F24000.000
G1 X131.325 Y119.175 F24000.000
G1 X131.925 Y118.875 F24000.000
G1 X137.371 Y118.875 F24000.000
G1 F1200
G1 X131.902 Y118.875 E12.58306
G1 X131.583 Y118.814 F24000.000
G1 F3600
G1 X131.507 Y118.738 E12.58623
G1 X130.997 Y118.738 E12.60132
G1 X131.583 Y119.325 E12.62583
G1 X131.583 Y119.547 E12.63241
G1 X131.762 Y119.547 E12.63768
G1 X131.762 Y120.014 E12.65147
G1 X130.486 Y118.738 E12.70478
G1 X129.976 Y118.738 E12.71987
G1 X131.762 Y120.524 E12.79451
G1 X131.762 Y121.035 E12.80960
G1 X129.465 Y118.738 E12.90558
G1 X128.955 Y118.738 E12.92067
G1 X131.762 Y121.545 E13.03799
G1 X131.762 Y122.056 E13.05308
G1 X128.444 Y118.738 E13.19174
G1 X127.933 Y118.738 E13.20683
G1 X131.724 Y122.529 E13.36523
G1 X131.583 Y122.529 E13.36938
G1 X131.583 Y122.899 E13.38032
G1 X127.423 Y118.738 E13.55419
G1 X126.912 Y118.738 E13.56928
G1 X131.436 Y123.262 E13.75832
G1 X130.925 Y123.262 E13.77341
G1 X126.402 Y118.738 E13.96246
G1 X125.891 Y118.738 E13.97755
G1 X130.415 Y123.262 E14.16659
G1 X129.904 Y123.262 E14.18168
G1 X125.381 Y118.738 E14.37073
G1 X124.870 Y118.738 E14.38581
G1 X129.393 Y123.262 E14.57486
G1 X128.883 Y123.262 E14.58995
G1 X124.360 Y118.738 E14.77899
G1 X123.849 Y118.738 E14.79408
G1 X128.372 Y123.262 E14.98313
G1 X127.862 Y123.262 E14.99821
G1 X123.339 Y118.738 E15.18726
G1 X122.828 Y118.738 E15.20235
G1 X127.351 Y123.262 E15.39139
G1 X126.841 Y123.262 E15.40648
G1 X122.317 Y118.738 E15.59553
G1 X121.807 Y118.738 E15.61062
G1 X126.330 Y123.262 E15.79966
G1 X125.820 Y123.262 E15.81475
G1 X121.296 Y118.738 E16.00380
