; generated by Slic3r 1.3.0 on 2024-10-27 at 21:25:24

; Print Config Notes: 
; Cubic Infill Pattern 20 % density
; 
; Printer Config Notes: 
; No Retraction
; 
; external perimeters extrusion width = 0.33mm (2.01mm^3/s)
; perimeters extrusion width = 0.40mm (7.14mm^3/s)
; infill extrusion width = 0.80mm (18.17mm^3/s)
; solid infill extrusion width = 0.40mm (4.28mm^3/s)
; top infill extrusion width = 0.30mm (1.54mm^3/s)

M107
M190 S55 ; set bed temperature and wait for it to be reached
M104 S205 ; set temperature
G28 ; home all axes
G1 Z5 F5000 ; lift nozzle

; Filament gcode

M109 S205 ; set temperature and wait for it to be reached
G21 ; set units to millimeters
G90 ; use absolute coordinates
M82 ; use absolute distances for extrusion
G92 E0
G1 Z0.300 F24000.000
G1 E-4.00000 F2400.00000
G92 E0
G1 X94.450 Y111.880 F24000.000
G1 E4.00000 F2400.00000
G1 F2100
G1 X96.397 Y111.036 E4.13956
G1 X97.644 Y110.897 E4.22210
G1 X99.617 Y110.903 E4.35184
G1 X143.067 Y112.903 E7.21258
G1 X145.131 Y113.395 E7.35213
G1 X146.871 Y114.610 E7.49169
G1 X148.043 Y116.379 E7.63124
G1 X148.484 Y118.575 E7.77856
G1 X148.484 Y123.425 E8.09754
G1 X148.088 Y125.510 E8.23709
G1 X146.954 Y127.303 E8.37665
G1 X145.241 Y128.555 E8.51621
G1 X142.806 Y129.103 E8.68032
G1 X97.194 Y129.103 E11.68023
G1 X95.109 Y128.707 E11.81978
G1 X93.316 Y127.573 E11.95934
G1 X92.064 Y125.859 E12.09889
G1 X91.516 Y123.425 E12.26301
G1 X91.516 Y118.575 E12.58199
G1 X91.654 Y117.327 E12.66456
G1 X92.105 Y115.327 E12.79940
G1 X92.950 Y113.381 E12.93895
G1 X94.419 Y111.912 E13.07555
G1 X94.917 Y112.216 F24000.000
G1 F2100
G1 X97.644 Y111.433 E13.26219
G1 X99.592 Y111.438 E13.39031
G1 X143.043 Y113.438 E16.25105
G1 X145.002 Y113.925 E16.38380
G1 X146.622 Y115.128 E16.51655
G1 X147.655 Y116.862 E16.64930
G1 X147.949 Y118.575 E16.76361
G1 X147.949 Y123.425 E17.08259
G1 X147.553 Y125.404 E17.21534
G1 X146.425 Y127.078 E17.34809
G1 X144.740 Y128.190 E17.48084
G1 X142.806 Y128.567 E17.61045
G1 X97.194 Y128.567 E20.61036
G1 X95.215 Y128.171 E20.74311
G1 X93.540 Y127.044 E20.87586
G1 X92.429 Y125.359 E21.00861
G1 X92.051 Y123.425 E21.13822
G1 X92.051 Y118.575 E21.45720
G1 X92.177 Y117.445 E21.53199
G1 X92.628 Y115.445 E21.66682
G1 X93.449 Y113.601 E21.79957
G1 X94.884 Y112.246 E21.92936
G1 X95.378 Y112.564 F24000.000
G1 F2100
G1 X97.644 Y111.968 E22.08347
G1 X99.568 Y111.973 E22.20997
G1 X143.018 Y113.973 E25.07070
G1 X144.866 Y114.454 E25.19628
G1 X146.360 Y115.643 E25.32185
G1 X147.243 Y117.336 E25.44743
G1 X147.413 Y118.575 E25.52970
G1 X147.413 Y123.425 E25.84868
G1 X147.017 Y125.293 E25.97425
G1 X145.898 Y126.840 E26.09983
G1 X144.248 Y127.800 E26.22540
G1 X142.806 Y128.032 E26.32146
G1 X97.194 Y128.032 E29.32137
G1 X95.326 Y127.636 E29.44694
G1 X93.779 Y126.517 E29.57252
G1 X92.818 Y124.867 E29.69809
G1 X92.587 Y123.425 E29.79415
G1 X92.587 Y118.575 E30.11313
G1 X92.699 Y117.563 E30.18012
G1 X93.150 Y115.563 E30.31496
G1 X93.947 Y113.827 E30.44053
G1 X95.344 Y112.594 E30.56315
G1 X95.834 Y112.928 F24000.000
G1 F2100
G1 X97.644 Y112.504 E30.68545
G1 X99.543 Y112.508 E30.81033
G1 X142.993 Y114.508 E33.67107
G1 X144.723 Y114.983 E33.78903
G1 X146.081 Y116.155 E33.90699
G1 X146.878 Y118.575 E34.07454
G1 X146.878 Y123.425 E34.39352
G1 X146.482 Y125.175 E34.51148
G1 X145.374 Y126.585 E34.62945
G1 X143.767 Y127.381 E34.74741
G1 X142.806 Y127.496 E34.81104
G1 X97.194 Y127.496 E37.81095
G1 X95.444 Y127.101 E37.92891
G1 X94.034 Y125.993 E38.04688
G1 X93.237 Y124.386 E38.16484
G1 X93.122 Y123.425 E38.22847
G1 X93.122 Y118.575 E38.54746
G1 X93.222 Y117.680 E38.60666
G1 X93.673 Y115.680 E38.74150
G1 X94.442 Y114.060 E38.85946
G1 X95.799 Y112.957 E38.97447
G1 X96.282 Y113.312 F24000.000
G1 F2100
G1 X97.644 Y113.039 E39.06586
G1 X99.518 Y113.043 E39.18912
G1 X142.969 Y115.043 E42.04985
G1 X144.572 Y115.512 E42.15968
G1 X145.781 Y116.664 E42.26951
G1 X146.342 Y118.575 E42.40053
G1 X146.342 Y123.425 E42.71951
G1 X145.948 Y125.048 E42.82934
G1 X144.852 Y126.308 E42.93917
G1 X142.806 Y126.961 E43.08042
G1 X97.194 Y126.961 E46.08032
G1 X95.571 Y126.566 E46.19015
G1 X94.310 Y125.471 E46.29998
G1 X93.658 Y123.425 E46.44123
G1 X93.658 Y118.575 E46.76021
G1 X93.745 Y117.798 E46.81163
G1 X94.195 Y115.798 E46.94646
G1 X94.936 Y114.302 E47.05629
G1 X96.245 Y113.339 E47.16316
G1 E43.16316 F2400.00000
G92 E0
G1 X102.243 Y115.826 F24000.000
G1 E4.00000 F2400.00000
G1 F2100
G1 X143.945 Y115.826 E7.07239
G1 X145.556 Y117.436 E7.24020
G1 X145.556 Y124.564 E7.76532
G1 X143.945 Y126.174 E7.93313
G1 X96.055 Y126.174 E11.46143
G1 X94.444 Y124.564 E11.62923
G1 X94.444 Y117.436 E12.15436
G1 X94.824 Y117.056 E12.19393
G1 X94.872 Y116.950 E12.20253
G1 X94.956 Y115.336 E12.32158
G1 X96.547 Y113.826 E12.48323
G1 X100.453 Y113.826 E12.77097
G1 X102.044 Y115.336 E12.93261
G1 X102.061 Y115.653 E12.95596
G1 X102.210 Y115.795 E12.97117
G1 X101.674 Y116.426 F24000.000
G1 F2100
G1 X143.697 Y116.426 E16.06720
G1 X144.956 Y117.685 E16.19839
G1 X144.956 Y124.315 E16.68690
G1 X143.697 Y125.574 E16.81808
G1 X96.303 Y125.574 E20.30976
G1 X95.044 Y124.315 E20.44095
G1 X95.044 Y117.685 E20.92945
G1 X95.411 Y117.318 E20.96768
G1 X95.459 Y117.211 E20.97629
G1 X95.543 Y115.606 E21.09467
G1 X96.787 Y114.426 E21.22104
G1 X100.213 Y114.426 E21.47350
G1 X101.457 Y115.606 E21.59987
G1 X101.491 Y116.253 E21.64754
G1 X101.641 Y116.395 E21.66275
G1 X101.104 Y117.026 F24000.000
G1 F2100
G1 X143.448 Y117.026 E24.78243
G1 X144.356 Y117.933 E24.87699
G1 X144.356 Y120.767 E25.08575
G1 X144.253 Y120.870 E25.09646
G1 X144.253 Y121.130 E25.11569
G1 X144.356 Y121.233 E25.12639
G1 X144.356 Y124.067 E25.33515
G1 X143.448 Y124.974 E25.42972
G1 X96.552 Y124.974 E28.88477
G1 X95.644 Y124.067 E28.97934
G1 X95.644 Y117.933 E29.43123
G1 X95.998 Y117.579 E29.46812
G1 X96.046 Y117.472 E29.47672
G1 X96.129 Y115.877 E29.59444
G1 X97.026 Y115.026 E29.68554
G1 X99.974 Y115.026 E29.90272
G1 X100.871 Y115.877 E29.99382
G1 X100.922 Y116.853 E30.06580
G1 X101.071 Y116.995 E30.08101
G1 E26.08101 F2400.00000
G92 E0
G1 X146.925 Y116.575 F24000.000
G1 X143.404 Y120.870 F24000.000
G1 E4.00000 F2400.00000
G1 F2100
G1 X143.404 Y121.130 E4.01923
G1 X143.756 Y121.482 E4.05583
G1 X143.756 Y123.818 E4.22797
G1 X143.200 Y124.374 E4.28591
G1 X96.800 Y124.374 E7.70435
G1 X96.244 Y123.818 E7.76229
G1 X96.244 Y118.182 E8.17756
G1 X96.595 Y117.831 E8.21415
G1 X96.644 Y117.709 E8.22376
G1 X96.716 Y116.147 E8.33897
G1 X97.265 Y115.626 E8.39479
G1 X99.735 Y115.626 E8.57670
G1 X100.284 Y116.147 E8.63251
G1 X100.352 Y117.453 E8.72882
G1 X100.535 Y117.626 E8.74734
G1 X143.200 Y117.626 E11.89067
G1 X143.756 Y118.182 E11.94861
G1 X143.756 Y120.518 E12.12075
G1 X143.436 Y120.838 E12.15404
G1 E8.15404 F2400.00000
G92 E0
G1 X142.500 Y121.000 F24000.000
G1 X138.459 Y120.474 F24000.000
G1 E4.00000 F2400.00000
G1 F2100
G1 X138.274 Y120.659 E4.01923
G1 X138.274 Y121.341 E4.06949
G1 X138.459 Y121.526 E4.08871
G1 X142.951 Y121.526 E4.41967
G1 X143.156 Y121.730 E4.44099
G1 X143.156 Y123.570 E4.57651
G1 X142.951 Y123.774 E4.59783
G1 X97.049 Y123.774 E7.97965
G1 X96.844 Y123.570 E8.00097
G1 X96.844 Y118.430 E8.37962
G1 X97.254 Y118.034 E8.42161
G1 X97.241 Y117.599 E8.45371
G1 X97.303 Y116.418 E8.54084
G1 X97.505 Y116.226 E8.56138
G1 X99.495 Y116.226 E8.70801
G1 X99.697 Y116.418 E8.72856
G1 X99.759 Y117.599 E8.81569
G1 X99.746 Y118.034 E8.84778
G1 X99.932 Y118.226 E8.86744
G1 X142.951 Y118.226 E12.03688
G1 X143.156 Y118.430 E12.05820
G1 X143.156 Y120.270 E12.19372
G1 X142.951 Y120.474 E12.21505
G1 X138.504 Y120.474 E12.54269
G1 X137.625 Y122.175 F24000.000
G1 F2100
G1 X142.506 Y122.175 E12.86372
G1 X142.506 Y123.125 E12.92621
G1 X97.494 Y123.125 E15.88665
G1 X97.494 Y118.875 E16.16617
G1 X97.930 Y118.875 E16.19488
G1 X97.890 Y117.613 E16.27795
G1 X97.929 Y116.875 E16.32653
G1 X99.071 Y116.875 E16.40164
G1 X99.110 Y117.613 E16.45022
G1 X99.070 Y118.875 E16.53328
G1 X142.506 Y118.875 E19.39008
G1 X142.506 Y119.825 E19.45256
G1 X137.625 Y119.825 E19.77360
G1 X137.625 Y122.130 E19.92520
G1 X137.515 Y122.454 F24000.000
G1 X137.089 Y122.589 F24000.000
G1 F2100
G1 X98.029 Y122.589 E22.49415
G1 X98.029 Y119.411 E22.70321
G1 X137.089 Y119.411 E25.27217
G1 X137.089 Y122.544 E25.47827
G1 X136.554 Y122.054 F24000.000
G1 F2100
G1 X98.565 Y122.054 E27.97677
G1 X98.565 Y119.946 E28.11538
G1 X136.554 Y119.946 E30.61388
G1 X136.554 Y122.009 E30.74953
G1 X135.961 Y121.575 F24000.000
G1 F2100
G1 X136.075 Y121.461 E30.76013
G1 X136.075 Y120.702 E30.81016
G1 X135.202 Y121.575 E30.89152
G1 X134.443 Y121.575 E30.94155
G1 X135.593 Y120.425 E31.04873
G1 X134.834 Y120.425 E31.09876
G1 X133.684 Y121.575 E31.20594
G1 X132.925 Y121.575 E31.25597
G1 X134.075 Y120.425 E31.36315
G1 X133.316 Y120.425 E31.41318
G1 X132.166 Y121.575 E31.52037
G1 X131.407 Y121.575 E31.57039
G1 X132.557 Y120.425 E31.67758
G1 X131.798 Y120.425 E31.72761
G1 X130.648 Y121.575 E31.83479
G1 X129.889 Y121.575 E31.88482
G1 X131.039 Y120.425 E31.99200
G1 X130.280 Y120.425 E32.04203
G1 X129.130 Y121.575 E32.14921
G1 X128.370 Y121.575 E32.19924
G1 X129.520 Y120.425 E32.30643
G1 X128.761 Y120.425 E32.35645
G1 X127.611 Y121.575 E32.46364
G1 X126.852 Y121.575 E32.51367
G1 X128.002 Y120.425 E32.62085
G1 X127.243 Y120.425 E32.67088
G1 X126.093 Y121.575 E32.77806
G1 X125.334 Y121.575 E32.82809
G1 X126.484 Y120.425 E32.93527
G1 X125.725 Y120.425 E32.98530
G1 X124.575 Y121.575 E33.09249
G1 X123.816 Y121.575 E33.14252
G1 X124.966 Y120.425 E33.24970
G1 X124.207 Y120.425 E33.29973
G1 X123.057 Y121.575 E33.40691
G1 X122.298 Y121.575 E33.45694
G1 X123.448 Y120.425 E33.56412
G1 X122.689 Y120.425 E33.61415
G1 X121.539 Y121.575 E33.72134
G1 X120.780 Y121.575 E33.77136
G1 X121.930 Y120.425 E33.87855
G1 X121.171 Y120.425 E33.92858
G1 X120.021 Y121.575 E34.03576
G1 X119.262 Y121.575 E34.08579
G1 X120.412 Y120.425 E34.19297
G1 X119.653 Y120.425 E34.24300
G1 X118.503 Y121.575 E34.35019
G1 X117.743 Y121.575 E34.40021
G1 X118.893 Y120.425 E34.50740
G1 X118.134 Y120.425 E34.55743
G1 X116.984 Y121.575 E34.66461
G1 X116.225 Y121.575 E34.71464
G1 X117.375 Y120.425 E34.82182
G1 X116.616 Y120.425 E34.87185
G1 X115.466 Y121.575 E34.97903
G1 X114.707 Y121.575 E35.02906
G1 X115.857 Y120.425 E35.13625
G1 X115.098 Y120.425 E35.18628
G1 X113.948 Y121.575 E35.29346
G1 X113.189 Y121.575 E35.34349
G1 X114.339 Y120.425 E35.45067
G1 X113.580 Y120.425 E35.50070
G1 X112.430 Y121.575 E35.60788
G1 X111.671 Y121.575 E35.65791
G1 X112.821 Y120.425 E35.76510
G1 X112.062 Y120.425 E35.81512
G1 X110.912 Y121.575 E35.92231
G1 X110.153 Y121.575 E35.97234
G1 X111.303 Y120.425 E36.07952
G1 X110.544 Y120.425 E36.12955
G1 X109.394 Y121.575 E36.23673
G1 X108.635 Y121.575 E36.28676
G1 X109.785 Y120.425 E36.39395
G1 X109.025 Y120.425 E36.44397
G1 X107.876 Y121.575 E36.55116
G1 X107.116 Y121.575 E36.60119
G1 X108.266 Y120.425 E36.70837
G1 X107.507 Y120.425 E36.75840
G1 X106.357 Y121.575 E36.86558
G1 X105.598 Y121.575 E36.91561
G1 X106.748 Y120.425 E37.02280
G1 X105.989 Y120.425 E37.07282
G1 X104.839 Y121.575 E37.18001
G1 X104.080 Y121.575 E37.23004
G1 X105.230 Y120.425 E37.33722
G1 X104.471 Y120.425 E37.38725
G1 X103.321 Y121.575 E37.49443
G1 X102.562 Y121.575 E37.54446
G1 X103.712 Y120.425 E37.65164
G1 X102.953 Y120.425 E37.70167
G1 X101.803 Y121.575 E37.80886
G1 X101.044 Y121.575 E37.85889
G1 X102.194 Y120.425 E37.96607
G1 X101.435 Y120.425 E38.01610
G1 X100.285 Y121.575 E38.12328
G1 X99.526 Y121.575 E38.17331
G1 X100.676 Y120.425 E38.28049
G1 X99.917 Y120.425 E38.33052
G1 X99.044 Y121.298 E38.41188
G1 X99.044 Y120.539 E38.46191
G1 X99.158 Y120.425 E38.47252
G1 X98.500 Y119.143 F24000.000
G1 F2100
G1 X98.500 Y117.143 E38.62430
G1 E34.62430 F2400.00000
G92 E0
G1 X98.194 Y119.575 F24000.000
G1 X99.619 Y121.000 F24000.000
G1 X135.500 Y121.000 F24000.000
G1 X136.925 Y119.575 F24000.000
G1 X137.357 Y119.350 F24000.000
G1 E4.00000 F2400.00000
G1 F2100
G1 X142.238 Y119.350 E4.20978
G1 E0.20978 F2400.00000
G92 E0
G1 X136.925 Y119.575 F24000.000
G1 X135.500 Y121.000 F24000.000
G1 X136.925 Y122.425 F24000.000
G1 X142.238 Y122.650 F24000.000
G1 E4.00000 F2400.00000
G1 F2100
G1 X137.357 Y122.650 E4.20978
M104 S200 ; set temperature
M140 S50 ; set bed temperature
G1 Z0.500 F24000.000
G1 E0.20978 F2400.00000
G92 E0
G1 X99.168 Y119.419 F24000.000
G1 E4.00000 F2400.00000
G1 F6000
G1 X137.081 Y119.419 E5.10822
G1 X137.081 Y122.581 E5.20064
G1 X97.454 Y122.581 E6.35897
G1 X97.454 Y119.419 E6.45139
G1 X97.832 Y119.419 E6.46245
G1 X97.809 Y118.112 E6.50065
G1 X97.826 Y117.419 E6.52092
G1 X99.174 Y117.419 E6.56030
G1 X99.191 Y118.112 E6.58057
G1 X99.169 Y119.374 E6.61746
G1 X99.531 Y119.062 F24000.000
G1 F6000
G1 X142.903 Y119.062 E7.88525
G1 X142.903 Y119.638 E7.90209
G1 X137.438 Y119.638 E8.06185
G1 X137.438 Y122.362 E8.14147
G1 X142.903 Y122.362 E8.30123
G1 X142.903 Y122.938 E8.31807
G1 X97.097 Y122.938 E9.65703
G1 X97.097 Y119.062 E9.77033
G1 X97.469 Y119.062 E9.78120
G1 X97.457 Y118.425 E9.79982

G1 F2400
G1 X97.454 Y118.036 E9.81106

G1 F6000
G1 X97.478 Y117.062 E9.83955
G1 X99.522 Y117.062 E9.89929
G1 X99.546 Y118.036 E9.92778

G1 F2400
G1 X99.543 Y118.425 E9.93902

G1 F6000
G1 X99.532 Y119.017 E9.95633
G1 X99.859 Y118.740 F24000.000
G1 F2100
G1 X142.956 Y118.740 E10.96914

G1 F2400
G1 X143.225 Y118.740 E10.97692
G1 X143.225 Y119.960 E11.01222
G1 X142.956 Y119.960 E11.02001

G1 F2100
G1 X137.760 Y119.960 E11.14212
G1 X137.760 Y122.040 E11.19100
G1 X142.956 Y122.040 E11.31312

G1 F2400
G1 X143.225 Y122.040 E11.32091
G1 X143.225 Y123.260 E11.35620
G1 X142.956 Y123.260 E11.36399

G1 F2100
G1 X97.044 Y123.260 E12.44296

G1 F2400
G1 X96.775 Y123.260 E12.45075
G1 X96.775 Y118.740 E12.58152
G1 X97.044 Y118.740 E12.58931

G1 F2100
G1 X97.141 Y118.740 E12.59159
G1 X97.135 Y118.425 E12.59899

G1 F2400
G1 X97.164 Y116.740 E12.64775
G1 X97.485 Y116.740 E12.65704

G1 F2100
G1 X99.515 Y116.740 E12.70473

G1 F2400
G1 X99.836 Y116.740 E12.71403
G1 X99.865 Y118.425 E12.76278

G1 F2100
G1 X99.860 Y118.695 E12.76913
G1 X99.970 Y119.019 F24000.000
G1 X98.912 Y117.968 F24000.000
G1 F1800
G1 X98.637 Y117.694 E12.77731
G1 X98.273 Y117.694 E12.78497
G1 X98.913 Y118.333 E12.80402
G1 X98.907 Y118.691 E12.81155
G1 X98.089 Y117.873 E12.83592
G1 X98.086 Y118.234 E12.84352
G1 X98.901 Y119.048 E12.86778
G1 X98.894 Y119.406 E12.87530
G1 X98.093 Y118.604 E12.89918
G1 X98.099 Y118.974 E12.90697
G1 X101.431 Y122.306 E13.00619
G1 X101.067 Y122.306 E13.01385
G1 X98.106 Y119.345 E13.10204
G1 X98.112 Y119.694 E13.10939
G1 X98.091 Y119.694 E13.10983
G1 X100.704 Y122.306 E13.18763
G1 X100.340 Y122.306 E13.19529
G1 X97.728 Y119.695 E13.27306
G1 X97.728 Y120.058 E13.28072
G1 X99.976 Y122.306 E13.34766
G1 X99.612 Y122.306 E13.35532
G1 X97.728 Y120.422 E13.41142
G1 X97.728 Y120.786 E13.41908
G1 X99.249 Y122.306 E13.46435
G1 X98.885 Y122.306 E13.47201
G1 X97.728 Y121.150 E13.50645
G1 X97.728 Y121.514 E13.51411
G1 X98.521 Y122.306 E13.53772
G1 X98.157 Y122.306 E13.54538
G1 X97.728 Y121.877 E13.55816
G1 X97.728 Y122.241 E13.56582
G1 X97.793 Y122.306 E13.56776
G1 E9.56776 F2400.00000
G92 E0
G1 X99.182 Y119.694 F24000.000
G1 E4.00000 F2400.00000
G1 F1800
G1 X101.795 Y122.306 E4.07780
G1 X102.158 Y122.305 E4.08544
G1 X99.546 Y119.694 E4.16321
G1 X99.910 Y119.694 E4.17087
G1 X102.158 Y121.942 E4.23780
G1 X102.158 Y121.578 E4.24546
G1 X100.273 Y119.694 E4.30157
G1 X100.637 Y119.694 E4.30923
G1 X102.158 Y121.214 E4.35450
G1 X102.158 Y120.850 E4.36216
G1 X101.001 Y119.694 E4.39660
G1 X101.365 Y119.694 E4.40426
G1 X102.158 Y120.486 E4.42786
G1 X102.158 Y120.123 E4.43552
G1 X101.729 Y119.694 E4.44830
G1 X102.092 Y119.694 E4.45596
G1 X102.158 Y119.759 E4.45790
G1 X102.394 Y122.186 F24000.000
G1 F3600
G1 X102.470 Y122.262 E4.46108
G1 X102.980 Y122.262 E4.47615
G1 X102.394 Y121.675 E4.50064
G1 X102.394 Y121.165 E4.51571
G1 X103.491 Y122.262 E4.56151
G1 X104.001 Y122.262 E4.57658
G1 X102.394 Y120.655 E4.64369
G1 X102.394 Y120.145 E4.65877
G1 X104.511 Y122.262 E4.74720
G1 X105.022 Y122.262 E4.76227
G1 X102.498 Y119.738 E4.86767
G1 X103.008 Y119.738 E4.88274
G1 X105.532 Y122.262 E4.98814
G1 X106.042 Y122.262 E5.00321
G1 X103.519 Y119.738 E5.10861
