; generated by Slic3r 1.3.0 on 2024-10-26 at 15:37:34

; Print Config Notes: 
; Cubic Infill Pattern 20 % density
; 
; Printer Config Notes: 
; No Retraction
; 
; external perimeters extrusion width = 0.33mm (2.01mm^3/s)
; perimeters extrusion width = 0.40mm (7.14mm^3/s)
; infill extrusion width = 0.80mm (18.17mm^3/s)
; solid infill extrusion width = 0.40mm (4.28mm^3/s)
; top infill extrusion width = 0.30mm (1.54mm^3/s)

M107
M190 S55 ; set bed temperature and wait for it to be reached
M104 S205 ; set temperature
G28 ; home all axes
G1 Z5 F5000 ; lift nozzle

; Filament gcode

M109 S205 ; set temperature and wait for it to be reached
G21 ; set units to millimeters
G90 ; use absolute coordinates
M82 ; use absolute distances for extrusion
G92 E0
G1 Z0.300 F24000.000
G1 E-4.00000 F2400.00000
G92 E0
G1 X48.633 Y95.700 F24000.000
G1 E4.00000 F2400.00000
G1 F2100
G1 X50.075 Y95.468 E4.09606
G1 X189.925 Y95.468 E13.29390
G1 X191.793 Y95.864 E13.41947
G1 X193.340 Y96.983 E13.54504
G1 X194.300 Y98.633 E13.67062
G1 X194.532 Y100.075 E13.76667
G1 X194.532 Y139.925 E16.38758
G1 X194.136 Y141.793 E16.51316
G1 X193.017 Y143.340 E16.63873
G1 X191.367 Y144.300 E16.76430
G1 X189.925 Y144.532 E16.86036
G1 X50.075 Y144.532 E26.05820
G1 X48.207 Y144.136 E26.18377
G1 X46.660 Y143.017 E26.30935
G1 X45.700 Y141.367 E26.43492
G1 X45.468 Y139.925 E26.53098
G1 X45.468 Y100.075 E29.15189
G1 X45.864 Y98.207 E29.27746
G1 X46.983 Y96.660 E29.40304
G1 X48.594 Y95.722 E29.52565
G1 X49.114 Y96.119 F24000.000
G1 F2100
G1 X50.075 Y96.004 E29.58928
G1 X189.925 Y96.004 E38.78712
G1 X191.675 Y96.399 E38.90509
G1 X193.085 Y97.507 E39.02305
G1 X193.881 Y99.114 E39.14101
G1 X193.996 Y100.075 E39.20465
G1 X193.996 Y139.925 E41.82555
G1 X193.601 Y141.675 E41.94352
G1 X192.493 Y143.085 E42.06148
G1 X190.886 Y143.881 E42.17944
G1 X189.925 Y143.996 E42.24308
G1 X50.075 Y143.996 E51.44092
G1 X48.325 Y143.601 E51.55888
G1 X46.915 Y142.493 E51.67684
G1 X46.119 Y140.886 E51.79481
G1 X46.004 Y139.925 E51.85844
G1 X46.004 Y100.075 E54.47935
G1 X46.399 Y98.325 E54.59731
G1 X47.507 Y96.915 E54.71528
G1 X49.074 Y96.139 E54.83028
G1 X50.075 Y96.539 F24000.000
G1 F2100
G1 X189.925 Y96.539 E64.02812
G1 X191.548 Y96.934 E64.13795
G1 X192.808 Y98.029 E64.24777
G1 X193.461 Y100.075 E64.38902
G1 X193.461 Y139.925 E67.00993
G1 X193.066 Y141.548 E67.11976
G1 X191.971 Y142.808 E67.22958
G1 X189.925 Y143.461 E67.37083
G1 X50.075 Y143.461 E76.56867
G1 X48.452 Y143.066 E76.67850
G1 X47.192 Y141.971 E76.78833
G1 X46.539 Y139.925 E76.92958
G1 X46.539 Y100.075 E79.55049
G1 X46.934 Y98.452 E79.66031
G1 X48.029 Y97.192 E79.77014
G1 X50.032 Y96.553 E79.90843
G1 X50.075 Y97.326 F24000.000
G1 F2100
G1 X191.064 Y97.326 E90.29574
G1 X192.674 Y98.936 E90.46354
G1 X192.674 Y141.064 E93.56729
G1 X191.064 Y142.674 E93.73509
G1 X48.936 Y142.674 E104.20630
G1 X47.326 Y141.064 E104.37411
G1 X47.326 Y98.936 E107.47785
G1 X48.936 Y97.326 E107.64566
G1 X50.030 Y97.326 E107.72624
G1 X50.075 Y97.926 F24000.000
G1 F2100
G1 X190.815 Y97.926 E118.09524
G1 X192.074 Y99.185 E118.22643
G1 X192.074 Y140.815 E121.29355
G1 X190.815 Y142.074 E121.42473
G1 X49.185 Y142.074 E131.85932
G1 X47.926 Y140.815 E131.99051
G1 X47.926 Y99.185 E135.05763
G1 X49.185 Y97.926 E135.18882
G1 X50.030 Y97.926 E135.25109
G1 X50.075 Y98.526 F24000.000
G1 F2100
G1 X190.567 Y98.526 E145.60178
G1 X191.474 Y99.433 E145.69635
G1 X191.474 Y140.567 E148.72685
G1 X190.567 Y141.474 E148.82141
G1 X49.433 Y141.474 E159.21938
G1 X48.526 Y140.567 E159.31395
G1 X48.526 Y99.433 E162.34445
G1 X49.433 Y98.526 E162.43901
G1 X50.030 Y98.526 E162.48298
G1 X50.075 Y99.126 F24000.000
G1 F2100
G1 X190.318 Y99.126 E172.81536
G1 X190.874 Y99.682 E172.87330
G1 X190.874 Y140.318 E175.86718
G1 X190.318 Y140.874 E175.92513
G1 X49.682 Y140.874 E186.28648
G1 X49.126 Y140.318 E186.34442
G1 X49.126 Y99.682 E189.33830
G1 X49.682 Y99.126 E189.39625
G1 X50.030 Y99.126 E189.42190
G1 X50.075 Y99.726 F24000.000
G1 F2100
G1 X190.070 Y99.726 E199.73597
G1 X190.274 Y99.930 E199.75729
G1 X190.274 Y140.070 E202.71455
G1 X190.070 Y140.274 E202.73588
G1 X49.930 Y140.274 E213.06061
G1 X49.726 Y140.070 E213.08193
G1 X49.726 Y99.930 E216.03919
G1 X49.930 Y99.726 E216.06051
G1 X50.030 Y99.726 E216.06786
G1 E212.06786 F2400.00000
G92 E0
G1 X50.375 Y139.625 F24000.000
G1 E4.00000 F2400.00000
G1 F2100
G1 X50.375 Y100.375 E6.58145
G1 X189.625 Y100.375 E15.73982
G1 X189.625 Y139.625 E18.32127
G1 X50.420 Y139.625 E27.47669
G1 X50.501 Y139.353 F24000.000
G1 X50.911 Y139.089 F24000.000
G1 F2100
G1 X50.911 Y100.911 E29.98768
G1 X189.089 Y100.911 E39.07560
G1 X189.089 Y139.089 E41.58659
G1 X50.956 Y139.089 E50.67156
G1 E46.67156 F2400.00000
G92 E0
G1 X51.446 Y102.767 F24000.000
G1 E4.00000 F2400.00000
G1 F2100
G1 X51.446 Y101.446 E4.08689
G1 X52.767 Y101.446 E4.17373
G1 X52.830 Y101.684 E4.18995
G1 X52.482 Y101.886 E4.21641
G1 X52.113 Y102.209 E4.24869
G1 X51.842 Y102.546 E4.27712
G1 X51.688 Y102.829 E4.29829
G1 X51.490 Y102.779 E4.31176
G1 X52.600 Y103.396 F24000.000
G1 F2100
G1 X52.737 Y103.143 E4.33068
G1 X52.890 Y102.953 E4.34670
G1 X53.109 Y102.760 E4.36590
G1 X53.372 Y102.609 E4.38587
G1 X53.660 Y102.512 E4.40587
G1 X53.962 Y102.474 E4.42586
G1 X54.265 Y102.497 E4.44585
G1 X54.558 Y102.579 E4.46585
G1 X54.828 Y102.718 E4.48584
G1 X55.066 Y102.907 E4.50583
G1 X55.261 Y103.140 E4.52582
G1 X55.407 Y103.407 E4.54582
G1 X55.496 Y103.698 E4.56581
G1 X55.527 Y104.000 E4.58580
G1 X55.496 Y104.302 E4.60580
G1 X55.407 Y104.593 E4.62579
G1 X55.261 Y104.860 E4.64578
G1 X55.066 Y105.093 E4.66577
G1 X54.831 Y105.280 E4.68556
G1 X54.616 Y105.396 E4.70157
G1 X54.339 Y105.488 E4.72078
G1 X54.038 Y105.526 E4.74075
G1 X53.735 Y105.503 E4.76074
G1 X53.442 Y105.421 E4.78074
G1 X53.172 Y105.282 E4.80073
G1 X52.934 Y105.093 E4.82072
G1 X52.739 Y104.860 E4.84071
G1 X52.593 Y104.593 E4.86071
G1 X52.504 Y104.302 E4.88070
G1 X52.473 Y104.000 E4.90069
G1 X52.504 Y103.698 E4.92069
G1 X52.584 Y103.438 E4.93858
G1 X52.426 Y103.166 F24000.000
G1 X52.129 Y103.139 F24000.000
G1 F2100
G1 X52.290 Y102.845 E4.96066
G1 X52.501 Y102.581 E4.98288
G1 X52.796 Y102.323 E5.00862
G1 X53.151 Y102.118 E5.03560
G1 X53.541 Y101.987 E5.06264
G1 X53.949 Y101.936 E5.08968
G1 X54.359 Y101.967 E5.11673
G1 X54.754 Y102.078 E5.14377
G1 X55.120 Y102.265 E5.17081
G1 X55.442 Y102.522 E5.19786
G1 X55.706 Y102.837 E5.22490
G1 X55.903 Y103.198 E5.25194
G1 X56.024 Y103.591 E5.27898
G1 X56.065 Y104.000 E5.30603
G1 X56.024 Y104.409 E5.33307
G1 X55.903 Y104.802 E5.36011
G1 X55.706 Y105.163 E5.38716
G1 X55.442 Y105.478 E5.41420
G1 X55.127 Y105.729 E5.44066
G1 X54.830 Y105.889 E5.46288
G1 X54.458 Y106.013 E5.48863
G1 X54.051 Y106.064 E5.51560
G1 X53.641 Y106.033 E5.54264
G1 X53.246 Y105.922 E5.56969
G1 X52.880 Y105.734 E5.59673
G1 X52.558 Y105.478 E5.62377
G1 X52.294 Y105.163 E5.65082
G1 X52.097 Y104.802 E5.67786
G1 X51.976 Y104.409 E5.70490
G1 X51.935 Y104.000 E5.73195
G1 X51.976 Y103.591 E5.75899
G1 X52.108 Y103.179 E5.78743
G1 E1.78743 F2400.00000
G92 E0
G1 X51.688 Y137.171 F24000.000
G1 E4.00000 F2400.00000
G1 F2100
G1 X51.849 Y137.466 E4.02213
G1 X52.182 Y137.863 E4.05622
G1 X52.588 Y138.187 E4.09031
G1 X52.824 Y138.308 E4.10778
G1 X52.765 Y138.554 E4.12442
G1 X51.446 Y138.554 E4.21112
G1 X51.446 Y137.233 E4.29802
G1 X51.645 Y137.182 E4.31149
G1 X52.629 Y136.659 F24000.000
G1 F2100
G1 X52.504 Y136.302 E4.33632
G1 X52.473 Y136.000 E4.35631
G1 X52.504 Y135.698 E4.37630
G1 X52.593 Y135.407 E4.39629
G1 X52.739 Y135.140 E4.41629
G1 X52.934 Y134.907 E4.43628
G1 X53.169 Y134.720 E4.45607
G1 X53.384 Y134.604 E4.47208
G1 X53.661 Y134.512 E4.49129
G1 X53.962 Y134.474 E4.51126
G1 X54.265 Y134.497 E4.53125
G1 X54.558 Y134.579 E4.55124
G1 X54.828 Y134.718 E4.57124
G1 X55.066 Y134.907 E4.59123
G1 X55.261 Y135.140 E4.61122
G1 X55.407 Y135.407 E4.63121
G1 X55.496 Y135.698 E4.65121
G1 X55.527 Y136.000 E4.67120
G1 X55.496 Y136.302 E4.69119
G1 X55.407 Y136.593 E4.71119
G1 X55.261 Y136.860 E4.73118
G1 X55.066 Y137.093 E4.75117
G1 X54.828 Y137.282 E4.77117
G1 X54.561 Y137.420 E4.79095
G1 X54.328 Y137.490 E4.80696
G1 X54.038 Y137.526 E4.82617
G1 X53.735 Y137.503 E4.84614
G1 X53.442 Y137.421 E4.86613
G1 X53.172 Y137.282 E4.88612
G1 X52.934 Y137.093 E4.90612
G1 X52.739 Y136.860 E4.92611
G1 X52.651 Y136.698 E4.93823
G1 X52.554 Y136.660 F24000.000
G1 X52.159 Y136.915 F24000.000
G1 F2100
G1 X52.097 Y136.802 E4.94667
G1 X51.976 Y136.409 E4.97371
G1 X51.935 Y136.000 E5.00076
G1 X51.976 Y135.591 E5.02780
G1 X52.097 Y135.198 E5.05484
G1 X52.294 Y134.837 E5.08188
G1 X52.558 Y134.522 E5.10893
G1 X52.873 Y134.271 E5.13539
G1 X53.170 Y134.111 E5.15761
G1 X53.542 Y133.987 E5.18336
G1 X53.949 Y133.936 E5.21033
G1 X54.359 Y133.967 E5.23737
G1 X54.754 Y134.078 E5.26442
G1 X55.120 Y134.265 E5.29146
G1 X55.442 Y134.522 E5.31850
G1 X55.706 Y134.837 E5.34555
G1 X55.903 Y135.198 E5.37259
G1 X56.024 Y135.591 E5.39963
G1 X56.065 Y136.000 E5.42668
G1 X56.024 Y136.409 E5.45372
G1 X55.903 Y136.802 E5.48076
G1 X55.706 Y137.163 E5.50780
G1 X55.442 Y137.478 E5.53485
G1 X55.120 Y137.735 E5.56189
G1 X54.762 Y137.918 E5.58835
G1 X54.439 Y138.016 E5.61057
G1 X54.050 Y138.064 E5.63632
G1 X53.641 Y138.033 E5.66329
G1 X53.246 Y137.922 E5.69034
G1 X52.880 Y137.735 E5.71738
G1 X52.558 Y137.478 E5.74442
G1 X52.294 Y137.163 E5.77146
G1 X52.180 Y136.954 E5.78711
G1 E1.78711 F2400.00000
G92 E0
G1 X52.387 Y137.654 F24000.000
G1 X52.146 Y138.267 F24000.000
G1 X54.170 Y138.602 F24000.000
G1 X56.471 Y138.000 F24000.000
G1 X58.251 Y136.818 F24000.000
G1 X60.717 Y134.142 F24000.000
G1 X62.512 Y131.438 F24000.000
G1 X66.638 Y123.362 F24000.000
G1 X70.000 Y120.000 F24000.000
G1 X106.044 Y120.000 F24000.000
G1 X111.502 Y131.460 F24000.000
G1 X113.282 Y134.142 F24000.000
G1 X117.690 Y136.000 F24000.000
G1 X118.473 Y136.000 F24000.000
G1 E4.00000 F2400.00000
G1 F2100
G1 X118.504 Y135.698 E4.01999
G1 X118.593 Y135.407 E4.03998
G1 X118.737 Y135.143 E4.05977
G1 X118.890 Y134.953 E4.07578
G1 X119.109 Y134.760 E4.09499
G1 X119.372 Y134.609 E4.11496
G1 X119.660 Y134.512 E4.13495
G1 X119.962 Y134.474 E4.15495
G1 X120.265 Y134.497 E4.17494
G1 X120.558 Y134.579 E4.19493
G1 X120.828 Y134.718 E4.21493
G1 X121.066 Y134.907 E4.23492
G1 X121.261 Y135.140 E4.25491
G1 X121.407 Y135.407 E4.27490
G1 X121.496 Y135.698 E4.29490
G1 X121.527 Y136.000 E4.31489
G1 X121.496 Y136.303 E4.33488
G1 X121.407 Y136.593 E4.35488
G1 X121.263 Y136.857 E4.37466
G1 X121.110 Y137.047 E4.39067
G1 X120.891 Y137.240 E4.40988
G1 X120.628 Y137.391 E4.42985
G1 X120.340 Y137.488 E4.44984
G1 X120.038 Y137.526 E4.46984
G1 X119.735 Y137.503 E4.48983
G1 X119.442 Y137.421 E4.50982
G1 X119.172 Y137.282 E4.52982
G1 X118.934 Y137.093 E4.54981
G1 X118.739 Y136.860 E4.56980
G1 X118.593 Y136.593 E4.58979
G1 X118.504 Y136.302 E4.60979
G1 X118.478 Y136.045 E4.62682
G1 X118.473 Y136.000 F24000.000
G1 X117.941 Y136.053 F24000.000
G1 F2100
G1 X117.976 Y135.591 E4.65733
G1 X118.097 Y135.198 E4.68437
G1 X118.290 Y134.845 E4.71083
G1 X118.501 Y134.581 E4.73305
G1 X118.796 Y134.323 E4.75880
G1 X119.151 Y134.118 E4.78577
G1 X119.541 Y133.987 E4.81282
G1 X119.949 Y133.936 E4.83986
G1 X120.359 Y133.967 E4.86690
G1 X120.754 Y134.078 E4.89395
G1 X121.120 Y134.266 E4.92099
G1 X121.442 Y134.522 E4.94803
G1 X121.706 Y134.837 E4.97507
G1 X121.903 Y135.198 E5.00212
G1 X122.024 Y135.591 E5.02916
G1 X122.065 Y136.000 E5.05620
G1 X122.024 Y136.409 E5.08325
G1 X121.903 Y136.802 E5.11029
G1 X121.710 Y137.155 E5.13675
G1 X121.499 Y137.419 E5.15897
G1 X121.204 Y137.677 E5.18472
G1 X120.849 Y137.882 E5.21169
G1 X120.459 Y138.013 E5.23873
G1 X120.051 Y138.064 E5.26578
G1 X119.641 Y138.033 E5.29282
G1 X119.246 Y137.922 E5.31986
G1 X118.880 Y137.734 E5.34691
G1 X118.558 Y137.478 E5.37395
G1 X118.294 Y137.163 E5.40099
G1 X118.097 Y136.802 E5.42804
G1 X117.976 Y136.409 E5.45508
G1 X117.945 Y136.098 E5.47564
G1 E1.47564 F2400.00000
G92 E0
G1 X118.824 Y138.308 F24000.000
G1 E4.00000 F2400.00000
G1 F2100
G1 X118.765 Y138.554 E4.01664
G1 X55.235 Y138.554 E8.19491
G1 X55.176 Y138.308 E8.21155
G1 X55.412 Y138.187 E8.22901
G1 X55.818 Y137.863 E8.26311
G1 X56.151 Y137.466 E8.29720
G1 X56.399 Y137.011 E8.33129
G1 X56.551 Y136.516 E8.36539
G1 X56.603 Y136.000 E8.39948
G1 X56.551 Y135.484 E8.43357
G1 X56.399 Y134.989 E8.46766
G1 X56.151 Y134.534 E8.50176
G1 X55.818 Y134.137 E8.53585
G1 X55.412 Y133.813 E8.56994
G1 X54.951 Y133.577 E8.60404
G1 X54.452 Y133.436 E8.63813
G1 X53.935 Y133.398 E8.67222
G1 X53.422 Y133.462 E8.70621
G1 X52.957 Y133.617 E8.73849
G1 X52.576 Y133.822 E8.76692
G1 X52.182 Y134.137 E8.80005
G1 X51.849 Y134.534 E8.83415
G1 X51.688 Y134.829 E8.85627
G1 X51.446 Y134.767 E8.87270
G1 X51.446 Y105.233 E10.81519
G1 X51.688 Y105.171 E10.83162
G1 X51.849 Y105.466 E10.85375
G1 X52.182 Y105.863 E10.88784
G1 X52.588 Y106.187 E10.92194
G1 X53.049 Y106.423 E10.95603
G1 X53.548 Y106.564 E10.99012
G1 X54.065 Y106.602 E11.02421
G1 X54.578 Y106.538 E11.05820
G1 X55.043 Y106.383 E11.09048
G1 X55.424 Y106.178 E11.11891
G1 X55.818 Y105.863 E11.15204
G1 X56.151 Y105.466 E11.18614
G1 X56.399 Y105.011 E11.22023
G1 X56.551 Y104.516 E11.25432
G1 X56.603 Y104.000 E11.28842
G1 X56.551 Y103.484 E11.32251
G1 X56.399 Y102.989 E11.35660
G1 X56.151 Y102.534 E11.39070
G1 X55.818 Y102.137 E11.42479
G1 X55.412 Y101.813 E11.45888
G1 X55.176 Y101.692 E11.47634
G1 X55.235 Y101.446 E11.49298
G1 X118.767 Y101.446 E15.67138
G1 X118.830 Y101.684 E15.68760
G1 X118.482 Y101.886 E15.71406
G1 X118.113 Y102.209 E15.74634
G1 X117.842 Y102.546 E15.77477
G1 X117.601 Y102.989 E15.80791
G1 X117.448 Y103.484 E15.84200
G1 X117.397 Y104.000 E15.87609
G1 X117.448 Y104.516 E15.91019
G1 X117.601 Y105.011 E15.94428
G1 X117.849 Y105.466 E15.97838
G1 X118.182 Y105.864 E16.01247
G1 X118.588 Y106.187 E16.04656
G1 X119.049 Y106.423 E16.08065
G1 X119.548 Y106.564 E16.11475
G1 X120.065 Y106.602 E16.14884
G1 X120.579 Y106.538 E16.18293
G1 X121.071 Y106.373 E16.21703
G1 X121.518 Y106.114 E16.25101
G1 X121.887 Y105.791 E16.28329
G1 X122.158 Y105.454 E16.31172
G1 X122.399 Y105.011 E16.34485
G1 X122.551 Y104.516 E16.37895
G1 X122.603 Y104.000 E16.41304
G1 X122.552 Y103.484 E16.44713
G1 X122.399 Y102.989 E16.48123
G1 X122.151 Y102.534 E16.51532
G1 X121.818 Y102.136 E16.54942
G1 X121.412 Y101.813 E16.58351
G1 X121.176 Y101.692 E16.60097
G1 X121.235 Y101.446 E16.61761
G1 X184.767 Y101.446 E20.79601
G1 X184.830 Y101.684 E20.81223
G1 X184.480 Y101.886 E20.83880
G1 X184.092 Y102.229 E20.87289
G1 X183.779 Y102.643 E20.90699
G1 X183.554 Y103.110 E20.94107
G1 X183.426 Y103.610 E20.97506
G1 X183.401 Y104.101 E21.00734
G1 X183.453 Y104.530 E21.03577
G1 X183.601 Y105.011 E21.06891
G1 X183.849 Y105.466 E21.10300
G1 X184.182 Y105.863 E21.13709
G1 X184.588 Y106.187 E21.17119
G1 X185.049 Y106.423 E21.20528
G1 X185.548 Y106.564 E21.23937
G1 X186.065 Y106.602 E21.27347
G1 X186.579 Y106.538 E21.30756
G1 X187.071 Y106.373 E21.34165
G1 X187.520 Y106.114 E21.37575
G1 X187.908 Y105.771 E21.40984
G1 X188.221 Y105.357 E21.44393
G1 X188.304 Y105.186 E21.45647
G1 X188.554 Y105.243 E21.47332
G1 X188.554 Y134.767 E23.41515
G1 X188.312 Y134.829 E23.43158
G1 X188.151 Y134.534 E23.45370
G1 X187.818 Y134.137 E23.48780
G1 X187.412 Y133.813 E23.52189
G1 X186.951 Y133.577 E23.55598
G1 X186.452 Y133.436 E23.59007
G1 X185.935 Y133.398 E23.62417
G1 X185.421 Y133.462 E23.65827
G1 X184.929 Y133.627 E23.69236
G1 X184.480 Y133.886 E23.72645
G1 X184.092 Y134.229 E23.76055
G1 X183.779 Y134.643 E23.79464
G1 X183.554 Y135.110 E23.82872
G1 X183.426 Y135.610 E23.86271
G1 X183.401 Y136.101 E23.89499
G1 X183.453 Y136.530 E23.92342
G1 X183.601 Y137.011 E23.95656
G1 X183.849 Y137.466 E23.99065
G1 X184.182 Y137.863 E24.02474
G1 X184.588 Y138.187 E24.05884
G1 X184.824 Y138.308 E24.07630
G1 X184.765 Y138.554 E24.09294
G1 X121.233 Y138.554 E28.27134
G1 X121.170 Y138.316 E28.28756
G1 X121.518 Y138.114 E28.31402
G1 X121.887 Y137.791 E28.34630
G1 X122.158 Y137.454 E28.37473
G1 X122.399 Y137.011 E28.40787
G1 X122.551 Y136.516 E28.44196
G1 X122.603 Y136.000 E28.47605
G1 X122.552 Y135.484 E28.51014
G1 X122.399 Y134.989 E28.54424
G1 X122.151 Y134.534 E28.57833
G1 X121.818 Y134.136 E28.61243
