; generated by Slic3r 1.3.0 on 2024-10-26 at 21:27:30

; Print Config Notes: 
; Cubic Infill Pattern 20 % density
; 
; Printer Config Notes: 
; No Retraction
; 
; external perimeters extrusion width = 0.33mm (2.01mm^3/s)
; perimeters extrusion width = 0.40mm (7.14mm^3/s)
; infill extrusion width = 0.80mm (18.17mm^3/s)
; solid infill extrusion width = 0.40mm (4.28mm^3/s)
; top infill extrusion width = 0.30mm (1.54mm^3/s)

M107
M190 S55 ; set bed temperature and wait for it to be reached
M104 S205 ; set temperature
G28 ; home all axes
G1 Z5 F5000 ; lift nozzle

; Filament gcode

M109 S205 ; set temperature and wait for it to be reached
G21 ; set units to millimeters
G90 ; use absolute coordinates
M82 ; use absolute distances for extrusion
G92 E0
G1 Z0.300 F24000.000
G1 E-4.00000 F2400.00000
G92 E0
G1 X96.949 Y102.801 F24000.000
G1 E4.00000 F2400.00000
G1 F2100
G1 X98.634 Y101.690 E4.13275
G1 X100.568 Y101.312 E4.26236
G1 X139.432 Y101.312 E6.81838
G1 X141.411 Y101.708 E6.95113
G1 X143.085 Y102.835 E7.08388
G1 X144.197 Y104.520 E7.21663
G1 X144.574 Y106.455 E7.34624
G1 X144.574 Y133.546 E9.12800
G1 X144.178 Y135.525 E9.26075
G1 X143.051 Y137.199 E9.39350
G1 X141.366 Y138.310 E9.52625
G1 X139.432 Y138.688 E9.65586
G1 X100.568 Y138.688 E12.21188
G1 X98.589 Y138.292 E12.34463
G1 X96.915 Y137.165 E12.47738
G1 X95.803 Y135.480 E12.61013
G1 X95.426 Y133.546 E12.73974
G1 X95.426 Y106.455 E14.52150
G1 X95.822 Y104.475 E14.65425
G1 X96.924 Y102.838 E14.78404
G1 X97.476 Y103.040 F24000.000
G1 F2100
G1 X99.126 Y102.079 E14.90962
G1 X100.568 Y101.848 E15.00567
G1 X139.432 Y101.848 E17.56169
G1 X141.300 Y102.243 E17.68726
G1 X142.847 Y103.362 E17.81284
G1 X143.807 Y105.012 E17.93841
G1 X144.039 Y106.455 E18.03447
G1 X144.039 Y133.546 E19.81623
G1 X143.643 Y135.413 E19.94180
G1 X142.524 Y136.960 E20.06737
G1 X140.874 Y137.921 E20.19295
G1 X139.432 Y138.152 E20.28900
G1 X100.568 Y138.152 E22.84502
G1 X98.700 Y137.757 E22.97060
G1 X97.153 Y136.638 E23.09617
G1 X96.193 Y134.988 E23.22175
G1 X95.961 Y133.546 E23.31780
G1 X95.961 Y106.455 E25.09956
G1 X96.357 Y104.587 E25.22513
G1 X97.450 Y103.076 E25.34775
G1 X98.001 Y103.295 F24000.000
G1 F2100
G1 X99.608 Y102.498 E25.46571
G1 X100.568 Y102.383 E25.52934
G1 X139.432 Y102.383 E28.08536
G1 X141.181 Y102.778 E28.20333
G1 X142.591 Y103.887 E28.32129
G1 X143.388 Y105.494 E28.43925
G1 X143.503 Y106.455 E28.50289
G1 X143.503 Y133.546 E30.28464
G1 X143.108 Y135.295 E30.40261
G1 X141.999 Y136.705 E30.52057
G1 X140.392 Y137.502 E30.63854
G1 X139.432 Y137.617 E30.70217
G1 X100.568 Y137.617 E33.25819
G1 X98.819 Y137.222 E33.37615
G1 X97.409 Y136.113 E33.49411
G1 X96.612 Y134.506 E33.61208
G1 X96.497 Y133.546 E33.67571
G1 X96.497 Y106.455 E35.45747
G1 X96.892 Y104.705 E35.57543
G1 X97.973 Y103.330 E35.69043
G1 X98.522 Y103.571 F24000.000
G1 F2100
G1 X100.568 Y102.919 E35.83169
G1 X139.432 Y102.919 E38.38770
G1 X141.054 Y103.313 E38.49753
G1 X142.315 Y104.408 E38.60736
G1 X142.967 Y106.455 E38.74861
G1 X142.967 Y133.546 E40.53036
G1 X142.573 Y135.168 E40.64019
G1 X141.478 Y136.429 E40.75002
G1 X139.432 Y137.081 E40.89127
G1 X100.568 Y137.081 E43.44729
G1 X98.946 Y136.687 E43.55711
G1 X97.685 Y135.592 E43.66694
G1 X97.033 Y133.546 E43.80819
G1 X97.033 Y106.455 E45.58995
G1 X97.427 Y104.832 E45.69978
G1 X98.493 Y103.605 E45.80664
G1 X99.043 Y104.092 F24000.000
G1 F2100
G1 X99.429 Y103.705 E45.84693
G1 X140.571 Y103.705 E48.87799
G1 X142.181 Y105.316 E49.04580
G1 X142.181 Y134.684 E51.20952
G1 X140.571 Y136.295 E51.37733
G1 X99.429 Y136.295 E54.40838
G1 X97.819 Y134.684 E54.57619
G1 X97.819 Y105.316 E56.73991
G1 X99.011 Y104.124 E56.86411
G1 X99.467 Y104.516 F24000.000
G1 F2100
G1 X99.678 Y104.305 E56.88610
G1 X140.322 Y104.305 E59.88053
G1 X141.581 Y105.564 E60.01171
G1 X141.581 Y134.436 E62.13882
G1 X140.322 Y135.695 E62.27001
G1 X99.678 Y135.695 E65.26444
G1 X98.419 Y134.436 E65.39563
G1 X98.419 Y105.564 E67.52273
G1 X99.435 Y104.548 E67.62862
G1 X99.891 Y104.940 F24000.000
G1 F2100
G1 X99.927 Y104.905 E67.63229
G1 X140.073 Y104.905 E70.59011
G1 X140.981 Y105.813 E70.68467
G1 X140.981 Y134.187 E72.77516
G1 X140.073 Y135.095 E72.86972
G1 X99.927 Y135.095 E75.82753
G1 X99.019 Y134.187 E75.92210
G1 X99.019 Y105.813 E78.01259
G1 X99.859 Y104.972 E78.10016
G1 X100.175 Y105.505 F24000.000
G1 F2100
G1 X139.825 Y105.505 E81.02136
G1 X140.381 Y106.061 E81.07930
G1 X140.381 Y133.939 E83.13317
G1 X139.825 Y134.495 E83.19111
G1 X100.175 Y134.495 E86.11230
G1 X99.619 Y133.939 E86.17025
G1 X99.619 Y106.061 E88.22411
G1 X100.143 Y105.537 E88.27874
G1 X100.424 Y106.105 F24000.000
G1 F2100
G1 X139.576 Y106.105 E91.16332
G1 X139.781 Y106.310 E91.18464
G1 X139.781 Y133.690 E93.20188
G1 X139.576 Y133.895 E93.22321
G1 X100.424 Y133.895 E96.10778
G1 X100.219 Y133.690 E96.12910
G1 X100.219 Y106.310 E98.14635
G1 X100.392 Y106.137 E98.16436
G1 E94.16436 F2400.00000
G92 E0
G1 X139.132 Y133.245 F24000.000
G1 E4.00000 F2400.00000
G1 F2100
G1 X100.868 Y133.245 E6.51656
G1 X100.868 Y106.755 E8.25885
G1 X139.132 Y106.755 E10.77541
G1 X139.132 Y133.201 E12.51475
G1 X138.838 Y133.185 F24000.000
G1 X138.596 Y132.710 F24000.000
G1 F2100
G1 X137.274 Y132.710 E12.60168
G1 X137.210 Y132.472 E12.61790
G1 X137.654 Y132.216 E12.65155
G1 X137.947 Y131.957 E12.67728
G1 X138.183 Y131.645 E12.70302
G1 X138.346 Y131.307 E12.72772
G1 X138.596 Y131.364 E12.74458
G1 X138.596 Y132.665 E12.83016
G1 X137.552 Y131.591 F24000.000
G1 F2100
G1 X137.339 Y131.779 E12.84884
G1 X137.093 Y131.921 E12.86752
G1 X136.824 Y132.011 E12.88621
G1 X136.542 Y132.047 E12.90489
G1 X136.259 Y132.025 E12.92357
G1 X135.986 Y131.948 E12.94225
G1 X135.733 Y131.819 E12.96094
G1 X135.511 Y131.642 E12.97962
G1 X135.328 Y131.424 E12.99830
G1 X135.192 Y131.175 E13.01699
G1 X135.108 Y130.903 E13.03567
G1 X135.080 Y130.621 E13.05435
G1 X135.108 Y130.338 E13.07303
G1 X135.191 Y130.070 E13.09147
G1 X135.292 Y129.874 E13.10598
G1 X135.461 Y129.650 E13.12442
G1 X135.674 Y129.462 E13.14310
G1 X135.920 Y129.320 E13.16178
G1 X136.189 Y129.230 E13.18047
G1 X136.471 Y129.194 E13.19915
G1 X136.754 Y129.216 E13.21783
G1 X137.028 Y129.293 E13.23652
G1 X137.278 Y129.421 E13.25497
G1 X137.456 Y129.556 E13.26971
G1 X137.644 Y129.759 E13.28791
G1 X137.792 Y130.002 E13.30659
G1 X137.889 Y130.269 E13.32527
G1 X137.931 Y130.549 E13.34395
G1 X137.917 Y130.833 E13.36263
G1 X137.847 Y131.108 E13.38131
G1 X137.724 Y131.364 E13.40000
G1 X137.580 Y131.555 E13.41572
G1 X137.552 Y131.591 F24000.000
G1 E9.41572 F2400.00000
G92 E0
G1 X138.114 Y132.130 F24000.000
G1 X138.432 Y108.201 F24000.000
G1 X138.331 Y108.174 F24000.000
G1 E4.00000 F2400.00000
G1 F2100
G1 X138.277 Y108.027 E4.01030
G1 X138.073 Y107.694 E4.03600
G1 X137.700 Y107.290 E4.07216
G1 X138.596 Y107.290 E4.13111
G1 X138.596 Y108.127 E4.18618
G1 X138.375 Y108.166 E4.20095
G1 X137.827 Y108.357 F24000.000
G1 F2100
G1 X137.889 Y108.528 E4.21287
G1 X137.931 Y108.808 E4.23155
G1 X137.917 Y109.092 E4.25023
G1 X137.847 Y109.367 E4.26891
G1 X137.724 Y109.623 E4.28760
G1 X137.552 Y109.850 E4.30628
G1 X137.339 Y110.038 E4.32496
G1 X137.093 Y110.180 E4.34365
G1 X136.824 Y110.270 E4.36233
G1 X136.542 Y110.306 E4.38101
G1 X136.259 Y110.284 E4.39969
G1 X135.986 Y110.207 E4.41838
G1 X135.733 Y110.078 E4.43706
G1 X135.511 Y109.901 E4.45574
G1 X135.328 Y109.683 E4.47443
G1 X135.192 Y109.434 E4.49311
G1 X135.108 Y109.162 E4.51180
G1 X135.080 Y108.880 E4.53048
G1 X135.108 Y108.597 E4.54916
G1 X135.192 Y108.325 E4.56784
G1 X135.326 Y108.079 E4.58628
G1 X135.464 Y107.907 E4.60079
G1 X135.674 Y107.721 E4.61922
G1 X135.920 Y107.579 E4.63791
G1 X136.189 Y107.489 E4.65659
G1 X136.471 Y107.453 E4.67527
G1 X136.754 Y107.475 E4.69396
G1 X137.028 Y107.552 E4.71264
G1 X137.278 Y107.680 E4.73110
G1 X137.456 Y107.815 E4.74584
G1 X137.644 Y108.018 E4.76404
G1 X137.812 Y108.315 E4.78646
G1 X138.007 Y108.380 F24000.000
G1 X138.346 Y109.566 F24000.000
G1 F2100
G1 X138.596 Y109.623 E4.80331
G1 X138.596 Y129.868 E6.13486
G1 X138.331 Y129.915 E6.15259
G1 X138.277 Y129.768 E6.16289
G1 X138.073 Y129.435 E6.18859
G1 X137.817 Y129.158 E6.21337
G1 X137.564 Y128.966 E6.23429
G1 X137.225 Y128.792 E6.25938
G1 X136.848 Y128.686 E6.28512
G1 X136.458 Y128.656 E6.31085
G1 X136.069 Y128.705 E6.33659
G1 X135.699 Y128.830 E6.36232
G1 X135.360 Y129.025 E6.38805
G1 X135.066 Y129.284 E6.41378
G1 X134.836 Y129.588 E6.43883
G1 X134.693 Y129.867 E6.45951
G1 X134.581 Y130.231 E6.48455
G1 X134.542 Y130.621 E6.51028
G1 X134.581 Y131.010 E6.53601
G1 X134.696 Y131.384 E6.56174
G1 X134.883 Y131.727 E6.58748
G1 X135.135 Y132.027 E6.61321
G1 X135.441 Y132.271 E6.63895
G1 X135.817 Y132.464 E6.66676
G1 X135.758 Y132.710 E6.68340
G1 X104.261 Y132.710 E8.75492
G1 X104.197 Y132.472 E8.77114
G1 X104.640 Y132.216 E8.80476
G1 X104.922 Y131.967 E8.82953
G1 X105.121 Y131.719 E8.85046
G1 X105.304 Y131.384 E8.87555
G1 X105.419 Y131.010 E8.90129
G1 X105.458 Y130.620 E8.92702
G1 X105.419 Y130.231 E8.95275
G1 X105.304 Y129.857 E8.97849
G1 X105.117 Y129.514 E9.00422
G1 X104.865 Y129.214 E9.02996
G1 X104.559 Y128.970 E9.05569
G1 X104.211 Y128.792 E9.08142
G1 X103.835 Y128.686 E9.10715
G1 X103.444 Y128.656 E9.13289
G1 X103.056 Y128.705 E9.15862
G1 X102.685 Y128.830 E9.18436
G1 X102.346 Y129.025 E9.21008
G1 X102.053 Y129.284 E9.23582
G1 X101.817 Y129.596 E9.26155
G1 X101.654 Y129.934 E9.28626
G1 X101.404 Y129.877 E9.30311
G1 X101.404 Y109.637 E10.63432
G1 X101.646 Y109.575 E10.65075
G1 X101.870 Y109.986 E10.68154
G1 X102.121 Y110.286 E10.70727
G1 X102.427 Y110.530 E10.73300
G1 X102.775 Y110.709 E10.75874
G1 X103.152 Y110.814 E10.78447
G1 X103.542 Y110.844 E10.81020
G1 X103.931 Y110.795 E10.83594
G1 X104.301 Y110.670 E10.86167
G1 X104.640 Y110.475 E10.88740
G1 X104.934 Y110.216 E10.91314
G1 X105.170 Y109.904 E10.93887
G1 X105.340 Y109.551 E10.96461
G1 X105.436 Y109.172 E10.99034
G1 X105.456 Y108.782 E11.01607
G1 X105.397 Y108.395 E11.04181
G1 X105.264 Y108.027 E11.06754
G1 X105.060 Y107.693 E11.09327
G1 X104.686 Y107.290 E11.12943
G1 X135.270 Y107.290 E13.14097
G1 X134.878 Y107.782 E13.18234
G1 X134.696 Y108.116 E13.20739
G1 X134.581 Y108.490 E13.23313
G1 X134.542 Y108.880 E13.25885
G1 X134.581 Y109.269 E13.28458
G1 X134.696 Y109.643 E13.31032
G1 X134.883 Y109.986 E13.33605
G1 X135.135 Y110.286 E13.36178
G1 X135.441 Y110.530 E13.38752
G1 X135.789 Y110.709 E13.41325
G1 X136.166 Y110.814 E13.43899
G1 X136.556 Y110.844 E13.46472
G1 X136.944 Y110.795 E13.49045
G1 X137.315 Y110.670 E13.51619
G1 X137.654 Y110.475 E13.54192
G1 X137.947 Y110.216 E13.56765
G1 X138.183 Y109.904 E13.59339
G1 X138.327 Y109.606 E13.61513
G1 X138.060 Y110.858 F24000.000
G1 F2100
G1 X138.060 Y128.618 E14.78317
G1 X137.421 Y128.290 E14.83042
G1 X136.941 Y128.155 E14.86321
G1 X136.444 Y128.118 E14.89599
G1 X135.950 Y128.180 E14.92878
G1 X135.477 Y128.339 E14.96156
G1 X135.046 Y128.588 E14.99434
G1 X134.672 Y128.918 E15.02712
G1 X134.381 Y129.302 E15.05877
G1 X134.195 Y129.665 E15.08562
G1 X134.053 Y130.125 E15.11727
G1 X134.004 Y130.621 E15.15005
G1 X134.053 Y131.116 E15.18282
G1 X134.200 Y131.593 E15.21561
G1 X134.517 Y132.174 E15.25916
G1 X105.483 Y132.174 E17.16868
G1 X105.800 Y131.593 E17.21222
G1 X105.947 Y131.116 E17.24501
G1 X105.996 Y130.620 E17.27779
G1 X105.947 Y130.125 E17.31057
G1 X105.800 Y129.648 E17.34336
G1 X105.561 Y129.210 E17.37614
G1 X105.241 Y128.829 E17.40893
G1 X104.851 Y128.518 E17.44171
G1 X104.408 Y128.290 E17.47449
G1 X103.928 Y128.155 E17.50727
G1 X103.431 Y128.118 E17.54006
G1 X102.936 Y128.180 E17.57284
G1 X102.464 Y128.339 E17.60563
G1 X101.940 Y128.642 E17.64544
G1 X101.940 Y110.882 E18.81348
G1 X102.579 Y111.210 E18.86073
G1 X103.059 Y111.345 E18.89351
G1 X103.556 Y111.382 E18.92630
G1 X104.050 Y111.320 E18.95908
G1 X104.523 Y111.161 E18.99187
G1 X104.954 Y110.912 E19.02465
G1 X105.328 Y110.582 E19.05744
G1 X105.629 Y110.185 E19.09022
G1 X105.845 Y109.736 E19.12300
G1 X105.968 Y109.253 E19.15579
G1 X105.993 Y108.755 E19.18856
G1 X105.919 Y108.262 E19.22135
G1 X105.760 Y107.826 E19.25187
G1 X134.225 Y107.826 E21.12399
G1 X134.053 Y108.384 E21.16239
G1 X134.004 Y108.880 E21.19517
G1 X134.053 Y109.375 E21.22794
G1 X134.200 Y109.852 E21.26073
G1 X134.439 Y110.290 E21.29352
G1 X134.759 Y110.671 E21.32630
G1 X135.149 Y110.982 E21.35908
G1 X135.592 Y111.210 E21.39187
G1 X136.072 Y111.345 E21.42465
G1 X136.569 Y111.382 E21.45743
G1 X137.064 Y111.320 E21.49022
G1 X137.536 Y111.161 E21.52300
G1 X138.021 Y110.881 E21.55985
G1 E17.55985 F2400.00000
G92 E0
G1 X104.904 Y109.092 F24000.000
G1 E4.00000 F2400.00000
G1 F2100
G1 X104.834 Y109.367 E4.01868
G1 X104.711 Y109.623 E4.03737
G1 X104.539 Y109.850 E4.05605
G1 X104.326 Y110.038 E4.07473
G1 X104.080 Y110.180 E4.09342
G1 X103.811 Y110.270 E4.11210
G1 X103.529 Y110.306 E4.13078
G1 X103.246 Y110.284 E4.14947
G1 X102.972 Y110.207 E4.16815
G1 X102.719 Y110.078 E4.18683
G1 X102.497 Y109.901 E4.20552
G1 X102.315 Y109.683 E4.22420
G1 X102.179 Y109.434 E4.24288
G1 X102.096 Y109.166 E4.26134
G1 X102.069 Y108.943 E4.27608
G1 X102.083 Y108.667 E4.29428
G1 X102.153 Y108.392 E4.31295
G1 X102.276 Y108.136 E4.33163
G1 X102.448 Y107.909 E4.35031
G1 X102.661 Y107.721 E4.36900
G1 X102.907 Y107.579 E4.38768
G1 X103.176 Y107.489 E4.40636
G1 X103.458 Y107.453 E4.42505
G1 X103.738 Y107.474 E4.44350
G1 X103.955 Y107.530 E4.45824
G1 X104.207 Y107.644 E4.47644
G1 X104.437 Y107.810 E4.49511
G1 X104.630 Y108.018 E4.51379
G1 X104.779 Y108.261 E4.53248
G1 X104.876 Y108.527 E4.55116
G1 X104.918 Y108.808 E4.56984
G1 X104.906 Y109.047 E4.58556
G1 X104.904 Y109.092 F24000.000
G1 E0.58556 F2400.00000
G92 E0
G1 X105.701 Y108.769 F24000.000
G1 X101.845 Y107.454 F24000.000
G1 X102.245 Y107.290 F24000.000
G1 E4.00000 F2400.00000
G1 F2100
G1 X101.817 Y107.855 E4.04660
G1 X101.654 Y108.193 E4.07131
G1 X101.404 Y108.136 E4.08816
G1 X101.404 Y107.290 E4.14382
G1 X102.200 Y107.290 E4.19615
G1 E0.19615 F2400.00000
G92 E0
G1 X101.646 Y131.316 F24000.000
G1 E4.00000 F2400.00000
G1 F2100
G1 X101.870 Y131.727 E4.03079
G1 X102.121 Y132.027 E4.05652
G1 X102.427 Y132.271 E4.08226
G1 X102.804 Y132.464 E4.11007
G1 X102.744 Y132.710 E4.12671
G1 X101.404 Y132.710 E4.21487
G1 X101.404 Y131.378 E4.30247
G1 X101.602 Y131.327 E4.31594
G1 X102.172 Y131.154 F24000.000
G1 F2100
G1 X102.096 Y130.906 E4.33297
G1 X102.069 Y130.684 E4.34771
G1 X102.083 Y130.408 E4.36590
G1 X102.153 Y130.133 E4.38458
G1 X102.276 Y129.877 E4.40326
G1 X102.448 Y129.650 E4.42195
G1 X102.661 Y129.462 E4.44063
G1 X102.907 Y129.320 E4.45931
G1 X103.176 Y129.230 E4.47799
G1 X103.458 Y129.194 E4.49668
G1 X103.741 Y129.216 E4.51536
G1 X104.014 Y129.293 E4.53404
G1 X104.267 Y129.422 E4.55272
G1 X104.489 Y129.599 E4.57141
G1 X104.672 Y129.817 E4.59009
G1 X104.808 Y130.066 E4.60878
G1 X104.892 Y130.338 E4.62746
G1 X104.920 Y130.620 E4.64614
G1 X104.892 Y130.903 E4.66482
G1 X104.808 Y131.175 E4.68351
G1 X104.674 Y131.421 E4.70196
G1 X104.534 Y131.596 E4.71670
G1 X104.326 Y131.779 E4.73490
G1 X104.080 Y131.921 E4.75357
G1 X103.811 Y132.011 E4.77225
G1 X103.529 Y132.047 E4.79094
G1 X103.246 Y132.025 E4.80962
G1 X102.972 Y131.948 E4.82830
G1 X102.719 Y131.819 E4.84699
G1 X102.497 Y131.642 E4.86567
G1 X102.315 Y131.424 E4.88435
G1 X102.190 Y131.195 E4.90151
G1 X101.916 Y131.121 F24000.000
G1 E0.90151 F2400.00000
G92 E0
G1 X101.672 Y129.191 F24000.000
G1 E4.00000 F2400.00000
G1 F2100
G1 X101.925 Y128.997 E4.00096
G1 E0.00096 F2400.00000
G92 E0
G1 X101.874 Y129.117 F24000.000
G1 X101.785 Y128.919 F24000.000
G1 X102.893 Y127.203 F24000.000
G1 X104.515 Y125.668 F24000.000
G1 X107.033 Y123.951 F24000.000
G1 X105.037 Y129.038 F24000.000
G1 X110.321 Y126.811 F24000.000
G1 X108.618 Y129.377 F24000.000
G1 X107.017 Y131.128 F24000.000
G1 X105.377 Y132.244 F24000.000
G1 X105.151 Y132.163 F24000.000
G1 E4.00000 F2400.00000
G1 F2100
G1 X104.928 Y132.442 E4.00206
G1 E0.00206 F2400.00000
G92 E0
G1 X102.008 Y110.579 F24000.000
G1 E4.00000 F2400.00000
G1 F2100
G1 X101.672 Y110.345 E4.00124
G1 E0.00124 F2400.00000
G92 E0
G1 X102.451 Y107.478 F24000.000
G1 E4.00000 F2400.00000
G1 F2100
G1 X103.023 Y107.022 E4.01371
G1 X102.867 Y107.162 F24000.000
G1 F2100
G1 X102.651 Y107.198 E4.01961
